!!!!SEGMENT: pl-cz--iii-560--001-010-pc1_raszek-waclaw--missa-in-d-benedictus-post-correcturam-pc1.krn
!!!cenid: 17xx:1056b
!!!COM: Raszek, Wacław
!!!COM-rismID: pe30020314
!!!CDT: <1848->1848
!!!CNT:
!!!OPR: Missa in D
!!!OTL: Benedictus [post-correcturam]
!!!OMV: 010
!!!PDT:
!!!AGN: Sacred; Mass
!!!SMS-siglum: PL-CZ
!!!SMS-shelfmark: III-560
!!!SMS-shelfwork: 001-010 M
!!!SMS-variant:
!!!SMS-altvar:
!!!NIFC-rismSourceID: 300001046
!!!NIFC-islandoraID: pl-cz:39086
!!!URL-pdf-islandora: https://repozytorium.nifc.pl/islandora/object/pl-cz%3A39086/datastream/PDF/view
!!!URL-scan:
!!!ONB-nifc: UWAGA: części Mszy: Kyrie, Gloria, Domine Deus, Cum Sancto spiritu, Credo, Et incarnatus, Et resurrexit, Sanctus, Pleni, Benedictus, Agnus Dei, Dona nobis
!!!AIN: 1 alto 1 bass 2 cor 1 flt 2 oboe 1 organ 1 soprn 1 tenor 1 viola 2 violn
!!!OMD:
!!!OMD-mod: Adagio
!!!key: D
**kern	**dynam	**kern	**dynam	**kern	**dynam	**kern	**dynam	**kern	**kern	**kern	**text	**kern	**text	**kern	**dynam	**kern	**dynam	**kern	**kern	**dynam	**kern
*	*	*group4	*	*group4	*	*group4	*	*group3	*group3	*group3	*	*group3	*	*group2	*	*group2	*	*group1	*group1	*	*group1
*part13	*part13	*part12	*part12	*part11	*part11	*part10	*part10	*part9	*part8	*part7	*part7	*part6	*part6	*part5	*part5	*part4	*part4	*part3	*part2	*part2	*part1
*staff13	*	*staff12	*	*staff11	*	*staff10	*	*staff9	*staff8	*staff7	*staff7	*staff6	*staff6	*staff5	*	*staff4	*staff4	*staff3	*staff2	*staff2	*staff1
*I"Organo.	*	*I"Alto Viola Obligat	*	*I"Violino Secundo	*	*I"Violino Primo.	*	*I"Baſſo.	*I"Tenore.	*I"Alto.	*	*I"Canto.	*	*I"Corno 2do in D#	*	*I"Corno 1mo in D#	*	*I"Oboe Secondo	*I"Oboe Primo	*	*I"Flauto Traverso
*mI"Organo	*	*mI"Viola	*	*mI"Violino II	*	*mI"Violino I	*	*mI"Basso	*mI"Tenore	*mI"Alto	*	*mI"Soprano	*	*mI"Corno II in D	*	*mI"Corno I in D	*	*mI"Oboe II	*mI"Oboe I	*	*mI"Flauto
*I'org	*	*I'vla	*	*I'vl 2	*	*I'vl 1	*	*I'B	*I'T	*I'A	*	*I'S	*	*I'cor 2 in D#	*	*I'cor 1 in D#	*	*I'ob 2	*I'ob 1	*	*I'fl
*	*	*	*	*	*	*	*	*	*	*	*	*	*	*mI'cor 2 in D	*	*mI'cor 1 in D	*	*	*	*	*
*Iorgan	*	*Iviola	*	*Ivioln	*	*Ivioln	*	*Ibass	*Itenor	*Ialto	*	*Isoprn	*	*Icor	*	*Icor	*	*Ioboe	*Ioboe	*	*Iflt
*ICklav	*	*ICstr	*	*ICstr	*	*ICstr	*	*ICvox	*ICvox	*ICvox	*	*ICvox	*	*ICbras	*	*ICbras	*	*ICww	*ICww	*	*ICww
*IGcont	*	*	*	*	*	*	*	*IGcoro	*IGcoro	*IGcoro	*	*IGcoro	*	*	*	*	*	*	*	*	*
*	*	*	*	*	*	*	*	*tacet	*tacet	*	*	*	*	*	*	*	*	*	*	*	*tacet
*clefF4	*	*clefC3	*	*clefG2	*	*clefG2	*	*	*	*clefC3	*	*clefC1	*	*clefG2	*	*clefG2	*	*clefG2	*clefG2	*	*
*	*	*	*	*	*	*	*	*	*	*mclefG2	*	*mclefG2	*	*	*	*	*	*	*	*	*
*	*	*	*	*	*	*	*	*	*	*	*	*	*	*ITrd6c10	*	*ITrd6c10	*	*	*	*	*
*k[f#c#]	*	*k[f#c#]	*	*k[f#c#]	*	*k[f#c#]	*	*	*	*k[f#c#]	*	*k[f#c#]	*	*k[f#c#]	*	*k[f#c#]	*	*k[f#c#]	*k[f#c#]	*	*
*D:	*	*D:	*	*D:	*	*D:	*	*D:	*D:	*D:	*	*D:	*	*D:	*	*D:	*	*D:	*D:	*	*D:
*M2/4	*	*M2/4	*	*M2/4	*	*M2/4	*	*	*	*M2/4	*	*M2/4	*	*M2/4	*	*M2/4	*	*M2/4	*M2/4	*	*
=1	=1	=1	=1	=1	=1	=1	=1	=1	=1	=1	=1	=1	=1	=1	=1	=1	=1	=1	=1	=1	=1
!	!	!	!	!	!	!LO:MO:mod=*null:null	!	!	!	!	!	!	!	!	!	!	!	!	!	!	!
*	*	*	*	*	*	*2\right	*	*	*	*	*	*	*	*	*	*	*	*	*	*	*
!LO:TX:i:a:t=Solo.:mod=	!	!	!	!	!	!	!	!	!	!	!	!	!	!LO:TX:a:t=3.:mod=	!	!LO:TX:a:t=3:mod=	!	!	!LO:TX:t=P:problem:prawdopodobnie partia solowa fl	!	!
!LO:TX:i:a:t=Andante:mod=	!	!	!LO:DY:a:t=p.:mod=%s	!LO:TX:i:a:t=Adagio:mod=	!	!LO:TX:i:a:t=Adagio:mod=	!LO:DY:t=pia:mod=%s	!LO:TX:a:i:t=Benedictus Tacet.:mod=	!LO:TX:a:i:t=Benedictus Tacet:mod=	!LO:TX:a:t=23.:mod=	!	!LO:TX:a:t=23.:mod=	!	!	!	!LO:TX:i:a:t=adaio:mod=	!	!LO:TX:a:t=48.:mod=	!LO:TX:a:t=6.:mod=	!	!LO:TX:t=P:problem:brak partii w źródle, prawdopodobnie zapisana w ob 1
8D\	.	8d\	p	16r	.	2aa\	p	2ryy	2ryy	0r	.	2r	.	1r	.	1r	.	2r	0r	.	2ryy
!	!	!	!	!	!LO:DY:a:t=p&colon;:mod=%s	!	!	!	!	!	!	!	!	!	!	!	!	!	!	!	!
.	.	.	.	16A/LL	p	.	.	.	.	.	.	.	.	.	.	.	.	.	.	.	.
8r	.	8r	.	16d/	.	.	.	.	.	.	.	.	.	.	.	.	.	.	.	.	.
.	.	.	.	16f#/JJ	.	.	.	.	.	.	.	.	.	.	.	.	.	.	.	.	.
8C#\	.	16r	.	16g/LL	.	.	.	.	.	.	.	.	.	.	.	.	.	.	.	.	.
.	.	16A\LL	.	16A/	.	.	.	.	.	.	.	.	.	.	.	.	.	.	.	.	.
8r	.	16c#\	.	16e/	.	.	.	.	.	.	.	.	.	.	.	.	.	.	.	.	.
.	.	16e\JJ	.	16g/JJ	.	.	.	.	.	.	.	.	.	.	.	.	.	.	.	.	.
=2	=2	=2	=2	=2	=2	=2	=2	=2	=2	=2	=2	=2	=2	=2	=2	=2	=2	=2	=2	=2	=2
!	!	!	!	!	!	!	!LO:MO:mod=!null:null	!	!	!	!	!	!	!	!	!	!	!	!	!	!
!	!	!	!	!	!	!	!LO:HP:t=cres	!	!	!	!	!	!	!	!	!	!	!	!	!	!
8D\	.	8d\	.	16f#/LL	.	2aa\	<	2ryy	2ryy	.	.	2r	.	.	.	.	.	2r	.	.	2ryy
.	.	.	.	16A/	.	.	.	.	.	.	.	.	.	.	.	.	.	.	.	.	.
8r	.	8r	.	16d/	.	.	.	.	.	.	.	.	.	.	.	.	.	.	.	.	.
.	.	.	.	16f#/JJ	.	.	.	.	.	.	.	.	.	.	.	.	.	.	.	.	.
8C#\	.	16e\LL	.	16g/LL	.	.	.	.	.	.	.	.	.	.	.	.	.	.	.	.	.
.	.	16A\	.	16A/	.	.	.	.	.	.	.	.	.	.	.	.	.	.	.	.	.
8r	.	16c#\	.	16e/	.	.	.	.	.	.	.	.	.	.	.	.	.	.	.	.	.
.	.	16e\JJ	.	16g/JJ	.	.	.	.	.	.	.	.	.	.	.	.	.	.	.	.	.
=3	=3	=3	=3	=3	=3	=3	=3	=3	=3	=3	=3	=3	=3	=3	=3	=3	=3	=3	=3	=3	=3
!	!	!	!	!	!	!	!LO:DY:t=for:mod=%s	!	!	!	!	!	!	!	!	!	!	!	!	!	!
8D\	.	8d\	.	8f#/	.	4aa\	f	2ryy	2ryy	.	.	2r	.	2r	.	2r	.	2r	.	.	2ryy
8r	.	8r	.	8r	.	.	.	.	.	.	.	.	.	.	.	.	.	.	.	.	.
4r	.	4r	.	4r	.	16gg\LL	.	.	.	.	.	.	.	.	.	.	.	.	.	.	.
.	.	.	.	.	.	16ff#\	.	.	.	.	.	.	.	.	.	.	.	.	.	.	.
.	.	.	.	.	.	16ee\	.	.	.	.	.	.	.	.	.	.	.	.	.	.	.
.	.	.	.	.	.	16dd\JJ	.	.	.	.	.	.	.	.	.	.	.	.	.	.	.
!	!	!	!	!LO:LB:g=original	!	!	!	!	!	!	!	!	!	!	!	!	!	!	!	!	!
=4	=4	=4	=4	=4	=4	=4	=4	=4	=4	=4	=4	=4	=4	=4	=4	=4	=4	=4	=4	=4	=4
!	!	!	!LO:DY:a:mod= 	!	!LO:DY:t=for:mod= 	!	!	!	!	!	!	!	!	!	!	!	!	!	!	!	!
8r	.	8r	f	8r	f	16dd#X\LL	.	2ryy	2ryy	.	.	2r	.	8r	.	8r	.	2r	.	.	2ryy
.	.	.	.	.	.	16ee\	.	.	.	.	.	.	.	.	.	.	.	.	.	.	.
!LO:TX:t=P:problem=mixed beam	!	!	!LO:DY:t= :mod=%s	!	!LO:DY:t= :mod=%s	!	!	!	!	!	!	!	!	!LO:TX:t=P:problem=mixed beam	!	!	!	!	!	!	!
8G\L	.	8g\L	f	8b\L	f	16gg\	.	.	.	.	.	.	.	8e\L	.	8e\L	.	.	.	.	.
.	.	.	.	.	.	16bb\JJ	.	.	.	.	.	.	.	.	.	.	.	.	.	.	.
8A\	.	8f#\	.	8a\	.	16aa\LL	.	.	.	.	.	.	.	8d\	.	8f#\	.	.	.	.	.
.	.	.	.	.	.	16ff#\	.	.	.	.	.	.	.	.	.	.	.	.	.	.	.
8AA/J	.	8e\J	.	8g\J	.	16gg\	.	.	.	.	.	.	.	8A/J	.	8e\J	.	.	.	.	.
.	.	.	.	.	.	16ee\JJ	.	.	.	.	.	.	.	.	.	.	.	.	.	.	.
!	!	!LO:LB:g=original	!	!	!	!	!	!	!	!	!	!	!	!	!	!	!	!	!	!	!
=5	=5	=5	=5	=5	=5	=5	=5	=5	=5	=5	=5	=5	=5	=5	=5	=5	=5	=5	=5	=5	=5
.	.	.	.	.	.	8qff#/	.	.	.	.	.	.	.	.	.	.	.	.	.	.	.
!	!	!	!	!	!	!	!	!	!	!	!	!	!	!LO:TX:i:a:t=adante:mod=	!	!	!	!	!	!	!
8BB/L	.	8d\L	.	8f#/L	.	16ee\LL	.	2ryy	2ryy	0r	.	2r	.	4F#/	.	4d\	.	2r	1r	.	2ryy
!	!	!	!	!	!	!LO:SIC:s=32ddL	!	!	!	!	!	!	!	!	!	!	!	!	!	!	!
.	.	.	.	.	.	32ddn\L	.	.	.	.	.	.	.	.	.	.	.	.	.	.	.
.	.	.	.	.	.	32ee\JJJ	.	.	.	.	.	.	.	.	.	.	.	.	.	.	.
8BB/	.	8d\	.	8f#/	.	16dd\LL	.	.	.	.	.	.	.	.	.	.	.	.	.	.	.
.	.	.	.	.	.	16dd\JJ	.	.	.	.	.	.	.	.	.	.	.	.	.	.	.
!	!	!	!	!	!	!LO:LB:g=original	!	!	!	!	!	!	!	!	!	!	!	!	!	!	!
8F#/	.	8f#\	.	8a/	.	8.dd\L	.	.	.	.	.	.	.	4r	.	4r	.	.	.	.	.
8F#/J	.	8f#\J	.	8a/J	.	.	.	.	.	.	.	.	.	.	.	.	.	.	.	.	.
.	.	.	.	.	.	16dd#X\Jk	.	.	.	.	.	.	.	.	.	.	.	.	.	.	.
=6	=6	=6	=6	=6	=6	=6	=6	=6	=6	=6	=6	=6	=6	=6	=6	=6	=6	=6	=6	=6	=6
!LO:TX:t=P:problem=mixed beam	!	!LO:TX:t=P:problem=mixed beam	!	!	!	!LO:SIC:v:s=16dd#\LL	!	!	!	!	!	!	!	!	!	!	!	!	!	!	!
8G\L	.	8g\L	.	8b/L	.	16dd\LL	.	2ryy	2ryy	.	.	2r	.	8r	.	8r	.	2r	.	.	2ryy
.	.	.	.	.	.	16ee\	.	.	.	.	.	.	.	.	.	.	.	.	.	.	.
!	!	!	!	!	!	!	!	!	!	!	!	!	!	!LO:TX:t=P:problem=mixed beam	!	!	!	!	!	!	!
8G\	.	8g\	.	8g/J	.	16gg\	.	.	.	.	.	.	.	8e\L	.	8e\L	.	.	.	.	.
.	.	.	.	.	.	16bb\JJ	.	.	.	.	.	.	.	.	.	.	.	.	.	.	.
8A\	.	8a\	.	16f#/LL	.	16aa\LL	.	.	.	.	.	.	.	8d\	.	8f#\	.	.	.	.	.
.	.	.	.	16d/	.	16ff#\	.	.	.	.	.	.	.	.	.	.	.	.	.	.	.
8AA/J	.	8A/J	.	16e/	.	16gg\	.	.	.	.	.	.	.	8A/J	.	8e\J	.	.	.	.	.
.	.	.	.	16c#/JJ	.	16ee\JJ	.	.	.	.	.	.	.	.	.	.	.	.	.	.	.
=7	=7	=7	=7	=7	=7	=7	=7	=7	=7	=7	=7	=7	=7	=7	=7	=7	=7	=7	=7	=7	=7
!	!	!	!	!	!	!	!	!	!	!	!	!	!	!	!	!	!	!	!LO:MO:mod=*null:null	!	!
*	*	*	*	*	*	*	*	*	*	*	*	*	*	*	*	*	*	*	*2\right	*	*
!	!LO:DY:a:t=pi&colon;:mod=%s	!	!LO:DY:a:t=p.:mod=%s	!	!	!LO:TX:t=P:problem=mixed beam	!	!	!	!	!	!	!	!	!	!	!	!	!	!	!
8D\	p	8d\	p	8d/	.	16ff#\LL	.	2ryy	2ryy	.	.	2r	.	8F#/	.	8d\	.	2r	2aa\	.	2ryy
.	.	.	.	.	.	16A/	.	.	.	.	.	.	.	.	.	.	.	.	.	.	.
!	!	!	!	!	!LO:DY:t=p&colon;:mod= 	!	!	!	!	!	!	!	!	!	!	!	!	!	!	!	!
8r	.	8r	.	16r	p	16d/	.	.	.	.	.	.	.	8r	.	4d\	.	.	.	.	.
!	!	!	!	!	!LO:DY:t= :mod=%s	!	!	!	!	!	!	!	!	!	!	!	!	!	!	!	!
.	.	.	.	16d/	p	16f#/JJ	.	.	.	.	.	.	.	.	.	.	.	.	.	.	.
8C#\	.	8A/	.	16e/LL	.	16g/LL	.	.	.	.	.	.	.	4r	.	.	.	.	.	.	.
.	.	.	.	16A/	.	16A/	.	.	.	.	.	.	.	.	.	.	.	.	.	.	.
8r	.	8r	.	16c#/	.	16e/	.	.	.	.	.	.	.	.	.	8r	.	.	.	.	.
.	.	.	.	16e/JJ	.	16g/JJ	.	.	.	.	.	.	.	.	.	.	.	.	.	.	.
=8	=8	=8	=8	=8	=8	=8	=8	=8	=8	=8	=8	=8	=8	=8	=8	=8	=8	=8	=8	=8	=8
!	!	!	!	!	!	!	!	!	!	!	!	!	!	!LO:TX:a:t=12.:mod=	!	!LO:TX:a:t=12:mod=	!	!	!	!	!
8D\	.	8d\	.	8d/	.	16f#/LL	.	2ryy	2ryy	.	.	2r	.	0r	.	0r	.	2r	2aa\	.	2ryy
.	.	.	.	.	.	16A/	.	.	.	.	.	.	.	.	.	.	.	.	.	.	.
8r	.	8r	.	16r	.	16d/	.	.	.	.	.	.	.	.	.	.	.	.	.	.	.
.	.	.	.	16d/	.	16f#/JJ	.	.	.	.	.	.	.	.	.	.	.	.	.	.	.
8C#\	.	8A/	.	16e/LL	.	16g/LL	.	.	.	.	.	.	.	.	.	.	.	.	.	.	.
.	.	.	.	16A/	.	16A/	.	.	.	.	.	.	.	.	.	.	.	.	.	.	.
8r	.	8r	.	16c#/	.	16e/	.	.	.	.	.	.	.	.	.	.	.	.	.	.	.
.	.	.	.	16e/JJ	.	16g/JJ	.	.	.	.	.	.	.	.	.	.	.	.	.	.	.
!LO:LB:g=original	!	!	!	!	!	!	!	!	!	!	!	!	!	!	!	!	!	!	!	!	!
=9	=9	=9	=9	=9	=9	=9	=9	=9	=9	=9	=9	=9	=9	=9	=9	=9	=9	=9	=9	=9	=9
8D\	.	8d\	.	8d/	.	8f#/	.	2ryy	2ryy	0r	.	2r	.	.	.	.	.	2r	4aa\	.	2ryy
8r	.	8r	.	8r	.	8r	.	.	.	.	.	.	.	.	.	.	.	.	.	.	.
4r	.	4r	.	4r	.	4r	.	.	.	.	.	.	.	.	.	.	.	.	16gg\LL	.	.
.	.	.	.	.	.	.	.	.	.	.	.	.	.	.	.	.	.	.	16ff#\	.	.
.	.	.	.	.	.	.	.	.	.	.	.	.	.	.	.	.	.	.	16ee\	.	.
.	.	.	.	.	.	.	.	.	.	.	.	.	.	.	.	.	.	.	16dd\JJ	.	.
=10	=10	=10	=10	=10	=10	=10	=10	=10	=10	=10	=10	=10	=10	=10	=10	=10	=10	=10	=10	=10	=10
*	*	*	*	*	*	*	*	*	*	*	*	*	*	*	*	*	*	*	*Xtuplet	*	*
!LO:TX:a:t=4:mod=	!	!LO:TX:a:t=5:mod=	!	!	!	!	!	!	!	!	!	!	!	!	!	!	!	!	!	!	!
2r	.	0r	.	8r	.	8r	.	2ryy	2ryy	.	.	2r	.	.	.	.	.	2r	24dd|\LL	.	2ryy
.	.	.	.	.	.	.	.	.	.	.	.	.	.	.	.	.	.	.	24ff#|\	.	.
.	.	.	.	.	.	.	.	.	.	.	.	.	.	.	.	.	.	.	24aa|\JJ	.	.
.	.	.	.	8d/L	.	8f#/L	.	.	.	.	.	.	.	.	.	.	.	.	24ddd|\LL	.	.
.	.	.	.	.	.	.	.	.	.	.	.	.	.	.	.	.	.	.	24fff#|\	.	.
.	.	.	.	.	.	.	.	.	.	.	.	.	.	.	.	.	.	.	24eee|\JJ	.	.
.	.	.	.	8d/	.	8f#/	.	.	.	.	.	.	.	.	.	.	.	.	(24ddd\LL	.	.
.	.	.	.	.	.	.	.	.	.	.	.	.	.	.	.	.	.	.	24ccc#\)	.	.
.	.	.	.	.	.	.	.	.	.	.	.	.	.	.	.	.	.	.	24bb|\JJ	.	.
.	.	.	.	8d/J	.	8f#/J	.	.	.	.	.	.	.	.	.	.	.	.	(24aa\LL	.	.
.	.	.	.	.	.	.	.	.	.	.	.	.	.	.	.	.	.	.	24gg\)	.	.
.	.	.	.	.	.	.	.	.	.	.	.	.	.	.	.	.	.	.	24ff#|\JJ	.	.
!	!	!	!	!LO:LB:g=original	!	!LO:LB:g=original	!	!	!	!	!	!	!	!	!	!	!	!	!	!	!
=11	=11	=11	=11	=11	=11	=11	=11	=11	=11	=11	=11	=11	=11	=11	=11	=11	=11	=11	=11	=11	=11
2r	.	.	.	8r	.	8r	.	2ryy	2ryy	.	.	2r	.	.	.	.	.	2r	(32aa\LLL	.	2ryy
.	.	.	.	.	.	.	.	.	.	.	.	.	.	.	.	.	.	.	32gg\	.	.
.	.	.	.	.	.	.	.	.	.	.	.	.	.	.	.	.	.	.	32ff#\	.	.
.	.	.	.	.	.	.	.	.	.	.	.	.	.	.	.	.	.	.	32gg\JJJ)	.	.
.	.	.	.	8d/L	.	8b\L	.	.	.	.	.	.	.	.	.	.	.	.	4gg\	.	.
.	.	.	.	8d/	.	8b\	.	.	.	.	.	.	.	.	.	.	.	.	.	.	.
.	.	.	.	8d/J	.	8b\J	.	.	.	.	.	.	.	.	.	.	.	.	8r	.	.
!	!	!	!	!	!	!	!	!	!	!	!	!	!	!	!	!	!	!	!LO:LB:g=original	!	!
=12	=12	=12	=12	=12	=12	=12	=12	=12	=12	=12	=12	=12	=12	=12	=12	=12	=12	=12	=12	=12	=12
2r	.	.	.	8r	.	8r	.	2ryy	2ryy	.	.	2r	.	0r	.	0r	.	2r	24a|\LL	.	2ryy
.	.	.	.	.	.	.	.	.	.	.	.	.	.	.	.	.	.	.	24cc#|\	.	.
.	.	.	.	.	.	.	.	.	.	.	.	.	.	.	.	.	.	.	24ee|\JJ	.	.
.	.	.	.	8c#/L	.	8a\L	.	.	.	.	.	.	.	.	.	.	.	.	24gg|\LL	.	.
.	.	.	.	.	.	.	.	.	.	.	.	.	.	.	.	.	.	.	24aa|\	.	.
.	.	.	.	.	.	.	.	.	.	.	.	.	.	.	.	.	.	.	24gg|\JJ	.	.
.	.	.	.	8c#/	.	8a\	.	.	.	.	.	.	.	.	.	.	.	.	24eee|\LL	.	.
.	.	.	.	.	.	.	.	.	.	.	.	.	.	.	.	.	.	.	24ddd|\	.	.
.	.	.	.	.	.	.	.	.	.	.	.	.	.	.	.	.	.	.	24ccc#|\JJ	.	.
.	.	.	.	8c#/J	.	8a\J	.	.	.	.	.	.	.	.	.	.	.	.	(24bb\LL	.	.
.	.	.	.	.	.	.	.	.	.	.	.	.	.	.	.	.	.	.	24aa\)	.	.
.	.	.	.	.	.	.	.	.	.	.	.	.	.	.	.	.	.	.	24gg|\JJ	.	.
=13	=13	=13	=13	=13	=13	=13	=13	=13	=13	=13	=13	=13	=13	=13	=13	=13	=13	=13	=13	=13	=13
2r	.	.	.	8d/	.	16a/LL	.	2ryy	2ryy	0r	.	2r	.	.	.	.	.	2r	16ff#|\LL	.	2ryy
.	.	.	.	.	.	16f#/	.	.	.	.	.	.	.	.	.	.	.	.	16aa|\	.	.
.	.	.	.	8r	.	16f#/	.	.	.	.	.	.	.	.	.	.	.	.	16aa|\	.	.
.	.	.	.	.	.	16f#/JJ	.	.	.	.	.	.	.	.	.	.	.	.	16aa|\JJ	.	.
.	.	.	.	8r	.	16f#/LL	.	.	.	.	.	.	.	.	.	.	.	.	24aa\LL	.	.
.	.	.	.	.	.	.	.	.	.	.	.	.	.	.	.	.	.	.	24gg\	.	.
.	.	.	.	.	.	32e/L	.	.	.	.	.	.	.	.	.	.	.	.	.	.	.
.	.	.	.	.	.	.	.	.	.	.	.	.	.	.	.	.	.	.	24ff#\JJ	.	.
.	.	.	.	.	.	32d/JJJ	.	.	.	.	.	.	.	.	.	.	.	.	.	.	.
.	.	.	.	8d/	.	16f#/LL	.	.	.	.	.	.	.	.	.	.	.	.	24aa\LL	.	.
.	.	.	.	.	.	.	.	.	.	.	.	.	.	.	.	.	.	.	24gg\	.	.
.	.	.	.	.	.	32e/L	.	.	.	.	.	.	.	.	.	.	.	.	.	.	.
.	.	.	.	.	.	.	.	.	.	.	.	.	.	.	.	.	.	.	24ff#\JJ	.	.
.	.	.	.	.	.	32d/JJJ	.	.	.	.	.	.	.	.	.	.	.	.	.	.	.
=14	=14	=14	=14	=14	=14	=14	=14	=14	=14	=14	=14	=14	=14	=14	=14	=14	=14	=14	=14	=14	=14
.	.	.	.	.	.	.	.	.	.	.	.	.	.	.	.	.	.	.	8qqgg/	.	.
2ryy	.	2r	.	8r	.	8c#/L	.	2ryy	2ryy	.	.	2r	.	.	.	.	.	2r	16ff#\LL	.	2ryy
.	.	.	.	.	.	.	.	.	.	.	.	.	.	.	.	.	.	.	32ee\L	.	.
.	.	.	.	.	.	.	.	.	.	.	.	.	.	.	.	.	.	.	32ff#\JJ	.	.
.	.	.	.	8A/L	.	8c#/	.	.	.	.	.	.	.	.	.	.	.	.	8ee\J	.	.
.	.	.	.	8a/J	.	8c#/J	.	.	.	.	.	.	.	.	.	.	.	.	8r	.	.
.	.	.	.	8r	.	8r	.	.	.	.	.	.	.	.	.	.	.	.	(32aa\LLL	.	.
.	.	.	.	.	.	.	.	.	.	.	.	.	.	.	.	.	.	.	32gg#X\)	.	.
.	.	.	.	.	.	.	.	.	.	.	.	.	.	.	.	.	.	.	(32bb\	.	.
.	.	.	.	.	.	.	.	.	.	.	.	.	.	.	.	.	.	.	32aa\JJJ)	.	.
=15	=15	=15	=15	=15	=15	=15	=15	=15	=15	=15	=15	=15	=15	=15	=15	=15	=15	=15	=15	=15	=15
!	!	!	!	!	!LO:DY:t= :mod=%s	!	!LO:DY:t= :mod=%s	!	!	!	!	!	!	!	!	!	!	!	!	!	!
!	!	!	!	!	!LO:MO:mod=!LO&colon;DY&colon;ed=brack	!	!LO:MO:mod=!LO&colon;DY&colon;ed=brack	!	!	!	!	!	!	!	!	!	!	!	!	!	!
!	!LO:DY:t=p.:mod=%s	!	!LO:DY:a:t=p.:mod=%s	!	!null	!	!null	!	!	!	!	!	!	!	!	!	!	!	!	!	!
8C#/	p	8A/	p	8c#/	p	8a/L	p	2ryy	2ryy	.	.	2r	.	.	.	.	.	2r	(24ggn\LL	.	2ryy
.	.	.	.	.	.	.	.	.	.	.	.	.	.	.	.	.	.	.	24ff#\)	.	.
.	.	.	.	.	.	.	.	.	.	.	.	.	.	.	.	.	.	.	24ee|\	.	.
!	!	!	!	!	!	!LO:TUP:b:problem=klamra łukowa	!	!	!	!	!	!	!	!	!	!	!	!	!	!	!
8r	.	8r	.	8r	.	24g/L	.	.	.	.	.	.	.	.	.	.	.	.	(24bb\	.	.
.	.	.	.	.	.	24f#/	.	.	.	.	.	.	.	.	.	.	.	.	24aa\)	.	.
.	.	.	.	.	.	24e/JJ	.	.	.	.	.	.	.	.	.	.	.	.	24gg|\JJ	.	.
8D/	.	8A/	.	8d/	.	(16d/LL	.	.	.	.	.	.	.	.	.	.	.	.	16ff#\LL	.	.
.	.	.	.	.	.	16f#/)	.	.	.	.	.	.	.	.	.	.	.	.	16ddd\	.	.
8r	.	8r	.	8r	.	16f#|/	.	.	.	.	.	.	.	.	.	.	.	.	16aa\	.	.
.	.	.	.	.	.	16f#|/JJ	.	.	.	.	.	.	.	.	.	.	.	.	16aa\JJ	.	.
!	!	!	!	!	!	!LO:LB:g=original	!	!	!	!	!	!	!	!	!	!	!	!	!	!	!
=16	=16	=16	=16	=16	=16	=16	=16	=16	=16	=16	=16	=16	=16	=16	=16	=16	=16	=16	=16	=16	=16
8C#/	.	8A/	.	8c#/	.	16e/LL	.	2ryy	2ryy	.	.	2r	.	0r	.	0r	.	2r	(24gg\LL	.	2ryy
.	.	.	.	.	.	.	.	.	.	.	.	.	.	.	.	.	.	.	24ff#\)	.	.
.	.	.	.	.	.	16g/	.	.	.	.	.	.	.	.	.	.	.	.	.	.	.
.	.	.	.	.	.	.	.	.	.	.	.	.	.	.	.	.	.	.	24ee|\	.	.
8r	.	8r	.	8r	.	16f#/	.	.	.	.	.	.	.	.	.	.	.	.	(24bb\	.	.
.	.	.	.	.	.	.	.	.	.	.	.	.	.	.	.	.	.	.	24aa\)	.	.
.	.	.	.	.	.	16e/JJ	.	.	.	.	.	.	.	.	.	.	.	.	.	.	.
.	.	.	.	.	.	.	.	.	.	.	.	.	.	.	.	.	.	.	24gg|\JJ	.	.
8D/	.	8A/	.	8d/	.	(16d/LL	.	.	.	.	.	.	.	.	.	.	.	.	(16ff#\LL	.	.
.	.	.	.	.	.	16f#/)	.	.	.	.	.	.	.	.	.	.	.	.	16ddd\)	.	.
8r	.	8r	.	8r	.	16f#|/	.	.	.	.	.	.	.	.	.	.	.	.	16aa|\	.	.
.	.	.	.	.	.	16f#|/JJ	.	.	.	.	.	.	.	.	.	.	.	.	16aa|\JJ	.	.
!	!	!	!	!	!	!	!	!	!	!	!	!	!	!	!	!	!	!	!LO:LB:g=original	!	!
=17	=17	=17	=17	=17	=17	=17	=17	=17	=17	=17	=17	=17	=17	=17	=17	=17	=17	=17	=17	=17	=17
.	.	.	.	.	.	.	.	.	.	.	.	.	.	.	.	.	.	.	8qqaa#X/	.	.
8r	.	8r	.	8r	.	8r	.	2ryy	2ryy	0r	.	2r	.	.	.	.	.	2r	4bb\	.	2ryy
!	!	!LO:TX:t=P:problem=mixed beam	!	!	!	!	!	!	!	!	!	!	!	!	!	!	!	!	!	!	!
8G\L	.	8g\L	.	8g/L	.	8d/L	.	.	.	.	.	.	.	.	.	.	.	.	.	.	.
8G\J	.	8G/J	.	8g/J	.	8d/J	.	.	.	.	.	.	.	.	.	.	.	.	(32bb\LLL	.	.
.	.	.	.	.	.	.	.	.	.	.	.	.	.	.	.	.	.	.	32ccc#\	.	.
.	.	.	.	.	.	.	.	.	.	.	.	.	.	.	.	.	.	.	32ddd\	.	.
.	.	.	.	.	.	.	.	.	.	.	.	.	.	.	.	.	.	.	32ccc#\JJJ)	.	.
8r	.	8r	.	8r	.	8r	.	.	.	.	.	.	.	.	.	.	.	.	(32ddd\LLL	.	.
.	.	.	.	.	.	.	.	.	.	.	.	.	.	.	.	.	.	.	32bb\	.	.
.	.	.	.	.	.	.	.	.	.	.	.	.	.	.	.	.	.	.	32aany\	.	.
.	.	.	.	.	.	.	.	.	.	.	.	.	.	.	.	.	.	.	32gg\JJJ)	.	.
!	!	!LO:LB:g=original	!	!	!	!	!	!	!	!	!	!	!	!	!	!	!	!	!	!	!
=18	=18	=18	=18	=18	=18	=18	=18	=18	=18	=18	=18	=18	=18	=18	=18	=18	=18	=18	=18	=18	=18
*	*	*tremolo	*	*	*	*tremolo	*	*	*	*	*	*	*	*	*	*	*	*	*	*	*
!LO:TX:t=P:problem=mixed beam	!	!	!	!	!	!	!	!	!	!	!	!	!	!	!	!	!	!	!	!	!
8A\L	.	8A/L	.	8f#/L	.	16dd\LL	.	2ryy	2ryy	.	.	2r	.	.	.	.	.	2r	(16ff#\LL	.	2ryy
.	.	.	.	.	.	16dd\	.	.	.	.	.	.	.	.	.	.	.	.	16aa\)	.	.
8A\	.	8A/	.	8f#/	.	16dd\	.	.	.	.	.	.	.	.	.	.	.	.	(32gg\L	.	.
.	.	.	.	.	.	.	.	.	.	.	.	.	.	.	.	.	.	.	32ff#\	.	.
.	.	.	.	.	.	16dd\JJ	.	.	.	.	.	.	.	.	.	.	.	.	32ee\	.	.
.	.	.	.	.	.	.	.	.	.	.	.	.	.	.	.	.	.	.	32dd\JJJ)	.	.
*	*	*	*	*	*	*Xtremolo	*	*	*	*	*	*	*	*	*	*	*	*	*	*	*
8AA/	.	8A/	.	8e/	.	16dd\LL	.	.	.	.	.	.	.	.	.	.	.	.	4eeT\	.	.
.	.	.	.	.	.	16dd\	.	.	.	.	.	.	.	.	.	.	.	.	.	.	.
8AA/J	.	8A/J	.	8e/J	.	16cc#\	.	.	.	.	.	.	.	.	.	.	.	.	.	.	.
.	.	.	.	.	.	16cc#\JJ	.	.	.	.	.	.	.	.	.	.	.	.	.	.	.
*	*	*Xtremolo	*	*	*	*	*	*	*	*	*	*	*	*	*	*	*	*	*	*	*
!	!	!	!	!LO:LB:g=original	!	!	!	!	!	!	!	!	!	!	!	!	!	!	!	!	!
=19	=19	=19	=19	=19	=19	=19	=19	=19	=19	=19	=19	=19	=19	=19	=19	=19	=19	=19	=19	=19	=19
!	!	!	!	!	!	!LO:MO:mod=*null:null	!	!	!	!	!	!	!	!	!	!	!	!	!	!	!
*	*	*	*	*	*	*2\right	*	*	*	*	*	*	*	*	*	*	*	*	*	*	*
*	*	*	*	*	*	*tremolo	*	*	*	*	*	*	*	*	*	*	*	*	*	*	*
!	!	!LO:MO:mod=!null:null	!	!	!	!	!	!	!	!	!	!	!	!	!	!	!	!	!	!	!
!	!	!LO:N:vis=4	!	!	!	!LO:TX:a:t='''':mod=	!	!	!	!	!	!	!	!	!	!	!	!	!	!	!
8D\	.	8A/	.	8f#/	.	8dd|\L	.	2ryy	2ryy	.	.	2r	.	.	.	.	.	2r	4dd\	.	2ryy
8r	.	8r	.	8r	.	8dd|\	.	.	.	.	.	.	.	.	.	.	.	.	.	.	.
4r	.	4r	.	4r	.	8dd|\	.	.	.	.	.	.	.	.	.	.	.	.	4r	.	.
.	.	.	.	.	.	8dd|\J	.	.	.	.	.	.	.	.	.	.	.	.	.	.	.
*	*	*	*	*	*	*Xtremolo	*	*	*	*	*	*	*	*	*	*	*	*	*	*	*
=20	=20	=20	=20	=20	=20	=20	=20	=20	=20	=20	=20	=20	=20	=20	=20	=20	=20	=20	=20	=20	=20
.	.	.	.	.	.	8qqa/	.	.	.	.	.	.	.	.	.	.	.	.	.	.	.
!	!	!LO:MO:mod=*null:null	!	!	!	!	!	!	!	!	!	!	!	!	!	!LO:MO:mod=*null:null	!	!	!	!	!
*	*	*2\right	*	*	*	*	*	*	*	*	*	*	*	*	*	*2\right	*	*	*	*	*
*	*	*tremolo	*	*tremolo	*	*	*	*	*	*	*	*	*	*	*	*	*	*	*	*	*
!	!LO:DY:a:t=forte:mod=%s	!	!LO:DY:a:t=for:mod=%s	!	!LO:DY:t=for:mod=%s	!	!LO:DY:a:t=for:mod=%s	!	!	!	!	!	!	!	!	!	!	!	!LO:TX:a:t=2.:mod=	!	!
8C#/L	f	16c#\LL	f	16e/LL	f	2gg\	f	2ryy	2ryy	.	.	2r	.	2A/	.	2e\	.	2r	1r	.	2ryy
.	.	16e\	.	16a/	.	.	.	.	.	.	.	.	.	.	.	.	.	.	.	.	.
8E/	.	16c#\	.	16e/	.	.	.	.	.	.	.	.	.	.	.	.	.	.	.	.	.
.	.	16e\	.	16a/	.	.	.	.	.	.	.	.	.	.	.	.	.	.	.	.	.
8AA/	.	16c#\	.	16e/	.	.	.	.	.	.	.	.	.	.	.	.	.	.	.	.	.
.	.	16e\	.	16a/	.	.	.	.	.	.	.	.	.	.	.	.	.	.	.	.	.
8C#/J	.	16c#\	.	16e/	.	.	.	.	.	.	.	.	.	.	.	.	.	.	.	.	.
.	.	16e\JJ	.	16a/JJ	.	.	.	.	.	.	.	.	.	.	.	.	.	.	.	.	.
=21	=21	=21	=21	=21	=21	=21	=21	=21	=21	=21	=21	=21	=21	=21	=21	=21	=21	=21	=21	=21	=21
!	!	!	!	!	!	!	!	!	!	!	!	!	!	!LO:MO:mod=*null:null	!	!	!	!	!	!	!
*	*	*	*	*	*	*	*	*	*	*	*	*	*	*2\right	*	*	*	*	*	*	*
!	!	!	!	!	!	!	!LO:DY:a	!	!	!	!	!	!	!	!	!	!	!	!	!	!
!	!	!	!	!	!LO:DY	!	!	!	!	!	!	!	!	!	!	!	!	!	!	!	!
!	!LO:DY:t=pia.:mod=%s	!	!LO:DY:a	!	!	!	!	!	!	!	!	!	!	!	!	!	!	!	!	!	!
8D\L	p	16d\LL	p	16f#/LL	p	(16gg\LL	p	2ryy	2ryy	1r	.	2r	.	2d\	.	2f#\	.	2r	.	.	2ryy
.	.	16f#\	.	16a/	.	16aa\)	.	.	.	.	.	.	.	.	.	.	.	.	.	.	.
8F#\	.	16d\	.	16f#/	.	16dd|\	.	.	.	.	.	.	.	.	.	.	.	.	.	.	.
.	.	16f#\	.	16a/	.	16dd|\JJ	.	.	.	.	.	.	.	.	.	.	.	.	.	.	.
8D\	.	16d\	.	16f#/	.	(16dd\LL	.	.	.	.	.	.	.	.	.	.	.	.	.	.	.
.	.	16f#\	.	16a/	.	16ee\)	.	.	.	.	.	.	.	.	.	.	.	.	.	.	.
8F#\J	.	16d\	.	16f#/	.	(16ee\	.	.	.	.	.	.	.	.	.	.	.	.	.	.	.
.	.	16f#\JJ	.	16a/JJ	.	16ff#\JJ)	.	.	.	.	.	.	.	.	.	.	.	.	.	.	.
!	!	!	!	!	!	!LO:LB:g=original	!	!	!	!	!	!	!	!	!	!	!	!	!	!	!
=22	=22	=22	=22	=22	=22	=22	=22	=22	=22	=22	=22	=22	=22	=22	=22	=22	=22	=22	=22	=22	=22
!LO:TX:t=P:problem=mixed beam	!LO:DY:a:t=forte:mod=%s	!	!LO:DY:a:t=fo:mod=%s	!	!LO:DY:t=for:mod=%s	!	!LO:DY:t=for:mod=%s	!	!	!	!	!	!	!	!	!	!	!	!	!	!
8C#/L	f	16c#\LL	f	16e/LL	f	4.gg\	f	2ryy	2ryy	.	.	2r	.	2A/	.	2e\	.	2r	4r	.	2ryy
.	.	16e\	.	16a/	.	.	.	.	.	.	.	.	.	.	.	.	.	.	.	.	.
8E/	.	16c#\	.	16e/	.	.	.	.	.	.	.	.	.	.	.	.	.	.	.	.	.
.	.	16e\	.	16a/	.	.	.	.	.	.	.	.	.	.	.	.	.	.	.	.	.
!	!	!	!	!	!	!	!	!	!	!	!	!	!	!	!	!	!	!	!	!LO:DY:mod= 	!
8AA/	.	16c#\	.	16e/	.	.	.	.	.	.	.	.	.	.	.	.	.	.	8r	p	.
.	.	16e\	.	16a/	.	.	.	.	.	.	.	.	.	.	.	.	.	.	.	.	.
!	!	!	!	!	!	!	!	!	!	!	!	!	!	!	!	!	!	!	!	!LO:DY:t= :mod=%s	!
8A\J	.	16c#\	.	16e/	.	16ee\LL	.	.	.	.	.	.	.	.	.	.	.	.	8ccc#\	p	.
.	.	16e\JJ	.	16a/JJ	.	16cc#\JJ	.	.	.	.	.	.	.	.	.	.	.	.	.	.	.
*	*	*Xtremolo	*	*Xtremolo	*	*	*	*	*	*	*	*	*	*	*	*	*	*	*	*	*
=23	=23	=23	=23	=23	=23	=23	=23	=23	=23	=23	=23	=23	=23	=23	=23	=23	=23	=23	=23	=23	=23
!	!	!	!LO:DY:a	!	!	!	!LO:DY:a:t=p&colon;:mod=%s	!	!	!	!	!	!	!	!	!	!	!	!	!	!
8d\L	.	4A/	p	4e/	p	4cc#\	p	2ryy	2ryy	2r	.	2r	.	4A/	.	4e\	.	2r	(4ccc#\	.	2ryy
8A\	.	.	.	.	.	.	.	.	.	.	.	.	.	.	.	.	.	.	.	.	.
8D\J	.	8A/	.	8f#/	.	8dd\	.	.	.	.	.	.	.	8d\	.	8f#\	.	.	8ddd\)	.	.
8r	.	8r	.	8r	.	8r	.	.	.	.	.	.	.	8r	.	8r	.	.	8r	.	.
!	!	!	!	!	!	!	!	!	!	!	!	!	!	!	!	!LO:LB:g=original	!	!	!	!	!
=24	=24	=24	=24	=24	=24	=24	=24	=24	=24	=24	=24	=24	=24	=24	=24	=24	=24	=24	=24	=24	=24
!LO:MO:mod=*null:null	!	!	!	!	!	!	!	!	!	!	!	!	!	!	!	!	!	!	!	!	!
*2\right	*	*	*	*	*	*	*	*	*	*	*	*	*	*	*	*	*	*	*	*	*
*tremolo	*	*tremolo	*	*	*	*	*	*	*	*	*	*	*	*	*	*	*	*	*	*	*
!	!LO:DY:a:t=p.:mod=pp	!	!LO:DY:a:t=p.:mod=pp	!	!LO:DY:t=pp&colon;:mod= 	!	!LO:DY:t=pia:mod= 	!	!	!	!	!LO:TX:i:a:t=Solo:mod=	!	!LO:TX:a:t=7.:mod=	!	!LO:TX:a:t=7:mod=	!	!	!LO:TX:a:t=23.:mod=	!	!
8D\L	p	8A/L	p	16r	pp	16r	pp	2ryy	2ryy	4.f#\	Be-	4.dd\	Be-	0r	.	0r	.	2r	2r	.	2ryy
!	!	!	!	!	!LO:DY:t= :mod=%s	!	!LO:DY:t= :mod=%s	!	!	!	!	!	!	!	!	!	!	!	!	!	!
.	.	.	.	16f#/LL	pp	16dd\LL	pp	.	.	.	.	.	.	.	.	.	.	.	.	.	.
8D\	.	8A/	.	16e/	.	16cc#\	.	.	.	.	.	.	.	.	.	.	.	.	.	.	.
.	.	.	.	16f#/JJ	.	16dd\JJ	.	.	.	.	.	.	.	.	.	.	.	.	.	.	.
8D\	.	8A/	.	16r	.	16r	.	.	.	.	.	.	.	.	.	.	.	.	.	.	.
.	.	.	.	16f#/LL	.	16dd\LL	.	.	.	.	.	.	.	.	.	.	.	.	.	.	.
8D\J	.	8A/J	.	16f#/	.	16dd\	.	.	.	8f#\	-ne-	32dd\LLL	-ne-	.	.	.	.	.	.	.	.
.	.	.	.	.	.	.	.	.	.	.	.	32cc#\	.	.	.	.	.	.	.	.	.
.	.	.	.	16f#/JJ	.	16dd\JJ	.	.	.	.	.	32ff#\	.	.	.	.	.	.	.	.	.
.	.	.	.	.	.	.	.	.	.	.	.	32ee\JJJ	.	.	.	.	.	.	.	.	.
=25	=25	=25	=25	=25	=25	=25	=25	=25	=25	=25	=25	=25	=25	=25	=25	=25	=25	=25	=25	=25	=25
.	.	.	.	.	.	.	.	.	.	.	.	8qee/	.	.	.	.	.	.	.	.	.
8BB/L	.	8B/L	.	16r	.	16r	.	2ryy	2ryy	8f#\	-di-	8dd\	-di-	.	.	.	.	2r	2r	.	2ryy
.	.	.	.	16f#/LL	.	16dd\LL	.	.	.	.	.	.	.	.	.	.	.	.	.	.	.
8BB/	.	8B/	.	16e/	.	16cc#\	.	.	.	8f#\	-ctus	8dd\	-ctus	.	.	.	.	.	.	.	.
.	.	.	.	16f#/JJ	.	16dd\JJ	.	.	.	.	.	.	.	.	.	.	.	.	.	.	.
8BB/	.	8B/	.	16r	.	16r	.	.	.	8r	.	8r	.	.	.	.	.	.	.	.	.
.	.	.	.	16f#/LL	.	16dd\LL	.	.	.	.	.	.	.	.	.	.	.	.	.	.	.
8BB/J	.	8B/J	.	16e/	.	16cc#\	.	.	.	8f#\	qui	8dd\	qui	.	.	.	.	.	.	.	.
.	.	.	.	16f#/JJ	.	16dd\JJ	.	.	.	.	.	.	.	.	.	.	.	.	.	.	.
!LO:LB:g=original	!	!	!	!LO:LB:g=original	!	!	!	!	!	!	!	!	!	!	!	!	!	!	!	!	!
=26	=26	=26	=26	=26	=26	=26	=26	=26	=26	=26	=26	=26	=26	=26	=26	=26	=26	=26	=26	=26	=26
8G\L	.	8G/L	.	16r	.	16r	.	2ryy	2ryy	2g\	ve-	4.ee\	ve-	.	.	.	.	2r	2r	.	2ryy
.	.	.	.	16B/LL	.	16ee\LL	.	.	.	.	.	.	.	.	.	.	.	.	.	.	.
8G\	.	8G/	.	16B/	.	16dd#X\	.	.	.	.	.	.	.	.	.	.	.	.	.	.	.
.	.	.	.	16B/JJ	.	16ee\JJ	.	.	.	.	.	.	.	.	.	.	.	.	.	.	.
8G\	.	8G/	.	16r	.	16r	.	.	.	.	.	.	.	.	.	.	.	.	.	.	.
.	.	.	.	16B/LL	.	16ee\LL	.	.	.	.	.	.	.	.	.	.	.	.	.	.	.
8G\J	.	8G/J	.	16B/	.	16dd#\	.	.	.	.	.	32ee\LLL	.	.	.	.	.	.	.	.	.
.	.	.	.	.	.	.	.	.	.	.	.	32dd#X\	.	.	.	.	.	.	.	.	.
.	.	.	.	16B/JJ	.	16ee\JJ	.	.	.	.	.	32gg\	.	.	.	.	.	.	.	.	.
.	.	.	.	.	.	.	.	.	.	.	.	32ff#\JJJ	.	.	.	.	.	.	.	.	.
!	!	!	!	!	!	!LO:LB:g=original	!	!	!	!	!	!	!	!	!	!	!	!	!	!	!
=27	=27	=27	=27	=27	=27	=27	=27	=27	=27	=27	=27	=27	=27	=27	=27	=27	=27	=27	=27	=27	=27
.	.	.	.	.	.	.	.	.	.	.	.	8qff#/	.	.	.	.	.	.	.	.	.
8G\L	.	8G/L	.	16r	.	16r	.	2ryy	2ryy	8g\	.	8ee\	.	.	.	.	.	2r	2r	.	2ryy
.	.	.	.	16B/LL	.	16ee|\LL	.	.	.	.	.	.	.	.	.	.	.	.	.	.	.
8G\	.	8G/	.	16B/	.	(16dd#X\	.	.	.	8g\	-nit	8ee\	-nit	.	.	.	.	.	.	.	.
.	.	.	.	16B/JJ	.	16ee\JJ)	.	.	.	.	.	.	.	.	.	.	.	.	.	.	.
8G\	.	8G/	.	8r	.	16r	.	.	.	8r	.	8r	.	.	.	.	.	.	.	.	.
.	.	.	.	.	.	16ee\LL	.	.	.	.	.	.	.	.	.	.	.	.	.	.	.
8G\J	.	8G/J	.	16B/LL	.	16gg\	.	.	.	8b\	qui	8gg\	in	.	.	.	.	.	.	.	.
.	.	.	.	16g/JJ	.	16bb\JJ	.	.	.	.	.	.	.	.	.	.	.	.	.	.	.
*Xtremolo	*	*	*	*	*	*	*	*	*	*	*	*	*	*	*	*	*	*	*	*	*
!	!	!	!	!	!	!	!	!	!	!LO:LB:g=original	!	!LO:LB:g=original	!	!	!	!	!	!	!	!	!
=28	=28	=28	=28	=28	=28	=28	=28	=28	=28	=28	=28	=28	=28	=28	=28	=28	=28	=28	=28	=28	=28
!LO:TX:t=P:problem=mixed beam	!	!	!	!	!	!	!	!	!	!	!	!	!	!	!	!	!	!	!	!	!
8A\L	.	8A/L	.	8.f#/L	.	8.aa\L	.	2ryy	2ryy	8.a\L	ve-	8.ff#\L	no-	1r	.	1r	.	2r	2r	.	2ryy
8A\	.	8A/	.	.	.	.	.	.	.	.	.	.	.	.	.	.	.	.	.	.	.
.	.	.	.	16d/K	.	16ff#\Jk	.	.	.	16f#\Jk	.	16dd\Jk	.	.	.	.	.	.	.	.	.
8AA/	.	8A/	.	8e/	.	16aa\LL	.	.	.	16a\LL	.	16ff#\LL	.	.	.	.	.	.	.	.	.
.	.	.	.	.	.	16gg\	.	.	.	16g\	.	16ee\	.	.	.	.	.	.	.	.	.
8AA/J	.	8A/J	.	8g/J	.	16ff#\	.	.	.	16f#\	.	16dd\	.	.	.	.	.	.	.	.	.
.	.	.	.	.	.	16ee\JJ	.	.	.	16e\JJ	.	16cc#\JJ	-mi-	.	.	.	.	.	.	.	.
*	*	*Xtremolo	*	*	*	*	*	*	*	*	*	*	*	*	*	*	*	*	*	*	*
=29	=29	=29	=29	=29	=29	=29	=29	=29	=29	=29	=29	=29	=29	=29	=29	=29	=29	=29	=29	=29	=29
.	.	.	.	.	.	.	.	.	.	.	.	8qqcc#/	.	.	.	.	.	.	.	.	.
8D\L	.	8B\L	.	16g/LL	.	(16ee\LL	.	2ryy	2ryy	4f#\	-nit	4dd\	-ne	.	.	.	.	2r	2r	.	2ryy
.	.	.	.	16f#/	.	16dd\)	.	.	.	.	.	.	.	.	.	.	.	.	.	.	.
8D\	.	8B\	.	16f#/	.	16dd|\	.	.	.	.	.	.	.	.	.	.	.	.	.	.	.
.	.	.	.	16f#/JJ	.	16dd|\JJ	.	.	.	.	.	.	.	.	.	.	.	.	.	.	.
8F#\	.	8f#\	.	8a/L	.	16r	.	.	.	8r	.	16r	.	.	.	.	.	.	.	.	.
.	.	.	.	.	.	16dd\LL	.	.	.	.	.	16dd\LL	Do-	.	.	.	.	.	.	.	.
8F#\J	.	8f#\J	.	8a/J	.	16cc#\	.	.	.	8a\	in	16cc#\	.	.	.	.	.	.	.	.	.
.	.	.	.	.	.	16ccn\JJ	.	.	.	.	.	16ccn\JJ	.	.	.	.	.	.	.	.	.
!	!	!LO:LB:g=original	!	!	!	!	!	!	!	!	!	!	!	!	!	!	!	!	!	!	!
!!LO:MO:ori
=30	=30	=30	=30	=30	=30	=30	=30	=30	=30	=30	=30	=30	=30	=30	=30	=30	=30	=30	=30	=30	=30
2ryy	.	2ryy	.	2ryy	.	2ryy	.	2ryy	2ryy	2ryy	.	2ryy	.	2r	.	2r	.	2ryy	2ryy	.	2ryy
!!LO:MO:end
=31	=31	=31	=31	=31	=31	=31	=31	=31	=31	=31	=31	=31	=31	=31	=31	=31	=31	=31	=31	=31	=31
!	!	!	!	!	!	!	!	!	!	!	!	!	!	!	!	!LO:TX:t=P:problem=t. 31-33 wpisane inną ręką za pomocą odnośnika "vide retro"	!	!	!	!	!
8G\L	.	8g\L	.	8g/L	.	8b\L	.	2ryy	2ryy	4.b\	no-	8b\L	.	2ryy	.	4r	.	2r	2r	.	2ryy
8G\	.	8g\	.	8.b/J	.	8.gg\J	.	.	.	.	.	8.gg\J	.	.	.	.	.	.	.	.	.
8E\	.	8e\	.	.	.	.	.	.	.	.	.	.	.	.	.	8r	.	.	.	.	.
.	.	.	.	16g/LL	.	16ee\LL	.	.	.	.	.	16ee\LL	.	.	.	.	.	.	.	.	.
*	*	*	*	*	*	*	*	*	*	*Xtuplet	*	*	*	*	*	*	*	*	*	*	*
!	!	!	!	!	!	!	!	!	!	!	!	!	!	!	!	!	!LO:DY:t= :mod=%s	!	!	!	!
8A\J	.	8A\J	.	16f#/	.	16dd\	.	.	.	24g\LL	.	16dd\	.	.	.	8e\	p	.	.	.	.
!	!	!	!	!	!	!	!	!	!	!LO:TX:t=P:problem=po nucie belka rozdzielona późniejszą ręką (?)	!	!	!	!	!	!	!	!	!	!	!
.	.	.	.	.	.	.	.	.	.	24f#\	.	.	.	.	.	.	.	.	.	.	.
!	!	!	!	!	!	!LO:SIC:s=16cc#JJ	!	!	!	!	!	!	!	!	!	!	!	!	!	!	!
.	.	.	.	16e/JJ	.	16cc#X\JJ	.	.	.	.	.	16cc#\JJ	-mi-	.	.	.	.	.	.	.	.
.	.	.	.	.	.	.	.	.	.	24e\JJ	-mi-	.	.	.	.	.	.	.	.	.	.
=32	=32	=32	=32	=32	=32	=32	=32	=32	=32	=32	=32	=32	=32	=32	=32	=32	=32	=32	=32	=32	=32
.	.	.	.	.	.	8qqcc#/	.	.	.	8qqe/	.	8qqcc#/	.	.	.	.	.	.	.	.	.
!	!	!	!	!	!	!	!	!	!	!	!	!	!	!	!LO:DY:t= :mod=%s	!	!	!	!	!	!
!	!	!	!	!	!	!	!	!	!	!	!	!	!	!	!LO:MO:mod=!LO&colon;DY&colon;ed=brack	!	!	!	!	!	!
!	!	!	!	!	!	!	!	!	!	!	!	!	!	!LO:TX:t=P:problem=t. 32-33 wpisane inną ręką za pomocą odnośnika "vide retro"	!null	!	!	!	!	!	!
8.D\L	.	8d\L	.	8.f#/L	.	4dd\	.	2ryy	2ryy	4f#\	-ne	4dd\	-ni	8d/L	p	8f#\L	.	2r	2r	.	2ryy
!	!	!	!	!	!	!	!	!	!	!	!	!	!	!	!	!	!LO:DY:a:t=p&colon;:mod= 	!	!	!	!
.	.	16r	.	.	.	.	.	.	.	.	.	.	.	8D/	.	8d\	p	.	.	.	.
16B\Jk	.	16b\Jk	.	16d/Jk	.	.	.	.	.	.	.	.	.	.	.	.	.	.	.	.	.
16A\LL	.	16a\LL	.	16c#/LL	.	4r	.	.	.	4r	.	4r	.	8D/	.	8d\	.	.	.	.	.
16G\	.	16g\	.	16B/	.	.	.	.	.	.	.	.	.	.	.	.	.	.	.	.	.
!	!	!	!	!	!	!	!	!	!	!	!	!	!	!	!	!LO:TX:b:t=vi:mod=	!	!	!	!	!
16F#\	.	16f#\	.	16A/	.	.	.	.	.	.	.	.	.	8D/J	.	8d\J	.	.	.	.	.
16E\JJ	.	16e\JJ	.	16G/JJ	.	.	.	.	.	.	.	.	.	.	.	.	.	.	.	.	.
!	!	!	!	!	!	!LO:PB:g=original	!	!	!	!	!	!	!	!	!	!	!	!	!	!	!
=33	=33	=33	=33	=33	=33	=33	=33	=33	=33	=33	=33	=33	=33	=33	=33	=33	=33	=33	=33	=33	=33
8D\	.	8d\	.	8f#/	.	16r	.	2ryy	2ryy	4r	.	4r	.	4D/	.	4d\	.	2r	2r	.	2ryy
.	.	.	.	.	.	16d/LL	.	.	.	.	.	.	.	.	.	.	.	.	.	.	.
8r	.	8r	.	8r	.	16f#/	.	.	.	.	.	.	.	.	.	.	.	.	.	.	.
.	.	.	.	.	.	16a/JJ	.	.	.	.	.	.	.	.	.	.	.	.	.	.	.
8r	.	8r	.	8r	.	16dd\LL	.	.	.	8f#\	Be-	8a\	Be-	4r	.	4r	.	.	.	.	.
.	.	.	.	.	.	16ff#\	.	.	.	.	.	.	.	.	.	.	.	.	.	.	.
8D\	.	8A/	.	8f#/	.	16ff#\	.	.	.	8f#\	-ne-	8a\	-ne-	.	.	.	.	.	.	.	.
.	.	.	.	.	.	16aa\JJ	.	.	.	.	.	.	.	.	.	.	.	.	.	.	.
!	!	!	!	!LO:LB:g=original	!	!	!	!	!	!	!	!	!	!LO:LB:g=original	!	!	!	!	!	!	!
=34	=34	=34	=34	=34	=34	=34	=34	=34	=34	=34	=34	=34	=34	=34	=34	=34	=34	=34	=34	=34	=34
*	*	*tremolo	*	*	*	*	*	*	*	*	*	*	*	*	*	*	*	*	*	*	*
!LO:TX:t=P:problem=mixed beam	!	!	!	!	!	!	!	!	!	!	!	!	!	!LO:TX:t=P:problem=pominięte takty	!	!	!	!	!	!	!
!	!	!	!	!	!	!	!	!	!	!	!	!	!	!LO:MO:mod=8r@	!	!	!	!	!	!	!
8AA/L	.	8A/L	.	32e/LLL	.	32gg\LLL	.	2ryy	2ryy	4e\	-di-	4a\	-di-	2ryy	.	8r	.	2r	2r	.	2ryy
.	.	.	.	32f#/	.	32aa\	.	.	.	.	.	.	.	.	.	.	.	.	.	.	.
.	.	.	.	32e/	.	32gg\	.	.	.	.	.	.	.	.	.	.	.	.	.	.	.
.	.	.	.	32d/JJ	.	32ff#\JJ	.	.	.	.	.	.	.	.	.	.	.	.	.	.	.
!	!	!	!	!	!	!	!	!	!	!	!	!	!	!LO:MO:null:mod=8AL@	!	!	!	!	!	!	!
8A\	.	8A/	.	8c#/J	.	8ee\J	.	.	.	.	.	.	.	.	.	8e\L	.	.	.	.	.
!	!	!	!	!	!	!	!	!	!	!	!	!	!	!LO:MO:null:mod=8A@	!	!	!	!	!	!	!
8AA/	.	8A/	.	16r	.	16r	.	.	.	8c#\	-ctus	8a\	-ctus	.	.	8e\	.	.	.	.	.
.	.	.	.	16c#/LL	.	16ee\LL	.	.	.	.	.	.	.	.	.	.	.	.	.	.	.
!	!	!	!	!	!	!	!	!	!	!	!	!	!	!LO:MO:null:mod=8AJ@	!	!	!	!	!	!	!
8C#/J	.	8A/J	.	16c#/	.	16ee\	.	.	.	8e\	qui	8a\	qui	.	.	8e\J	.	.	.	.	.
.	.	.	.	16e/JJ	.	16gg\JJ	.	.	.	.	.	.	.	.	.	.	.	.	.	.	.
*	*	*Xtremolo	*	*	*	*	*	*	*	*	*	*	*	*	*	*	*	*	*	*	*
!	!	!	!	!	!	!	!	!	!	!	!	!LO:LB:g=original	!	!	!	!	!	!	!	!	!
=35	=35	=35	=35	=35	=35	=35	=35	=35	=35	=35	=35	=35	=35	=35	=35	=35	=35	=35	=35	=35	=35
!	!	!	!	!	!	!LO:TX:t=P:problem=mixed beam	!	!	!	!	!	!	!	!LO:MO:mod=8d@	!	!	!	!	!	!	!
8D\	.	8A/	.	8f#/	.	16ff#\LL	.	2ryy	2ryy	2f#\	ve-	2a\	ve-	2ryy	.	8f#\	.	2r	2r	.	2ryy
.	.	.	.	.	.	16d/	.	.	.	.	.	.	.	.	.	.	.	.	.	.	.
!	!	!	!	!	!	!	!	!	!	!	!	!	!	!LO:MO:null:mod=8r@	!	!	!	!	!	!	!
8r	.	8r	.	8r	.	16f#/	.	.	.	.	.	.	.	.	.	8r	.	.	.	.	.
.	.	.	.	.	.	16a/JJ	.	.	.	.	.	.	.	.	.	.	.	.	.	.	.
!	!	!	!	!	!	!	!	!	!	!	!	!	!	!LO:MO:null:mod=4r@	!	!	!	!	!	!	!
8r	.	8r	.	8r	.	16dd\LL	.	.	.	.	.	.	.	.	.	4r	.	.	.	.	.
.	.	.	.	.	.	16ff#\	.	.	.	.	.	.	.	.	.	.	.	.	.	.	.
8D\	.	8A/	.	8f#/	.	16ff#\	.	.	.	.	.	.	.	.	.	.	.	.	.	.	.
.	.	.	.	.	.	16aa\JJ	.	.	.	.	.	.	.	.	.	.	.	.	.	.	.
!	!	!	!	!	!	!	!	!	!	!LO:LB:g=original	!	!	!	!	!	!	!	!	!	!	!
=36	=36	=36	=36	=36	=36	=36	=36	=36	=36	=36	=36	=36	=36	=36	=36	=36	=36	=36	=36	=36	=36
*	*	*tremolo	*	*	*	*	*	*	*	*	*	*	*	*	*	*	*	*	*	*	*
!LO:TX:t=P:problem=mixed beam	!	!	!	!	!	!	!	!	!	!	!	!	!	!LO:MO:mod=8r@	!	!	!	!	!	!	!
8AA/L	.	8A/L	.	32e/LLL	.	32gg\LLL	.	2ryy	2ryy	2e\	.	2a\	.	2ryy	.	8r	.	2r	2r	.	2ryy
.	.	.	.	32f#/	.	32aa\	.	.	.	.	.	.	.	.	.	.	.	.	.	.	.
.	.	.	.	32e/	.	32gg\	.	.	.	.	.	.	.	.	.	.	.	.	.	.	.
.	.	.	.	32d/JJ	.	32ff#\JJ	.	.	.	.	.	.	.	.	.	.	.	.	.	.	.
!	!	!	!	!	!	!	!	!	!	!	!	!	!	!LO:MO:null:mod=8AL@	!	!	!	!	!	!	!
8A\	.	8A/	.	8c#/J	.	8ee\J	.	.	.	.	.	.	.	.	.	8e\L	.	.	.	.	.
!	!	!	!	!	!	!	!	!	!	!	!	!	!	!LO:MO:null:mod=8A@	!	!	!	!	!	!	!
8AA/	.	8A/	.	16r	.	16r	.	.	.	.	.	.	.	.	.	8e\	.	.	.	.	.
.	.	.	.	16c#/LL	.	16ee\LL	.	.	.	.	.	.	.	.	.	.	.	.	.	.	.
!	!	!	!	!	!	!	!	!	!	!	!	!	!	!LO:MO:null:mod=8AJ@	!	!	!	!	!	!	!
8C#/J	.	8A/J	.	16c#/	.	16ee\	.	.	.	.	.	.	.	.	.	8e\J	.	.	.	.	.
.	.	.	.	16e/JJ	.	16gg\JJ	.	.	.	.	.	.	.	.	.	.	.	.	.	.	.
*	*	*Xtremolo	*	*	*	*	*	*	*	*	*	*	*	*	*	*	*	*	*	*	*
!	!	!	!	!	!	!LO:LB:g=original	!	!	!	!	!	!	!	!	!	!	!	!	!	!	!
=37	=37	=37	=37	=37	=37	=37	=37	=37	=37	=37	=37	=37	=37	=37	=37	=37	=37	=37	=37	=37	=37
!	!	!	!	!	!	!	!	!	!	!	!	!	!	!LO:MO:mod=8d@	!	!	!	!	!	!	!
8D\L	.	8A/L	.	8d/L	.	(16ee\LL	.	2ryy	2ryy	4.f#\	-nit	4a\	-nit	2ryy	.	8f#\	.	2r	2r	.	2ryy
.	.	.	.	.	.	16ff#\)	.	.	.	.	.	.	.	.	.	.	.	.	.	.	.
!	!	!	!	!	!	!	!	!	!	!	!	!	!	!LO:MO:null:mod=8r@	!	!	!	!	!	!	!
8D\	.	8d/	.	8d/	.	16ff#|\	.	.	.	.	.	.	.	.	.	8r	.	.	.	.	.
.	.	.	.	.	.	16ff#|\JJ	.	.	.	.	.	.	.	.	.	.	.	.	.	.	.
!	!	!	!	!	!	!	!	!	!	!	!	!	!	!LO:MO:null:mod=8e@	!	!	!	!	!	!	!
8E\	.	8B/	.	8d/	.	(16aa\LL	.	.	.	.	.	8r	.	.	.	8e\	.	.	.	.	.
.	.	.	.	.	.	16gg#X\)	.	.	.	.	.	.	.	.	.	.	.	.	.	.	.
!	!	!	!	!	!	!	!	!	!	!	!	!	!	!LO:MO:null:mod=8r@	!	!	!	!	!	!	!
8E\J	.	8B/J	.	8d/J	.	16gg#|\	.	.	.	8g#X\	in	8dd\	qui	.	.	8r	.	.	.	.	.
.	.	.	.	.	.	16gg#|\JJ	.	.	.	.	.	.	.	.	.	.	.	.	.	.	.
!LO:LB:g=original	!	!	!	!	!	!	!	!	!	!	!	!	!	!	!	!	!	!	!	!	!
=38	=38	=38	=38	=38	=38	=38	=38	=38	=38	=38	=38	=38	=38	=38	=38	=38	=38	=38	=38	=38	=38
!	!	!	!	!	!	!	!	!	!	!	!	!	!	!	!	!LO:MO:mod=!null:null	!	!	!	!	!
!	!	!	!	!	!	!	!	!	!	!	!	!	!	!	!	!LO:N:vis=8.	!	!	!	!	!
8AA/	.	8A/	.	8c#/L	.	16aa\LL	.	2ryy	2ryy	4.a\	no-	8cc#\L	ve-	8A	.	8e\	.	2r	2r	.	2ryy
.	.	.	.	.	.	16a\	.	.	.	.	.	.	.	.	.	.	.	.	.	.	.
8r	.	8r	.	8d/	.	16a\	.	.	.	.	.	8ff#\	.	8r	.	8r	.	.	.	.	.
.	.	.	.	.	.	16a\JJ	.	.	.	.	.	.	.	.	.	.	.	.	.	.	.
8r	.	8r	.	8c#/	.	16ee\LL	.	.	.	.	.	8ee\	.	4r	.	4r	.	.	.	.	.
.	.	.	.	.	.	16a\	.	.	.	.	.	.	.	.	.	.	.	.	.	.	.
8E\	.	8B 8G#X/	.	8B/J	.	16g#X\	.	.	.	8g#X\	-mi-	8dd\J	.	.	.	.	.	.	.	.	.
.	.	.	.	.	.	16dd\JJ	.	.	.	.	.	.	.	.	.	.	.	.	.	.	.
!	!	!LO:LB:g=original	!	!	!	!	!	!	!	!	!	!	!	!	!	!	!	!	!	!	!
=39	=39	=39	=39	=39	=39	=39	=39	=39	=39	=39	=39	=39	=39	=39	=39	=39	=39	=39	=39	=39	=39
!	!	!	!	!	!	!	!	!	!	!	!	!	!	!	!	!LO:TX:a:t=1:mod=	!	!	!	!	!
8AA/	.	8A/	.	8c#/L	.	16cc#\LL	.	2ryy	2ryy	8a\	-ne	8cc#\	-nit	2r	.	2r	.	2r	2r	.	2ryy
.	.	.	.	.	.	16a\	.	.	.	.	.	.	.	.	.	.	.	.	.	.	.
8r	.	8r	.	8d/	.	16ff#\	.	.	.	4a\	Do-	8ff#\	qui	.	.	.	.	.	.	.	.
.	.	.	.	.	.	16a\JJ	.	.	.	.	.	.	.	.	.	.	.	.	.	.	.
8r	.	8r	.	8c#/	.	16ee\LL	.	.	.	.	.	8ee\L	ve-	.	.	.	.	.	.	.	.
.	.	.	.	.	.	16a\	.	.	.	.	.	.	.	.	.	.	.	.	.	.	.
!	!	!LO:SIC:v:s=8G#/	!	!	!	!	!	!	!	!	!	!	!	!	!	!	!	!	!	!	!
8E\	.	8A/	.	8B/J	.	16g#X\	.	.	.	8g#X\	.	8dd\J	.	.	.	.	.	.	.	.	.
.	.	.	.	.	.	16dd\JJ	.	.	.	.	.	.	.	.	.	.	.	.	.	.	.
=40	=40	=40	=40	=40	=40	=40	=40	=40	=40	=40	=40	=40	=40	=40	=40	=40	=40	=40	=40	=40	=40
*	*	*	*	*tremolo	*	*	*	*	*	*	*	*	*	*	*	*	*	*	*	*	*
8A\L	.	8A/L	.	8e/L	.	16cc#\LL	.	2ryy	2ryy	8a\L	.	16cc#\LL	.	8r	.	8r	.	2r	2r	.	2ryy
.	.	.	.	.	.	16a\	.	.	.	.	.	16a\	.	.	.	.	.	.	.	.	.
8G#X\	.	8B/	.	8e/	.	16b\	.	.	.	8b\	.	16b\	.	8e\L	.	8e\L	.	.	.	.	.
.	.	.	.	.	.	16dd\JJ	.	.	.	.	.	16dd\JJ	.	.	.	.	.	.	.	.	.
8A\	.	8A/	.	8e/	.	16cc#\LL	.	.	.	8a\	.	16cc#\LL	.	8e\	.	8e\	.	.	.	.	.
.	.	.	.	.	.	16a\	.	.	.	.	.	16a\	.	.	.	.	.	.	.	.	.
8G#\J	.	8B/J	.	8e/J	.	16b\	.	.	.	8b\J	.	16b\	.	8e\J	.	8e\J	.	.	.	.	.
.	.	.	.	.	.	16dd\JJ	.	.	.	.	.	16dd\JJ	.	.	.	.	.	.	.	.	.
*	*	*	*	*Xtremolo	*	*	*	*	*	*	*	*	*	*	*	*	*	*	*	*	*
!	!	!LO:LB:g=original	!	!	!	!LO:LB:g=original	!	!	!	!	!	!	!	!	!	!	!	!	!	!	!
=41	=41	=41	=41	=41	=41	=41	=41	=41	=41	=41	=41	=41	=41	=41	=41	=41	=41	=41	=41	=41	=41
.	.	.	.	.	.	8qdd/	.	.	.	.	.	.	.	.	.	.	.	.	.	.	.
8A\L	.	8e\L	.	8a/L	.	16cc#\LL	.	2ryy	2ryy	16a\	.	8cc#\	.	8e\L	.	8e\L	.	2r	2r	.	2ryy
.	.	.	.	.	.	32b\L	.	.	.	16a\	-mi-	.	.	.	.	.	.	.	.	.	.
.	.	.	.	.	.	32cc#\JJ	.	.	.	.	.	.	.	.	.	.	.	.	.	.	.
8E\J	.	8e\J	.	8g#X/J	.	8b\J	.	.	.	8g#X\	-ni	8b\	-nit	8e\J	.	8e\J	.	.	.	.	.
16E\LL	.	16e\LL	.	4r	.	4r	.	.	.	4r	.	4r	.	4r	.	4r	.	.	.	.	.
16D\	.	16d\	.	.	.	.	.	.	.	.	.	.	.	.	.	.	.	.	.	.	.
16C#\	.	16c#\	.	.	.	.	.	.	.	.	.	.	.	.	.	.	.	.	.	.	.
16BB\JJ	.	16B\JJ	.	.	.	.	.	.	.	.	.	.	.	.	.	.	.	.	.	.	.
!	!	!	!	!LO:LB:g=original	!	!	!	!	!	!	!	!LO:LB:g=original	!	!	!	!LO:LB:g=original	!	!	!	!	!
=42	=42	=42	=42	=42	=42	=42	=42	=42	=42	=42	=42	=42	=42	=42	=42	=42	=42	=42	=42	=42	=42
*	*	*	*	*	*	*	*	*	*	*	*	*	*	*tremolo	*	*	*	*	*	*	*
*	*	*tremolo	*	*	*	*	*	*	*	*	*	*	*	*	*	*tremolo	*	*	*	*	*
!LO:TX:t=P:problem=mixed beam	!	!	!	!	!	!	!	!	!	!	!	!	!	!	!	!	!	!	!	!	!
8AA/L	.	16A/LL	.	16c#X/LL	.	4a\	.	2ryy	2ryy	4.a\	Be-	4a\	Be-	8AA/L	.	8A/L	.	2r	2r	.	2ryy
.	.	16c#/	.	16e/	.	.	.	.	.	.	.	.	.	.	.	.	.	.	.	.	.
8A\	.	16A/	.	16c#/	.	.	.	.	.	.	.	.	.	8AA/	.	8A/	.	.	.	.	.
.	.	16c#/	.	16e/JJ	.	.	.	.	.	.	.	.	.	.	.	.	.	.	.	.	.
8A\	.	16A/	.	16c#/LL	.	16cc#\LL	.	.	.	.	.	16cc#\LL	.	8AA/	.	8A/	.	.	.	.	.
.	.	16c#/	.	16e/	.	16a\	.	.	.	.	.	16a\JJ	.	.	.	.	.	.	.	.	.
8A\J	.	16A/	.	16c#/	.	16cc#\	.	.	.	8e\	-ne-	16cc#\LL	-ne-	8AA/J	.	8A/J	.	.	.	.	.
.	.	16c#/JJ	.	16e/JJ	.	16ee\JJ	.	.	.	.	.	16ee\JJ	.	.	.	.	.	.	.	.	.
*	*	*Xtremolo	*	*	*	*	*	*	*	*	*	*	*	*	*	*	*	*	*	*	*
=43	=43	=43	=43	=43	=43	=43	=43	=43	=43	=43	=43	=43	=43	=43	=43	=43	=43	=43	=43	=43	=43
*tremolo	*	*	*	*	*	*	*	*	*	*	*	*	*	*	*	*	*	*	*	*	*
8A\L	.	16A\LL	.	16d/LL	.	16ee\LL	.	2ryy	2ryy	8f#\	-di-	16ee\LL	-di-	8AA/L	.	8A/L	.	2r	2r	.	2ryy
.	.	16d\	.	16f#/	.	16dd\JJ	.	.	.	.	.	16dd\JJ	.	.	.	.	.	.	.	.	.
8A\	.	16A\	.	16d/	.	4dd\	.	.	.	4f#\	-ctus	4dd\	-ctus	8AA/	.	8A/	.	.	.	.	.
.	.	16d\JJ	.	16f#/JJ	.	.	.	.	.	.	.	.	.	.	.	.	.	.	.	.	.
8A\	.	16A\LL	.	16d/LL	.	.	.	.	.	.	.	.	.	8AA/	.	8A/	.	.	.	.	.
.	.	16d\	.	16f#/	.	.	.	.	.	.	.	.	.	.	.	.	.	.	.	.	.
8A\J	.	16G#X\	.	16d/	.	16b\LL	.	.	.	8d\	qui	16b\LL	qui	8AA/J	.	8A/J	.	.	.	.	.
.	.	16B\JJ	.	16f#/JJ	.	16g#X\JJ	.	.	.	.	.	16g#X\JJ	.	.	.	.	.	.	.	.	.
!	!	!	!	!	!	!	!	!	!	!LO:LB:g=original	!	!	!	!	!	!	!	!	!	!	!
=44	=44	=44	=44	=44	=44	=44	=44	=44	=44	=44	=44	=44	=44	=44	=44	=44	=44	=44	=44	=44	=44
*	*	*tremolo	*	*	*	*	*	*	*	*	*	*	*	*	*	*	*	*	*	*	*
8A\L	.	16A\LL	.	16c#/LL	.	4a\	.	2ryy	2ryy	4c#\	ve-	4a\	ve-	8AA/L	.	8A/L	.	2r	2r	.	2ryy
.	.	16c#\	.	16e/	.	.	.	.	.	.	.	.	.	.	.	.	.	.	.	.	.
8A\	.	16A\	.	16c#/	.	.	.	.	.	.	.	.	.	8AA/	.	8A/	.	.	.	.	.
.	.	16c#\	.	16e/JJ	.	.	.	.	.	.	.	.	.	.	.	.	.	.	.	.	.
8A\	.	16A\	.	16c#/LL	.	16cc#\LL	.	.	.	8e\	-nit	16cc#\LL	.	8AA/	.	8A/	.	.	.	.	.
.	.	16c#\	.	16e/	.	16a\	.	.	.	.	.	16a\JJ	.	.	.	.	.	.	.	.	.
8A\J	.	16A\	.	16c#/	.	16cc#\	.	.	.	8e\	qui	16cc#\LL	.	8AA/J	.	8A/J	.	.	.	.	.
.	.	16c#\JJ	.	16e/JJ	.	16ee\JJ	.	.	.	.	.	16ee\JJ	.	.	.	.	.	.	.	.	.
*	*	*Xtremolo	*	*	*	*	*	*	*	*	*	*	*	*	*	*	*	*	*	*	*
=45	=45	=45	=45	=45	=45	=45	=45	=45	=45	=45	=45	=45	=45	=45	=45	=45	=45	=45	=45	=45	=45
8A\L	.	16A\LL	.	16d/LL	.	16ee\LL	.	2ryy	2ryy	4.f#\	ve-	16ee\LL	.	8AA/L	.	8A/L	.	2r	2r	.	2ryy
.	.	16d\	.	16f#/	.	16dd\JJ	.	.	.	.	.	16dd\JJ	.	.	.	.	.	.	.	.	.
8A\	.	16A\	.	16d/	.	4dd\	.	.	.	.	.	4dd\	.	8AA/	.	8A/	.	.	.	.	.
.	.	16d\JJ	.	16f#/JJ	.	.	.	.	.	.	.	.	.	.	.	.	.	.	.	.	.
8A\	.	16A\LL	.	16d/LL	.	.	.	.	.	.	.	.	.	8AA/	.	8A/	.	.	.	.	.
.	.	16d\	.	16f#/	.	.	.	.	.	.	.	.	.	.	.	.	.	.	.	.	.
8A\J	.	16G#X\	.	16d/	.	16b\LL	.	.	.	8d\	.	16b\LL	.	8AA/J	.	8A/J	.	.	.	.	.
!	!	!	!	!	!	!	!	!	!	!	!	!LO:SIC:v:s=16g#\JJ	!	!	!	!	!	!	!	!	!
.	.	16d\JJ	.	16f#/JJ	.	16g#X\JJ	.	.	.	.	.	16g\JJ	.	.	.	.	.	.	.	.	.
*Xtremolo	*	*	*	*	*	*	*	*	*	*	*	*	*	*Xtremolo	*	*Xtremolo	*	*	*	*	*
!	!	!LO:LB:g=original	!	!	!	!LO:LB:g=original	!	!	!	!	!	!	!	!	!	!	!	!	!	!	!
=46	=46	=46	=46	=46	=46	=46	=46	=46	=46	=46	=46	=46	=46	=46	=46	=46	=46	=46	=46	=46	=46
8A\	.	8A/L	.	8e/L	.	16a\LL	.	2ryy	2ryy	16c#\LL	.	16a\LL	.	8AA/	.	8A/	.	2r	2r	.	2ryy
.	.	.	.	.	.	16cc#\	.	.	.	16a\	.	16cc#\	.	.	.	.	.	.	.	.	.
8r	.	16B/L	.	8e/J	.	16dd\	.	.	.	16b\	.	16dd\	.	8r	.	8r	.	.	.	.	.
.	.	16G#X/JJ	.	.	.	16b\JJ	.	.	.	16g#X\JJ	.	16b\JJ	.	.	.	.	.	.	.	.	.
8A\	.	16A/LL	.	8e/L	.	16cc#\LL	.	.	.	16a\LL	.	16cc#\LL	.	4r	.	4r	.	.	.	.	.
.	.	16c#/	.	.	.	16ee\	.	.	.	16cc#\	.	16ee\	.	.	.	.	.	.	.	.	.
8r	.	16d/	.	16d/L	.	16ff#\	.	.	.	16dd\	.	16ff#\	.	.	.	.	.	.	.	.	.
.	.	16B/JJ	.	16f#/JJ	.	16dd\JJ	.	.	.	16b\JJ	.	16dd\JJ	.	.	.	.	.	.	.	.	.
=47	=47	=47	=47	=47	=47	=47	=47	=47	=47	=47	=47	=47	=47	=47	=47	=47	=47	=47	=47	=47	=47
!	!	!	!	!	!	!	!	!	!	!	!	!	!	!LO:TX:a:t=1.:mod=	!	!LO:TX:a:t=1:mod=	!	!	!LO:TX:i:b:t=Verte:mod=	!	!
8A\	.	8A/	.	8c#/	.	16ee\LL	.	2ryy	2ryy	8cc#\	-nit	8ee\	-nit	2r	.	2r	.	2r	2r	.	2ryy
.	.	.	.	.	.	16aa\	.	.	.	.	.	.	.	.	.	.	.	.	.	.	.
8r	.	8r	.	8r	.	(16gg#X\	.	.	.	8r	.	8r	.	.	.	.	.	.	.	.	.
.	.	.	.	.	.	16aa\JJ)	.	.	.	.	.	.	.	.	.	.	.	.	.	.	.
4r	.	4r	.	4r	.	16gg#\LL	.	.	.	4r	.	4r	.	.	.	.	.	.	.	.	.
.	.	.	.	.	.	16aa\	.	.	.	.	.	.	.	.	.	.	.	.	.	.	.
.	.	.	.	.	.	16ee\	.	.	.	.	.	.	.	.	.	.	.	.	.	.	.
.	.	.	.	.	.	16ff#\JJ	.	.	.	.	.	.	.	.	.	.	.	.	.	.	.
!	!	!	!	!LO:LB:g=original	!	!	!	!	!	!	!	!LO:LB:g=original	!	!	!	!	!	!	!LO:PB:g=original	!	!
=48	=48	=48	=48	=48	=48	=48	=48	=48	=48	=48	=48	=48	=48	=48	=48	=48	=48	=48	=48	=48	=48
*tremolo	*	*tremolo	*	*tremolo	*	*	*	*	*	*	*	*	*	*	*	*	*	*	*	*	*
8C#/L	.	8e\L	.	8a/L	.	16ggn\KL	.	2ryy	2ryy	8r	.	8r	.	8r	.	8r	.	2r	(32aa\LLL	.	2ryy
!	!	!	!	!	!	!	!	!	!	!	!	!	!	!	!	!	!	!	!LO:SIC:s=32gg	!	!
.	.	.	.	.	.	.	.	.	.	.	.	.	.	.	.	.	.	.	32ggn\	.	.
.	.	.	.	.	.	8gg\	.	.	.	.	.	.	.	.	.	.	.	.	32ee\	.	.
.	.	.	.	.	.	.	.	.	.	.	.	.	.	.	.	.	.	.	32cc#\JJJ)	.	.
!	!	!	!	!	!	!	!	!	!	!LO:SIC:s=8g	!	!	!	!	!	!	!	!	!	!	!
8C#/	.	8e\	.	8a/	.	.	.	.	.	8gnX\	in	8ee\	in	8A/L	.	8e\L	.	.	(32a\LLL	.	.
.	.	.	.	.	.	.	.	.	.	.	.	.	.	.	.	.	.	.	32cc#\	.	.
.	.	.	.	.	.	8gg\	.	.	.	.	.	.	.	.	.	.	.	.	32ee\	.	.
!	!	!	!	!	!	!	!	!	!	!	!	!	!	!	!	!	!	!	!LO:SIC:s=32ggJJJ)	!	!
.	.	.	.	.	.	.	.	.	.	.	.	.	.	.	.	.	.	.	32ggn\JJJ)	.	.
8C#/	.	8e\	.	8a/	.	.	.	.	.	8g\	no-	8ee\	no-	8A/	.	8e\	.	.	(32aa\LLL	.	.
.	.	.	.	.	.	.	.	.	.	.	.	.	.	.	.	.	.	.	32gg\	.	.
.	.	.	.	.	.	8gg\	.	.	.	.	.	.	.	.	.	.	.	.	32ee\	.	.
.	.	.	.	.	.	.	.	.	.	.	.	.	.	.	.	.	.	.	32cc#\JJJ)	.	.
8C#/J	.	8e\J	.	8a/J	.	.	.	.	.	16g\	-mi-	16ee\	-mi-	8A/J	.	8e\J	.	.	(32a\LLL	.	.
.	.	.	.	.	.	.	.	.	.	.	.	.	.	.	.	.	.	.	32cc#\	.	.
.	.	.	.	.	.	16gg\Jk	.	.	.	16g\	-ne	16ee\	-ne	.	.	.	.	.	32ee\	.	.
!	!	!	!	!	!	!	!	!	!	!	!	!	!	!	!	!	!	!	!LO:SIC:s=32ggJJJ)	!	!
.	.	.	.	.	.	.	.	.	.	.	.	.	.	.	.	.	.	.	32ggn\JJJ)	.	.
*	*	*Xtremolo	*	*	*	*	*	*	*	*	*	*	*	*	*	*	*	*	*	*	*
=49	=49	=49	=49	=49	=49	=49	=49	=49	=49	=49	=49	=49	=49	=49	=49	=49	=49	=49	=49	=49	=49
8D\L	.	8d\L	.	8a/L	.	8.ff#\L	.	2ryy	2ryy	8f#\L	Do-	8.ff#\L	Do-	8d\	.	8f#\	.	2r	8ff#\	.	2ryy
8D\	.	8d\	.	8a/	.	.	.	.	.	8a\J	.	.	.	8r	.	8r	.	.	8r	.	.
.	.	.	.	.	.	16aa\Jk	.	.	.	.	.	16aa\Jk	.	.	.	.	.	.	.	.	.
8D\	.	8f#\	.	8a/	.	16gg#X\LL	.	.	.	4a\	.	16gg#X\LL	.	4r	.	4r	.	.	4r	.	.
.	.	.	.	.	.	16ff#\	.	.	.	.	.	16ff#\	.	.	.	.	.	.	.	.	.
8D\J	.	8f#\J	.	8a/J	.	16ee\	.	.	.	.	.	16ee\	.	.	.	.	.	.	.	.	.
.	.	.	.	.	.	16dd\JJ	.	.	.	.	.	16dd\JJ	.	.	.	.	.	.	.	.	.
*	*	*	*	*Xtremolo	*	*	*	*	*	*	*	*	*	*	*	*	*	*	*	*	*
!	!	!	!	!	!	!LO:LB:g=original	!	!	!	!LO:LB:g=original	!	!	!	!	!	!	!	!	!	!	!
=50	=50	=50	=50	=50	=50	=50	=50	=50	=50	=50	=50	=50	=50	=50	=50	=50	=50	=50	=50	=50	=50
*	*	*tremolo	*	*	*	*	*	*	*	*	*	*	*	*tremolo	*	*tremolo	*	*	*	*	*
8E\L	.	8e\L	.	8a/L	.	16cc#\LL	.	2ryy	2ryy	4.a\	.	16cc#\LL	.	8e\L	.	8e\L	.	4cc#\	4aa\	.	2ryy
.	.	.	.	.	.	16ee\JJ	.	.	.	.	.	16ee\JJ	.	.	.	.	.	.	.	.	.
.	.	.	.	.	.	8qdd/	.	.	.	.	.	.	.	.	.	.	.	.	.	.	.
8E\	.	8e\	.	8a/	.	16cc#\LL	.	.	.	.	.	32dd\LLL	.	8e\	.	8e\	.	.	.	.	.
.	.	.	.	.	.	.	.	.	.	.	.	32cc#\	.	.	.	.	.	.	.	.	.
.	.	.	.	.	.	32b\L	.	.	.	.	.	32b\	.	.	.	.	.	.	.	.	.
.	.	.	.	.	.	32a\JJJ	.	.	.	.	.	32a\JJJ	.	.	.	.	.	.	.	.	.
.	.	.	.	.	.	8qqcc#/	.	.	.	.	.	.	.	.	.	.	.	.	.	.	.
8E\	.	8e\	.	8a/	.	4b\	.	.	.	.	.	4bT\	-mi-	8e\	.	8e\	.	4b\	4gg#X\	.	.
8E\J	.	8e\J	.	8g#X/J	.	.	.	.	.	8g#X\	-mi-	.	.	8e\J	.	8e\J	.	.	.	.	.
*Xtremolo	*	*Xtremolo	*	*	*	*	*	*	*	*	*	*	*	*Xtremolo	*	*Xtremolo	*	*	*	*	*
=51	=51	=51	=51	=51	=51	=51	=51	=51	=51	=51	=51	=51	=51	=51	=51	=51	=51	=51	=51	=51	=51
*	*	*	*	*tremolo	*	*	*	*	*	*	*	*	*	*	*	*	*	*	*	*	*
!LO:TX:t=P:problem=mixed beam	!	!	!	!	!	!	!	!	!	!	!	!	!	!	!	!	!	!	!	!	!
!	!	!	!	!	!	!	!	!	!	!	!	!LO:TX:t=P:problem=belka rozdzielona późniejszą ręką (?)	!	!	!	!	!	!	!	!	!
8A\L	.	8a\L	.	8a/L	.	16cc#\LL	.	2ryy	2ryy	8a\	-ni	8cc#\L	-ni	8A/	.	8e\	.	8cc#\	8aa\	.	2ryy
.	.	.	.	.	.	16ee\	.	.	.	.	.	.	.	.	.	.	.	.	.	.	.
8C#/	.	8c#\	.	8a/	.	16ee\	.	.	.	8a\	in	16ee\L	in	8r	.	8r	.	8r	8r	.	.
.	.	.	.	.	.	16ee#X\JJ	.	.	.	.	.	16ee#X\JJ	.	.	.	.	.	.	.	.	.
8D/	.	8d\	.	8a/	.	16ff#\LL	.	.	.	16a\LL	no-	16ff#\LL	no-	4r	.	4r	.	4r	4r	.	.
.	.	.	.	.	.	16dd\	.	.	.	16f#\JJ	.	16dd\JJ	.	.	.	.	.	.	.	.	.
8D/J	.	8e\J	.	8a/J	.	16cc#\	.	.	.	16e\	-mi-	16cc#\	-mi-	.	.	.	.	.	.	.	.
.	.	.	.	.	.	16b\JJ	.	.	.	16d\	-ne	16b\	-ne	.	.	.	.	.	.	.	.
!LO:LB:g=original	!	!	!	!	!	!	!	!	!	!	!	!	!	!	!	!	!	!LO:LB:g=original	!	!	!
=52	=52	=52	=52	=52	=52	=52	=52	=52	=52	=52	=52	=52	=52	=52	=52	=52	=52	=52	=52	=52	=52
*tremolo	*	*tremolo	*	*	*	*tremolo	*	*	*	*	*	*	*	*tremolo	*	*tremolo	*	*	*	*	*
8E\L	.	16e\LL	.	16c#/LL	.	16a/LL	.	2ryy	2ryy	4c#/	Do-	4a\	Do-	8e\L	.	8e\L	.	4cc#\	4aa\	.	2ryy
.	.	16e\	.	16c#/	.	16a/	.	.	.	.	.	.	.	.	.	.	.	.	.	.	.
8E\	.	16e\	.	16c#/	.	16a/	.	.	.	.	.	.	.	8e\	.	8e\	.	.	.	.	.
.	.	16e\	.	16c#/JJ	.	16a/JJ	.	.	.	.	.	.	.	.	.	.	.	.	.	.	.
!	!	!	!	!	!	!	!	!	!	!	!	!	!	!	!	!	!	!	!LO:SIC:v:s=4gg#\	!	!
8E\	.	16e\	.	16B/LL	.	16g#X/LL	.	.	.	8.B/	.	8.g#X\	.	8e\	.	8e\	.	4b\	4gg\	.	.
.	.	16e\	.	16B/	.	16g#X/	.	.	.	.	.	.	.	.	.	.	.	.	.	.	.
8E\J	.	16e\	.	16B/	.	16g#X/	.	.	.	.	.	.	.	8e\J	.	8e\J	.	.	.	.	.
.	.	16e\JJ	.	16B/JJ	.	16g#X/JJ	.	.	.	16B/	-mi-	16g#\	-mi-	.	.	.	.	.	.	.	.
*Xtremolo	*	*Xtremolo	*	*Xtremolo	*	*Xtremolo	*	*	*	*	*	*	*	*Xtremolo	*	*Xtremolo	*	*	*	*	*
!	!	!	!	!	!	!	!	!	!	!	!	!LO:LB:g=original	!	!LO:LB:g=original	!	!	!	!	!	!	!
=53	=53	=53	=53	=53	=53	=53	=53	=53	=53	=53	=53	=53	=53	=53	=53	=53	=53	=53	=53	=53	=53
!	!	!	!	!	!LO:DY:a:t=for:mod=%s	!	!	!	!	!	!	!	!	!	!	!	!	!	!LO:MO:mod=8aaL	!	!
8AA/	.	8e\	.	8c#/L	f	8a/	.	2ryy	2ryy	8c#/	-ni	8a\	-ni	8A\L	.	8e\L	.	8cc#\L	8aa\	.	2ryy
!	!	!	!	!	!	!	!	!	!	!	!	!	!	!	!	!	!	!	!LO:MO:mod=8ee	!	!
8r	.	8r	.	8e/	.	8r	.	.	.	8r	.	8r	.	8e\	.	8e\	.	8ee\	8ee\L	.	.
4r	.	4r	.	8e/	.	4r	.	.	.	4r	.	4r	.	8e\	.	8e\	.	8ee\	8ee\	.	.
.	.	.	.	8e/J	.	.	.	.	.	.	.	.	.	8e\J	.	8e\J	.	8ee\J	8ee\J	.	.
!	!	!LO:LB:g=original	!	!	!	!	!	!	!	!	!	!	!	!	!	!	!	!	!	!	!
=54	=54	=54	=54	=54	=54	=54	=54	=54	=54	=54	=54	=54	=54	=54	=54	=54	=54	=54	=54	=54	=54
.	.	.	.	.	.	8qqe/	.	.	.	.	.	.	.	.	.	.	.	.	.	.	.
!	!	!	!	!	!	!	!	!	!	!	!	!	!	!	!	!	!	!LO:MO:mod=*null:null	!	!	!
*	*	*	*	*tremolo	*	*	*	*	*	*	*	*	*	*tremolo	*	*tremolo	*	*2\right	*	*	*
!	!	!	!	!	!	!	!	!	!	!	!	!	!	!	!LO:DY:t= :mod=%s	!	!	!	!	!	!
!	!	!	!	!	!	!	!	!	!	!	!	!	!	!	!LO:MO:mod=!LO&colon;DY&colon;ed=brack	!	!	!	!	!	!
!	!LO:DY:a:t=for&colon;:mod=%s	!	!LO:DY:a:t=for:mod=%s	!	!	!	!LO:DY:t=for:mod=%s	!	!	!	!	!LO:TX:a:t=10:mod=	!	!	!null	!	!LO:DY:a:t=for:mod=%s	!	!	!	!
8G#X\L	f	8e\L	f	16B/LL	.	2dd\	f	2ryy	2ryy	0r	.	0r	.	8e\L	f	8e\L	f	2dd\	2ee\	.	2ryy
.	.	.	.	16e/	.	.	.	.	.	.	.	.	.	.	.	.	.	.	.	.	.
8B\	.	8g#X\	.	16B/	.	.	.	.	.	.	.	.	.	8e\	.	8e\	.	.	.	.	.
.	.	.	.	16e/	.	.	.	.	.	.	.	.	.	.	.	.	.	.	.	.	.
8E\	.	8e\	.	16B/	.	.	.	.	.	.	.	.	.	8e\	.	8e\	.	.	.	.	.
.	.	.	.	16e/	.	.	.	.	.	.	.	.	.	.	.	.	.	.	.	.	.
8G#\J	.	8g#\J	.	16B/	.	.	.	.	.	.	.	.	.	8e\J	.	8e\J	.	.	.	.	.
.	.	.	.	16e/JJ	.	.	.	.	.	.	.	.	.	.	.	.	.	.	.	.	.
*	*	*	*	*	*	*	*	*	*	*	*	*	*	*Xtremolo	*	*Xtremolo	*	*	*	*	*
=55	=55	=55	=55	=55	=55	=55	=55	=55	=55	=55	=55	=55	=55	=55	=55	=55	=55	=55	=55	=55	=55
!	!	!LO:TX:t=P:problem:2 takty opuszczone	!	!	!	!	!	!	!	!	!	!	!	!	!	!	!	!	!	!	!
!	!	!LO:MO:mod=8eL@	!	!	!	!	!	!	!	!	!	!	!	!	!	!	!	!	!	!	!
8A\L	.	2ryy	.	16c#/LL	.	16cc#\LL	.	2ryy	2ryy	.	.	.	.	2A/	.	2e\	.	8cc#\	8ee\	.	2ryy
.	.	.	.	16e/	.	16aa\	.	.	.	.	.	.	.	.	.	.	.	.	.	.	.
!	!	!LO:MO:null:mod=8a@	!	!	!	!	!	!	!	!	!	!	!	!	!	!	!	!	!	!	!
8c#\	.	.	.	16c#/	.	16ee\	.	.	.	.	.	.	.	.	.	.	.	8r	8r	.	.
.	.	.	.	16e/	.	16ee\JJ	.	.	.	.	.	.	.	.	.	.	.	.	.	.	.
!	!	!LO:MO:null:mod=8e@	!	!	!	!LO:LB:g=original	!	!	!	!	!	!	!	!	!	!	!	!	!	!	!
8A\	.	.	.	16c#/	.	32dd#X\LLL	.	.	.	.	.	.	.	.	.	.	.	4r	4r	.	.
.	.	.	.	.	.	32ee\	.	.	.	.	.	.	.	.	.	.	.	.	.	.	.
.	.	.	.	16e/	.	32ff#\	.	.	.	.	.	.	.	.	.	.	.	.	.	.	.
.	.	.	.	.	.	32ee\JJJ	.	.	.	.	.	.	.	.	.	.	.	.	.	.	.
!	!	!LO:MO:null:mod=8aJ@	!	!	!	!	!	!	!	!	!	!	!	!	!	!	!	!	!	!	!
8c#\J	.	.	.	16c#/	.	32ddn\LLL	.	.	.	.	.	.	.	.	.	.	.	.	.	.	.
.	.	.	.	.	.	32cc#\	.	.	.	.	.	.	.	.	.	.	.	.	.	.	.
.	.	.	.	16e/JJ	.	32b\	.	.	.	.	.	.	.	.	.	.	.	.	.	.	.
.	.	.	.	.	.	32a\JJJ	.	.	.	.	.	.	.	.	.	.	.	.	.	.	.
=56	=56	=56	=56	=56	=56	=56	=56	=56	=56	=56	=56	=56	=56	=56	=56	=56	=56	=56	=56	=56	=56
!	!	!	!	!	!	!	!	!	!	!	!	!	!	!LO:MO:mod=*tremolo	!	!	!	!	!	!	!
*	*	*	*	*	*	*	*	*	*	*	*	*	*	*null	*	*tremolo	*	*	*	*	*
!	!	!LO:MO:mod=8eL@	!	!	!	!	!	!	!	!	!	!	!	!LO:MO:mod=8eL	!	!	!	!	!	!	!
8G#X\L	.	2ryy	.	16B/LL	.	2dd\	.	2ryy	2ryy	.	.	.	.	2e\	.	8e\L	.	2dd\	2ee\	.	2ryy
.	.	.	.	16e/	.	.	.	.	.	.	.	.	.	.	.	.	.	.	.	.	.
!	!	!LO:MO:null:mod=8g#@	!	!	!	!	!	!	!	!	!	!	!	!LO:MO:null:mod=8e	!	!	!	!	!	!	!
8B\	.	.	.	16B/	.	.	.	.	.	.	.	.	.	.	.	8e\	.	.	.	.	.
.	.	.	.	16e/	.	.	.	.	.	.	.	.	.	.	.	.	.	.	.	.	.
!	!	!LO:MO:null:mod=8e@	!	!	!	!	!	!	!	!	!	!	!	!LO:MO:null:mod=8e	!	!	!	!	!	!	!
8E\	.	.	.	16B/	.	.	.	.	.	.	.	.	.	.	.	8e\	.	.	.	.	.
.	.	.	.	16e/	.	.	.	.	.	.	.	.	.	.	.	.	.	.	.	.	.
!	!	!LO:MO:null:mod=8g#J@	!	!	!	!	!	!	!	!	!	!	!	!LO:MO:null:mod=8eJ	!	!	!	!	!	!	!
8G#\J	.	.	.	16B/	.	.	.	.	.	.	.	.	.	.	.	8e\J	.	.	.	.	.
.	.	.	.	16e/JJ	.	.	.	.	.	.	.	.	.	.	.	.	.	.	.	.	.
!	!	!	!	!	!	!	!	!	!	!	!	!	!	!LO:MO:mod=*Xtremolo	!	!	!	!	!	!	!
*	*	*	*	*	*	*	*	*	*	*	*	*	*	*null	*	*Xtremolo	*	*	*	*	*
!	!	!	!	!	!	!	!	!	!	!	!	!	!	!	!	!	!	!	!LO:LB:g=original	!	!
=57	=57	=57	=57	=57	=57	=57	=57	=57	=57	=57	=57	=57	=57	=57	=57	=57	=57	=57	=57	=57	=57
8A\L	.	8a\L	.	8a/L	.	16cc#\KL	.	2ryy	2ryy	.	.	.	.	8A/	.	8e\	.	16cc#\KL	16cc#\KL	.	2ryy
.	.	.	.	.	.	8dd\	.	.	.	.	.	.	.	.	.	.	.	8dd\	8dd\	.	.
8F#\	.	8e\	.	8a/	.	.	.	.	.	.	.	.	.	8r	.	8r	.	.	.	.	.
.	.	.	.	.	.	8ee\	.	.	.	.	.	.	.	.	.	.	.	8ee\	8ee\	.	.
8C#\	.	8c#\	.	8a/	.	.	.	.	.	.	.	.	.	4r	.	4r	.	.	.	.	.
.	.	.	.	.	.	8ff#\	.	.	.	.	.	.	.	.	.	.	.	8ff#\	8ff#\	.	.
8D\J	.	8A\J	.	8a/J	.	.	.	.	.	.	.	.	.	.	.	.	.	.	.	.	.
.	.	.	.	.	.	16aa\Jk	.	.	.	.	.	.	.	.	.	.	.	16aa\Jk	16aa\Jk	.	.
*	*	*	*	*Xtremolo	*	*	*	*	*	*	*	*	*	*	*	*	*	*	*	*	*
!	!	!	!	!LO:LB:g=original	!	!	!	!	!	!	!	!	!	!	!	!LO:LB:g=original	!	!	!	!	!
=58	=58	=58	=58	=58	=58	=58	=58	=58	=58	=58	=58	=58	=58	=58	=58	=58	=58	=58	=58	=58	=58
*tremolo	*	*	*	*	*	*	*	*	*	*	*	*	*	*tremolo	*	*tremolo	*	*	*	*	*
!	!	!	!	!	!	!LO:TX:t=P:problem=mixed beam	!	!	!	!	!	!	!	!	!	!	!	!	!	!	!
8E\L	.	8e\L	.	8a/L	.	16e/LL	.	2ryy	2ryy	0r	.	0r	.	8e\L	.	8e\L	.	4cc#\	4aa\	.	2ryy
.	.	.	.	.	.	16ee\JJ	.	.	.	.	.	.	.	.	.	.	.	.	.	.	.
!	!	!LO:SIC:v:s=8g#\	!	!	!	!	!	!	!	!	!	!	!	!	!	!	!	!	!	!	!
8E\	.	8g\	.	8a/	.	32dd\LLL	.	.	.	.	.	.	.	8e\	.	8e\	.	.	.	.	.
.	.	.	.	.	.	32cc#\	.	.	.	.	.	.	.	.	.	.	.	.	.	.	.
.	.	.	.	.	.	32b\	.	.	.	.	.	.	.	.	.	.	.	.	.	.	.
.	.	.	.	.	.	32a\JJJ	.	.	.	.	.	.	.	.	.	.	.	.	.	.	.
.	.	.	.	.	.	8qqcc#/	.	.	.	.	.	.	.	.	.	.	.	.	.	.	.
8E\	.	8e\	.	8a/	.	4bT\	.	.	.	.	.	.	.	8e\	.	8e\	.	4b\	4gg#X\	.	.
!	!	!LO:SIC:v:s=8g#\J	!	!	!	!	!	!	!	!	!	!	!	!	!	!	!	!	!	!	!
8E\J	.	8g\J	.	8g#X/J	.	.	.	.	.	.	.	.	.	8e\J	.	8e\J	.	.	.	.	.
*Xtremolo	*	*	*	*	*	*	*	*	*	*	*	*	*	*Xtremolo	*	*Xtremolo	*	*	*	*	*
!	!	!	!	!	!	!	!	!	!	!	!	!	!	!	!	!	!	!LO:LB:g=original	!	!	!
=59	=59	=59	=59	=59	=59	=59	=59	=59	=59	=59	=59	=59	=59	=59	=59	=59	=59	=59	=59	=59	=59
*	*	*	*	*tremolo	*	*	*	*	*	*	*	*	*	*	*	*	*	*	*	*	*
!LO:TX:t=P:problem=mixed beam	!	!	!	!	!	!	!	!	!	!	!	!	!	!	!	!	!	!	!	!	!
8A\L	.	8a\L	.	8a/L	.	16a\KL	.	2ryy	2ryy	.	.	.	.	8A/	.	8e\	.	8cc#\	8aa\	.	2ryy
.	.	.	.	.	.	8ee\	.	.	.	.	.	.	.	.	.	.	.	.	.	.	.
8C#/	.	8e\	.	8a/	.	.	.	.	.	.	.	.	.	8r	.	8r	.	8r	8r	.	.
!	!	!	!	!	!	!LO:SIC:s=8gg	!	!	!	!	!	!	!	!	!	!	!	!	!	!	!
.	.	.	.	.	.	8ggn\	.	.	.	.	.	.	.	.	.	.	.	.	.	.	.
!	!	!LO:SIC:s=8d	!	!	!	!	!	!	!	!	!	!	!	!	!	!	!	!	!	!	!
8D/	.	8c#\	.	8a/	.	.	.	.	.	.	.	.	.	4r	.	4r	.	4r	4r	.	.
.	.	.	.	.	.	8ff#\	.	.	.	.	.	.	.	.	.	.	.	.	.	.	.
!	!	!LO:SIC:s=8f#J	!	!	!	!	!	!	!	!	!	!	!	!	!	!	!	!	!	!	!
8F#/J	.	8d\J	.	8a/J	.	.	.	.	.	.	.	.	.	.	.	.	.	.	.	.	.
.	.	.	.	.	.	16dd\Jk	.	.	.	.	.	.	.	.	.	.	.	.	.	.	.
*	*	*	*	*Xtremolo	*	*	*	*	*	*	*	*	*	*	*	*	*	*	*	*	*
!	!	!	!	!	!	!LO:LB:g=original	!	!	!	!	!	!	!	!	!	!	!	!	!	!	!
=60	=60	=60	=60	=60	=60	=60	=60	=60	=60	=60	=60	=60	=60	=60	=60	=60	=60	=60	=60	=60	=60
*tremolo	*	*tremolo	*	*	*	*	*	*	*	*	*	*	*	*tremolo	*	*tremolo	*	*	*	*	*
8E\L	.	8e\L	.	8a/L	.	16cc#\LL	.	2ryy	2ryy	.	.	.	.	8e\L	.	8e\L	.	4cc#\	4aa\	.	2ryy
.	.	.	.	.	.	16ee\JJ	.	.	.	.	.	.	.	.	.	.	.	.	.	.	.
.	.	.	.	.	.	8qqdd/	.	.	.	.	.	.	.	.	.	.	.	.	.	.	.
8E\	.	8e\	.	8a/	.	16cc#\LL	.	.	.	.	.	.	.	8e\	.	8e\	.	.	.	.	.
.	.	.	.	.	.	32b\L	.	.	.	.	.	.	.	.	.	.	.	.	.	.	.
.	.	.	.	.	.	32a\JJJ	.	.	.	.	.	.	.	.	.	.	.	.	.	.	.
.	.	.	.	.	.	8qqcc#/	.	.	.	.	.	.	.	.	.	.	.	.	.	.	.
8E\	.	8e\	.	8a/	.	4b\	.	.	.	.	.	.	.	8e\	.	8e\	.	4b\	4gg#X\	.	.
8E\J	.	8e\J	.	8g#X/J	.	.	.	.	.	.	.	.	.	8e\J	.	8e\J	.	.	.	.	.
*Xtremolo	*	*Xtremolo	*	*	*	*	*	*	*	*	*	*	*	*	*	*Xtremolo	*	*	*	*	*
*	*	*	*	*	*	*	*	*	*	*	*	*	*	*Xtremolo	*	*	*	*	*	*	*
=61	=61	=61	=61	=61	=61	=61	=61	=61	=61	=61	=61	=61	=61	=61	=61	=61	=61	=61	=61	=61	=61
!LO:TX:t=P:problem=mixed beam	!	!LO:TX:t=P:problem=mixed beam	!	!	!	!	!	!	!	!	!	!	!	!	!	!	!	!	!	!	!
8A\L	.	8A/L	.	8a/	.	8a\L	.	2ryy	2ryy	.	.	.	.	8A/	.	8e\	.	8cc#\	8aa\	.	2ryy
8AA/J	.	8a\J	.	16r	.	16r	.	.	.	.	.	.	.	8r	.	8r	.	8r	8r	.	.
.	.	.	.	16cc#/	.	16ee\Jk	.	.	.	.	.	.	.	.	.	.	.	.	.	.	.
8r	.	8r	.	16cc#/LL	.	16ee\LL	.	.	.	.	.	.	.	4r	.	4r	.	4r	4r	.	.
.	.	.	.	16b/	.	16dd\	.	.	.	.	.	.	.	.	.	.	.	.	.	.	.
8E\	.	8e\	.	16a/	.	16cc#\	.	.	.	.	.	.	.	.	.	.	.	.	.	.	.
!	!	!	!	!LO:SIC:v:s=16g#/JJ	!	!	!	!	!	!	!	!	!	!	!	!	!	!	!	!	!
.	.	.	.	16g/JJ	.	16b\JJ	.	.	.	.	.	.	.	.	.	.	.	.	.	.	.
=62	=62	=62	=62	=62	=62	=62	=62	=62	=62	=62	=62	=62	=62	=62	=62	=62	=62	=62	=62	=62	=62
!LO:TX:t=P:problem=mixed beam	!	!	!	!	!	!	!	!	!	!	!	!	!	!	!	!	!	!	!	!	!
8AA/L	.	8e\	.	8a/	.	8a\L	.	2ryy	2ryy	1r	.	1r	.	4r	.	4r	.	8r	8r	.	2ryy
8A\J	.	8r	.	16r	.	16r	.	.	.	.	.	.	.	.	.	.	.	16r	16r	.	.
!	!	!	!	!	!	!	!	!	!	!	!	!	!	!	!	!	!	!LO:SIC:s=16ccc#|	!	!	!
.	.	.	.	16e/	.	16cc#\Jk	.	.	.	.	.	.	.	.	.	.	.	16ccc#\	16eee|\	.	.
!	!	!	!	!	!	!	!	!	!	!	!	!	!	!	!	!	!	!LO:SIC:s=16ccc#LL|	!	!	!
8r	.	8r	.	16e/LL	.	16cc#\LL	.	.	.	.	.	.	.	8r	.	8r	.	16ccc#\LL	16eee|\LL	.	.
!	!	!	!	!	!	!	!	!	!	!	!	!	!	!	!	!	!	!LO:SIC:s=16bb|	!	!	!
.	.	.	.	16d/	.	16b\	.	.	.	.	.	.	.	.	.	.	.	16bb\	16ddd|\	.	.
!	!	!	!	!	!	!	!	!	!	!	!	!	!	!	!	!	!	!LO:SIC:s=16aa|	!	!	!
8E\	.	8e\	.	16c#/	.	16a\	.	.	.	.	.	.	.	8e\	.	8e\	.	16aa\	16ccc#|\	.	.
!	!	!	!	!	!	!	!	!	!	!	!	!	!	!	!	!	!	!LO:SIC:s=16gg#|JJ	!	!	!
.	.	.	.	16B/JJ	.	16g#X\JJ	.	.	.	.	.	.	.	.	.	.	.	16gg#X\JJ	16bb|\JJ	.	.
!LO:LB:g=original	!	!	!	!	!	!	!	!	!	!	!	!	!	!	!	!	!	!	!	!	!
=63	=63	=63	=63	=63	=63	=63	=63	=63	=63	=63	=63	=63	=63	=63	=63	=63	=63	=63	=63	=63	=63
!LO:TX:t=P:problem=zapis niewyraźny	!	!	!	!	!	!	!	!	!	!	!	!	!	!	!	!	!	!	!	!	!
8AA/L	.	8e\L	.	8c#/L	.	8a/L	.	2ryy	2ryy	.	.	.	.	8A/L	.	8e\L	.	8aa\L	8ccc#|\L	.	2ryy
8A\	.	8e\	.	8c#/	.	8a/	.	.	.	.	.	.	.	8A/	.	8e\	.	8aa\	8ccc#|\	.	.
8AA/J	.	8e\J	.	8c#/J	.	8a/J	.	.	.	.	.	.	.	8A/J	.	8e\J	.	8aa\J	8ccc#|\J	.	.
!	!	!	!LO:DY:a:t=p.:mod= 	!	!	!	!	!	!	!	!	!	!	!	!	!	!	!	!	!	!
8r	.	8r	p	8r	.	8r	.	.	.	.	.	.	.	8r	.	8r	.	8r	8r	.	.
!	!	!LO:LB:g=original	!	!	!	!	!	!	!	!	!	!	!	!	!	!	!	!	!	!	!
=64	=64	=64	=64	=64	=64	=64	=64	=64	=64	=64	=64	=64	=64	=64	=64	=64	=64	=64	=64	=64	=64
*tremolo	*	*tremolo	*	*tremolo	*	*	*	*	*	*	*	*	*	*	*	*	*	*	*	*	*
!	!LO:DY:a:t=pia.:mod=%s	!	!LO:DY:t= :mod=%s	!	!LO:DY:t=p&colon;:mod=pp	!	!	!	!	!LO:TX:i:a:t=Solo:mod=	!	!	!	!LO:TX:a:t=5.:mod=	!	!LO:TX:a:t=5:mod=	!	!LO:TX:a:t=58:mod=	!LO:TX:a:t=41.:mod=	!	!
8A\L	pp	8e\L	pp	8c#/L	p	16r	.	2ryy	2ryy	4.c#\	Be-	4.a\	Be-	0r	.	0r	.	2r	2r	.	2ryy
!	!	!	!	!	!	!	!LO:DY:t=pia:mod=%s	!	!	!	!	!	!	!	!	!	!	!	!	!	!
.	.	.	.	.	.	16a/LL	pp	.	.	.	.	.	.	.	.	.	.	.	.	.	.
8A\	.	8e\	.	8c#/	.	16g#X/	.	.	.	.	.	.	.	.	.	.	.	.	.	.	.
.	.	.	.	.	.	16a/JJ	.	.	.	.	.	.	.	.	.	.	.	.	.	.	.
!	!	!	!	!	!	!LO:LB:g=original	!	!	!	!	!	!	!	!	!	!	!	!	!	!	!
8A\	.	8e\	.	8c#/	.	16r	.	.	.	.	.	.	.	.	.	.	.	.	.	.	.
.	.	.	.	.	.	16a/LL	.	.	.	.	.	.	.	.	.	.	.	.	.	.	.
8A\J	.	8e\J	.	8c#/J	.	16g#/	.	.	.	8c#\	-ne-	32a\LLL	.	.	.	.	.	.	.	.	.
.	.	.	.	.	.	.	.	.	.	.	.	32g\	.	.	.	.	.	.	.	.	.
.	.	.	.	.	.	16a/JJ	.	.	.	.	.	32cc#\	.	.	.	.	.	.	.	.	.
.	.	.	.	.	.	.	.	.	.	.	.	32b\JJJ	-ne-	.	.	.	.	.	.	.	.
=65	=65	=65	=65	=65	=65	=65	=65	=65	=65	=65	=65	=65	=65	=65	=65	=65	=65	=65	=65	=65	=65
8F#\L	.	8f#\L	.	8c#/L	.	16r	.	2ryy	2ryy	8c#\	-di-	8a\	-di-	.	.	.	.	2r	2r	.	2ryy
.	.	.	.	.	.	16a/LL	.	.	.	.	.	.	.	.	.	.	.	.	.	.	.
8F#\	.	8f#\	.	8c#/	.	16g#X/	.	.	.	8c#\	-ctus	8a\	-ctus	.	.	.	.	.	.	.	.
.	.	.	.	.	.	16a/JJ	.	.	.	.	.	.	.	.	.	.	.	.	.	.	.
8F#\	.	8f#\	.	8c#/	.	16r	.	.	.	8r	.	8r	.	.	.	.	.	.	.	.	.
.	.	.	.	.	.	16a/LL	.	.	.	.	.	.	.	.	.	.	.	.	.	.	.
8F#\J	.	8f#\J	.	8c#/J	.	16a/	.	.	.	8a\	qui	8a\	qui	.	.	.	.	.	.	.	.
.	.	.	.	.	.	16a/JJ	.	.	.	.	.	.	.	.	.	.	.	.	.	.	.
!	!	!	!	!LO:PB:g=original	!	!	!	!	!	!LO:LB:g=original	!	!	!	!	!	!	!	!	!	!	!
=66	=66	=66	=66	=66	=66	=66	=66	=66	=66	=66	=66	=66	=66	=66	=66	=66	=66	=66	=66	=66	=66
8D\L	.	8d\L	.	8f#/L	.	16r	.	2ryy	2ryy	2f#\	ve-	4.b\	ve-	.	.	.	.	2r	2r	.	2ryy
.	.	.	.	.	.	16b/LL	.	.	.	.	.	.	.	.	.	.	.	.	.	.	.
8D\	.	8d\	.	8f#/	.	16a#X/	.	.	.	.	.	.	.	.	.	.	.	.	.	.	.
.	.	.	.	.	.	16b/JJ	.	.	.	.	.	.	.	.	.	.	.	.	.	.	.
8D\	.	8d\	.	8f#/	.	16r	.	.	.	.	.	.	.	.	.	.	.	.	.	.	.
.	.	.	.	.	.	16b\	.	.	.	.	.	.	.	.	.	.	.	.	.	.	.
8D\J	.	8d\J	.	8f#/J	.	32dd\LLL	.	.	.	.	.	32dd\LLL	.	.	.	.	.	.	.	.	.
.	.	.	.	.	.	32cc#\	.	.	.	.	.	32cc#\	.	.	.	.	.	.	.	.	.
.	.	.	.	.	.	32b\	.	.	.	.	.	32b\	.	.	.	.	.	.	.	.	.
!	!	!	!	!	!	!LO:SIC:v:s=32a\JJJ	!	!	!	!	!	!	!	!	!	!	!	!	!	!	!
.	.	.	.	.	.	32a#\JJJ	.	.	.	.	.	32a\JJJ	.	.	.	.	.	.	.	.	.
*Xtremolo	*	*Xtremolo	*	*Xtremolo	*	*	*	*	*	*	*	*	*	*	*	*	*	*	*	*	*
=67	=67	=67	=67	=67	=67	=67	=67	=67	=67	=67	=67	=67	=67	=67	=67	=67	=67	=67	=67	=67	=67
!	!	!LO:TX:t=P:problem=mixed beam	!	!	!	!	!	!	!	!	!	!	!	!	!	!	!	!	!	!	!
8E\L	.	8e\L	.	8B/L	.	8.g#X/L	.	2ryy	2ryy	8e\	-nit	8.g#X\L	.	.	.	.	.	2r	2r	.	2ryy
8E\	.	8e\	.	8B/	.	.	.	.	.	8e\	in	.	.	.	.	.	.	.	.	.	.
.	.	.	.	.	.	16a/Jk	.	.	.	.	.	16a\Jk	.	.	.	.	.	.	.	.	.
8G#X\	.	8G#X/	.	8e/	.	16b\LL	.	.	.	4e\	no-	8b\	-nit	.	.	.	.	.	.	.	.
.	.	.	.	.	.	16cc#\	.	.	.	.	.	.	.	.	.	.	.	.	.	.	.
8G#\J	.	8G#/J	.	8e/J	.	16dd\	.	.	.	.	.	8dd\	qui	.	.	.	.	.	.	.	.
.	.	.	.	.	.	16dd\JJ	.	.	.	.	.	.	.	.	.	.	.	.	.	.	.
!	!	!	!	!	!	!LO:LB:g=original	!	!	!	!	!	!	!	!	!	!	!	!	!	!	!
=68	=68	=68	=68	=68	=68	=68	=68	=68	=68	=68	=68	=68	=68	=68	=68	=68	=68	=68	=68	=68	=68
8A\L	.	8A\L	.	8e/L	.	8cc#\L	.	2ryy	2ryy	4e\	.	8cc#\L	ve-	2r	.	2r	.	2r	2r	.	2ryy
8C#\	.	8c#\	.	8e/	.	16a\L	.	.	.	.	.	16a\L	.	.	.	.	.	.	.	.	.
.	.	.	.	.	.	16cc#\JJ	.	.	.	.	.	16cc#\JJ	.	.	.	.	.	.	.	.	.
!	!	!	!	!	!	!	!	!	!	!	!	!LO:LB:g=original	!	!	!	!	!	!	!	!	!
8D\	.	8d\	.	8f#/	.	16b\LL	.	.	.	8f#\L	.	16b\LL	.	.	.	.	.	.	.	.	.
.	.	.	.	.	.	16dd\JJ	.	.	.	.	.	16dd\	.	.	.	.	.	.	.	.	.
8E\J	.	8e\J	.	8d/J	.	16g#X/LL	.	.	.	8d\J	-mi-	16g#X\	.	.	.	.	.	.	.	.	.
.	.	.	.	.	.	16b/JJ	.	.	.	.	.	16b\JJ	.	.	.	.	.	.	.	.	.
=69	=69	=69	=69	=69	=69	=69	=69	=69	=69	=69	=69	=69	=69	=69	=69	=69	=69	=69	=69	=69	=69
!	!	!	!	!	!	!	!	!	!	!	!	!	!	!	!	!	!LO:DY:a:t=p&colon;:mod= 	!	!	!	!
8AA/L	.	8A\L	.	8c#/L	.	16a/LL	.	2ryy	2ryy	8c#\	-ne	8a\	-nit	4r	.	4r	p	2r	2r	.	2ryy
.	.	.	.	.	.	16a/	.	.	.	.	.	.	.	.	.	.	.	.	.	.	.
8AA/	.	8A\	.	8c#/	.	16g#X/	.	.	.	8r	.	8r	.	.	.	.	.	.	.	.	.
.	.	.	.	.	.	16a/JJ	.	.	.	.	.	.	.	.	.	.	.	.	.	.	.
!	!	!	!	!	!	!	!	!	!	!	!	!	!	!	!LO:DY:t= :mod=%s	!	!	!	!	!	!
!	!	!	!	!	!	!	!	!	!	!	!	!	!	!	!LO:MO:mod=!LO&colon;DY&colon;ed=brack	!	!	!	!	!	!
!	!	!	!	!	!	!	!	!	!	!	!	!	!	!	!null	!	!LO:DY:t= :mod=%s	!	!	!	!
8C#/	.	8c#\	.	8e/	.	16gn/LL	.	.	.	8r	.	4r	.	4e\	p	4e\	p	.	.	.	.
.	.	.	.	.	.	16g/	.	.	.	.	.	.	.	.	.	.	.	.	.	.	.
!	!	!	!	!	!	!	!	!	!	!LO:SIC:s=8g	!	!	!	!	!	!	!	!	!	!	!
8C#/J	.	8c#\J	.	8e/J	.	16f#/	.	.	.	8gn\	qui	.	.	.	.	.	.	.	.	.	.
.	.	.	.	.	.	16g/JJ	.	.	.	.	.	.	.	.	.	.	.	.	.	.	.
=70	=70	=70	=70	=70	=70	=70	=70	=70	=70	=70	=70	=70	=70	=70	=70	=70	=70	=70	=70	=70	=70
8D\L	.	8d\L	.	8A/L	.	16f#/LL	.	2ryy	2ryy	2f#\	ve-	4r	.	4d\	.	4f#\	.	2r	2r	.	2ryy
.	.	.	.	.	.	16f#/	.	.	.	.	.	.	.	.	.	.	.	.	.	.	.
8D\	.	8d\	.	8A/	.	16e/	.	.	.	.	.	.	.	.	.	.	.	.	.	.	.
.	.	.	.	.	.	16f#/JJ	.	.	.	.	.	.	.	.	.	.	.	.	.	.	.
8A#X\	.	8c#\	.	8f#/	.	16ee\LL	.	.	.	.	.	4ee\	qui	8r	.	8r	.	.	.	.	.
.	.	.	.	.	.	16ee\	.	.	.	.	.	.	.	.	.	.	.	.	.	.	.
8A#\J	.	8c#\J	.	8f#/J	.	16dd\	.	.	.	.	.	.	.	8F#/	.	8f#\	.	.	.	.	.
.	.	.	.	.	.	16ee\JJ	.	.	.	.	.	.	.	.	.	.	.	.	.	.	.
=71	=71	=71	=71	=71	=71	=71	=71	=71	=71	=71	=71	=71	=71	=71	=71	=71	=71	=71	=71	=71	=71
*	*	*	*	*tremolo	*	*	*	*	*	*	*	*	*	*	*	*	*	*	*	*	*
!LO:TX:t=P:problem=mixed beam	!	!	!	!	!	!	!	!	!	!	!	!	!	!	!	!	!	!	!	!	!
8B\L	.	8B\L	.	8f#/L	.	16dd\LL	.	2ryy	2ryy	2f#\	.	(4dd\	ve-	4F#/	.	4f#\	.	2r	2r	.	2ryy
.	.	.	.	.	.	16dd\	.	.	.	.	.	.	.	.	.	.	.	.	.	.	.
8B\	.	8d\	.	8f#/	.	16cc#\	.	.	.	.	.	.	.	.	.	.	.	.	.	.	.
.	.	.	.	.	.	16b\JJ	.	.	.	.	.	.	.	.	.	.	.	.	.	.	.
!LO:SIC:s=8BB	!	!	!	!	!	!LO:LB:g=original	!	!	!	!	!	!	!	!	!	!	!	!	!	!	!
8D/ 8BB/	.	8d\	.	8f#/	.	16b\LL	.	.	.	.	.	4b\)	.	4r	.	4r	.	.	.	.	.
.	.	.	.	.	.	16b\	.	.	.	.	.	.	.	.	.	.	.	.	.	.	.
!LO:SIC:s=8BBJ	!	!	!	!	!	!	!	!	!	!	!	!	!	!	!	!	!	!	!	!	!
8D/J 8BB/	.	8d\J	.	8f#/J	.	16a#X\	.	.	.	.	.	.	.	.	.	.	.	.	.	.	.
.	.	.	.	.	.	16b\JJ	.	.	.	.	.	.	.	.	.	.	.	.	.	.	.
=72	=72	=72	=72	=72	=72	=72	=72	=72	=72	=72	=72	=72	=72	=72	=72	=72	=72	=72	=72	=72	=72
8E\L	.	8A#X/L	.	8f#/L	.	32cc#\LLL	.	2ryy	2ryy	32f#\LLL	.	32a#X\LLL	.	8r	.	8r	.	2r	2r	.	2ryy
.	.	.	.	.	.	32dd\	.	.	.	32g\	.	32b\	.	.	.	.	.	.	.	.	.
.	.	.	.	.	.	32cc#\	.	.	.	32f#\	.	32a#\	.	.	.	.	.	.	.	.	.
.	.	.	.	.	.	32dd\JJ	.	.	.	32g\JJ	.	32b\JJ	.	.	.	.	.	.	.	.	.
8E\	.	8A#/	.	8f#/	.	8ee\J	.	.	.	8a#X\J	-nit	8cc#\J	-nit	8F#/L	.	8f#\L	.	.	.	.	.
8A#X\	.	8c#/	.	8f#/	.	16r	.	.	.	8r	.	8r	.	8F#/	.	8f#\	.	.	.	.	.
!	!	!	!	!	!	!LO:TX:t=P:problem=mixed beam	!	!	!	!	!	!	!	!	!	!	!	!	!	!	!
.	.	.	.	.	.	16f#/LL	.	.	.	.	.	.	.	.	.	.	.	.	.	.	.
8A#\J	.	8c#/J	.	8f#/J	.	16cc#\	.	.	.	8f#\	qui	16cc#\LL	qui	8F#/J	.	8f#\J	.	.	.	.	.
.	.	.	.	.	.	16ee\JJ	.	.	.	.	.	16ee\JJ	.	.	.	.	.	.	.	.	.
*	*	*	*	*Xtremolo	*	*	*	*	*	*	*	*	*	*	*	*	*	*	*	*	*
!	!	!LO:LB:g=original	!	!	!	!	!	!	!	!	!	!	!	!LO:LB:g=original	!	!	!	!	!	!	!
=73	=73	=73	=73	=73	=73	=73	=73	=73	=73	=73	=73	=73	=73	=73	=73	=73	=73	=73	=73	=73	=73
*	*	*	*	*	*	*Xtuplet	*	*	*	*	*	*Xtuplet	*	*	*	*	*	*	*	*	*
!	!	!	!	!	!	!	!	!	!	!	!	!	!LO:MO:null:mod=ve-	!	!	!	!	!	!	!	!
8B\L	.	8d\L	.	8f#/L	.	24dd\LL	.	2ryy	2ryy	4f#\	ve-	24dd\LL	.	8F#/	.	8f#\	.	2r	2r	.	2ryy
.	.	.	.	.	.	24ff#\	.	.	.	.	.	24ff#\	.	.	.	.	.	.	.	.	.
.	.	.	.	.	.	24ee\JJ	.	.	.	.	.	24ee\	.	.	.	.	.	.	.	.	.
8D\	.	8d\	.	8b/	.	24dd\LL	.	.	.	.	.	24dd\	.	8r	.	8r	.	.	.	.	.
.	.	.	.	.	.	24cc#\	.	.	.	.	.	24cc#\	.	.	.	.	.	.	.	.	.
.	.	.	.	.	.	24b\JJ	.	.	.	.	.	24b\JJ	.	.	.	.	.	.	.	.	.
8E\	.	8e\	.	8b/	.	24gg\LL	.	.	.	4g\	.	24gg\LL	.	4r	.	4r	.	.	.	.	.
.	.	.	.	.	.	24ff#\	.	.	.	.	.	24ff#\	.	.	.	.	.	.	.	.	.
.	.	.	.	.	.	24ee\JJ	.	.	.	.	.	24ee\	.	.	.	.	.	.	.	.	.
8E\J	.	8e\J	.	8g/J	.	24dd\LL	.	.	.	.	.	24dd\	.	.	.	.	.	.	.	.	.
.	.	.	.	.	.	24cc#\	.	.	.	.	.	24cc#\	.	.	.	.	.	.	.	.	.
.	.	.	.	.	.	24b\JJ	.	.	.	.	.	24b\JJ	.	.	.	.	.	.	.	.	.
!	!	!	!	!	!	!	!	!	!	!	!	!	!	!	!	!LO:LB:g=original	!	!	!	!	!
=74	=74	=74	=74	=74	=74	=74	=74	=74	=74	=74	=74	=74	=74	=74	=74	=74	=74	=74	=74	=74	=74
!	!	!LO:TX:t=P:problem=mixed beam	!	!LO:TX:a:t=d:mod=	!	!	!	!	!	!	!	!	!LO:MO:mod=.	!	!	!	!	!	!	!	!
4F#|\	.	8f#\L	.	8c#/L	.	8b/L	.	2ryy	2ryy	8d\	.	8b\	ve-	8r	.	8r	.	2r	2r	.	2ryy
.	.	8F#/J	.	8c#/J	.	8a#X/J	.	.	.	8c#\	-nit	8a#X\	-nit	8F#/L	.	8f#\L	.	.	.	.	.
(16F#\LL	.	16f#\LL	.	4r	.	4r	.	.	.	4r	.	4r	.	8F#/J	.	8f#\J	.	.	.	.	.
16E\	.	16e\	.	.	.	.	.	.	.	.	.	.	.	.	.	.	.	.	.	.	.
16D\	.	16d\	.	.	.	.	.	.	.	.	.	.	.	8r	.	8r	.	.	.	.	.
16C#\JJ)	.	16c#\JJ	.	.	.	.	.	.	.	.	.	.	.	.	.	.	.	.	.	.	.
!LO:PB:g=original	!	!	!	!LO:LB:g=original	!	!LO:LB:g=original	!	!	!	!LO:LB:g=original	!	!LO:LB:g=original	!	!	!	!	!	!	!	!	!
=75	=75	=75	=75	=75	=75	=75	=75	=75	=75	=75	=75	=75	=75	=75	=75	=75	=75	=75	=75	=75	=75
*tremolo	*	*tremolo	*	*tremolo	*	*	*	*	*	*	*	*	*	*	*	*	*	*	*	*	*
!	!	!	!	!	!	!	!	!	!	!	!	!	!	!LO:TX:a:t=3.:mod=	!	!LO:TX:a:t=3:mod=	!	!	!	!	!
8BB/L	.	16B\LL	.	16d/LL	.	4b\	.	2ryy	2ryy	4.d\	Be-	4.b\	Be-	1r	.	1r	.	2r	2r	.	2ryy
.	.	16d\	.	16f#/	.	.	.	.	.	.	.	.	.	.	.	.	.	.	.	.	.
8BB/	.	16B\	.	16d/	.	.	.	.	.	.	.	.	.	.	.	.	.	.	.	.	.
.	.	16d\	.	16f#/	.	.	.	.	.	.	.	.	.	.	.	.	.	.	.	.	.
8BB/	.	16B\	.	16d/	.	16r	.	.	.	.	.	.	.	.	.	.	.	.	.	.	.
.	.	16d\	.	16f#/	.	16b\LL	.	.	.	.	.	.	.	.	.	.	.	.	.	.	.
8BB/J	.	16B\	.	16d/	.	16cc#\	.	.	.	8d\	-ne-	8dd\	-ne-	.	.	.	.	.	.	.	.
.	.	16d\JJ	.	16f#/JJ	.	16dd\JJ	.	.	.	.	.	.	.	.	.	.	.	.	.	.	.
*	*	*	*	*Xtremolo	*	*	*	*	*	*	*	*	*	*	*	*	*	*	*	*	*
=76	=76	=76	=76	=76	=76	=76	=76	=76	=76	=76	=76	=76	=76	=76	=76	=76	=76	=76	=76	=76	=76
8BB/L	.	16c#\LL	.	16e/LL	.	16dd\LL	.	2ryy	2ryy	4e\	-di-	16dd\LL	-di-	.	.	.	.	2r	2r	.	2ryy
.	.	16e\	.	16g/	.	16cc#\J	.	.	.	.	.	16cc#\J	.	.	.	.	.	.	.	.	.
8BB/	.	16c#\	.	16e/	.	8.cc#\J	.	.	.	.	.	8.cc#\J	-ctus	.	.	.	.	.	.	.	.
.	.	16e\	.	16g/JJ	.	.	.	.	.	.	.	.	.	.	.	.	.	.	.	.	.
8BB/	.	16c#\	.	16e/LL	.	.	.	.	.	8e\	-ctus	.	.	.	.	.	.	.	.	.	.
.	.	16e\	.	16g/	.	16ee\LL	.	.	.	.	.	16ee\LL	qui	.	.	.	.	.	.	.	.
8BB/J	.	16c#\	.	16c#/	.	16a#X\	.	.	.	8e\	qui	16a#X\	.	.	.	.	.	.	.	.	.
.	.	16e\JJ	.	16e/JJ	.	16cc#\JJ	.	.	.	.	.	16cc#\JJ	.	.	.	.	.	.	.	.	.
*Xtremolo	*	*	*	*	*	*	*	*	*	*	*	*	*	*	*	*	*	*	*	*	*
=77	=77	=77	=77	=77	=77	=77	=77	=77	=77	=77	=77	=77	=77	=77	=77	=77	=77	=77	=77	=77	=77
*	*	*	*	*tremolo	*	*	*	*	*	*	*	*	*	*	*	*	*	*	*	*	*
!LO:TX:t=P:problem=mixed beam	!	!	!	!	!	!	!	!	!	!	!	!	!	!	!	!	!	!	!	!	!
8BB/L	.	16B\LL	.	16d/LL	.	16cc#\LL	.	2ryy	2ryy	16e\LL	ve-	16cc#\LL	ve-	2r	.	2r	.	2r	2r	.	2ryy
.	.	16d\	.	16f#/	.	16b\JJ	.	.	.	16d\JJ	.	16b\JJ	.	.	.	.	.	.	.	.	.
!	!	!	!	!	!	!	!	!	!	!	!	!LO:MO:mod=!null:null	!	!	!	!	!	!	!	!	!
!	!	!	!	!	!	!	!	!	!	!	!	!LO:N:vis=4.	!	!	!	!	!	!	!	!	!
8B\	.	16B\	.	16d/	.	4b\	.	.	.	4d\	-nit	4b\	-nit	.	.	.	.	.	.	.	.
.	.	16d\	.	16f#/	.	.	.	.	.	.	.	.	.	.	.	.	.	.	.	.	.
8B\	.	16B\	.	16d/	.	.	.	.	.	.	.	.	.	.	.	.	.	.	.	.	.
.	.	16d\	.	16f#/	.	.	.	.	.	.	.	.	.	.	.	.	.	.	.	.	.
8B\J	.	16B\	.	16d/	.	8dd\	.	.	.	8d\	in	8dd\	qui	.	.	.	.	.	.	.	.
.	.	16d\JJ	.	16f#/JJ	.	.	.	.	.	.	.	.	.	.	.	.	.	.	.	.	.
=78	=78	=78	=78	=78	=78	=78	=78	=78	=78	=78	=78	=78	=78	=78	=78	=78	=78	=78	=78	=78	=78
*tremolo	*	*	*	*	*	*	*	*	*	*	*	*	*	*	*	*	*	*	*	*	*
8F#\L	.	16d\LL	.	16d/LL	.	16dd\LL	.	2ryy	2ryy	4.d\	no-	32dd\LLL	ve-	8r	.	8r	.	2r	2r	.	2ryy
.	.	.	.	.	.	.	.	.	.	.	.	32ccn\	.	.	.	.	.	.	.	.	.
.	.	16f#\	.	16a/	.	16ccn\JJ	.	.	.	.	.	32b\	.	.	.	.	.	.	.	.	.
.	.	.	.	.	.	.	.	.	.	.	.	32cc\JJJ	.	.	.	.	.	.	.	.	.
8F#\	.	16d\	.	16d/	.	4cc\	.	.	.	.	.	4cc\	-nit	8D/L	.	8d\L	.	.	.	.	.
.	.	16f#\	.	16a/	.	.	.	.	.	.	.	.	.	.	.	.	.	.	.	.	.
8F#\	.	16d\	.	16d/	.	.	.	.	.	.	.	.	.	8D/	.	8d\	.	.	.	.	.
.	.	16f#\	.	16a/	.	.	.	.	.	.	.	.	.	.	.	.	.	.	.	.	.
8F#\J	.	16d\	.	16d/	.	16a\LL	.	.	.	8d\	-mi-	16a\LL	in	8D/J	.	8d\J	.	.	.	.	.
.	.	16f#\JJ	.	16a/JJ	.	16cc\JJ	.	.	.	.	.	16cc\JJ	.	.	.	.	.	.	.	.	.
*Xtremolo	*	*Xtremolo	*	*Xtremolo	*	*	*	*	*	*	*	*	*	*	*	*	*	*	*	*	*
=79	=79	=79	=79	=79	=79	=79	=79	=79	=79	=79	=79	=79	=79	=79	=79	=79	=79	=79	=79	=79	=79
8G\	.	8g\	.	8d/	.	16b\LL	.	2ryy	2ryy	8d\	-ne	16b\LL	no-	8D/	.	8d\	.	2r	2r	.	2ryy
.	.	.	.	.	.	16gg\	.	.	.	.	.	16gg\	.	.	.	.	.	.	.	.	.
8r	.	8r	.	8r	.	16ff#\	.	.	.	8r	.	16ff#\	.	8r	.	8r	.	.	.	.	.
.	.	.	.	.	.	16ee\JJ	.	.	.	.	.	16ee\JJ	.	.	.	.	.	.	.	.	.
8G\	.	8g\	.	8b\	.	16dd#X\LL	.	.	.	4r	.	16dd#X\LL	-mi-	4r	.	4r	.	.	.	.	.
.	.	.	.	.	.	16ee\	.	.	.	.	.	16ee\	.	.	.	.	.	.	.	.	.
8r	.	8r	.	8r	.	16bb\	.	.	.	.	.	16bb\	-ne	.	.	.	.	.	.	.	.
.	.	.	.	.	.	16gg\JJ	.	.	.	.	.	16gg\JJ	.	.	.	.	.	.	.	.	.
!	!	!	!	!	!	!LO:LB:g=original	!	!	!	!	!	!	!	!	!	!	!	!	!	!	!
=80	=80	=80	=80	=80	=80	=80	=80	=80	=80	=80	=80	=80	=80	=80	=80	=80	=80	=80	=80	=80	=80
!	!	!	!	!LO:MO:mod=*null:null	!	!	!	!	!	!	!	!	!	!	!	!	!	!	!	!	!
*	*	*	*	*2\right	*	*	*	*	*	*	*	*	*	*	*	*	*	*	*	*	*
*	*	*	*	*tremolo	*	*	*	*	*	*	*	*	*	*	*	*	*	*	*	*	*
8r	.	8r	.	8b\L	.	16ff#\LL	.	2ryy	2ryy	8r	.	16ff#\LL	Do-	8r	.	8r	.	2r	2r	.	2ryy
.	.	.	.	.	.	16ee\JJ	.	.	.	.	.	16ee\JJ	.	.	.	.	.	.	.	.	.
8G\L	.	8g\L	.	8b\	.	4ee\	.	.	.	4b\	Do-	4ee\	.	8e\L	.	8e\L	.	.	.	.	.
8G\	.	8g\	.	8b\	.	.	.	.	.	.	.	.	.	8e\	.	8e\	.	.	.	.	.
8G#X\J	.	8e\J	.	8b\J	.	8ddn\	.	.	.	8b\	-mi-	8dd\	-mi-	8e\J	.	8e\J	.	.	.	.	.
*	*	*	*	*Xtremolo	*	*	*	*	*	*	*	*	*	*	*	*	*	*	*	*	*
!	!	!LO:LB:g=original	!	!	!	!	!	!	!	!	!	!LO:LB:g=original	!	!	!	!	!	!	!	!	!
=81	=81	=81	=81	=81	=81	=81	=81	=81	=81	=81	=81	=81	=81	=81	=81	=81	=81	=81	=81	=81	=81
8A\	.	8e\	.	8e/	.	16cc#\LL	.	2ryy	2ryy	8e\	-ni	8cc#\	-ni	8A/	.	8e\	.	2r	2r	.	2ryy
.	.	.	.	.	.	16ee\	.	.	.	.	.	.	.	.	.	.	.	.	.	.	.
8r	.	8r	.	8r	.	16a\	.	.	.	8r	.	8r	.	8r	.	8r	.	.	.	.	.
.	.	.	.	.	.	16a\JJ	.	.	.	.	.	.	.	.	.	.	.	.	.	.	.
!	!	!LO:SIC:v:s=8G#/	!	!	!	!	!	!	!	!	!	!	!	!	!	!	!	!	!	!	!
8E\	.	8G/	.	8d/	.	16g#X/LL	.	.	.	4r	.	4r	.	8e\	.	8e\	.	.	.	.	.
.	.	.	.	.	.	16a/JJ	.	.	.	.	.	.	.	.	.	.	.	.	.	.	.
8r	.	8r	.	8r	.	16b/LL	.	.	.	.	.	.	.	8r	.	8r	.	.	.	.	.
.	.	.	.	.	.	32a/L	.	.	.	.	.	.	.	.	.	.	.	.	.	.	.
.	.	.	.	.	.	32g#/JJJ	.	.	.	.	.	.	.	.	.	.	.	.	.	.	.
=82	=82	=82	=82	=82	=82	=82	=82	=82	=82	=82	=82	=82	=82	=82	=82	=82	=82	=82	=82	=82	=82
!LO:SIC:s=8A	!	!	!	!	!	!	!	!	!	!	!	!	!	!	!	!	!	!	!	!	!
8G\	.	8e\	.	8c#/	.	32a\LLL	.	2ryy	2ryy	2r	.	2r	.	8A/	.	8e\	.	2r	2r	.	2ryy
.	.	.	.	.	.	32cc#\	.	.	.	.	.	.	.	.	.	.	.	.	.	.	.
.	.	.	.	.	.	32ee\	.	.	.	.	.	.	.	.	.	.	.	.	.	.	.
.	.	.	.	.	.	32cc#\JJ	.	.	.	.	.	.	.	.	.	.	.	.	.	.	.
8r	.	8r	.	8r	.	8a\J	.	.	.	.	.	.	.	8r	.	8r	.	.	.	.	.
8E\	.	8B/	.	8d/	.	16g#X\LL	.	.	.	.	.	.	.	8e\	.	8e\	.	.	.	.	.
.	.	.	.	.	.	16dd\	.	.	.	.	.	.	.	.	.	.	.	.	.	.	.
8r	.	8r	.	8r	.	16b\	.	.	.	.	.	.	.	8r	.	8r	.	.	.	.	.
.	.	.	.	.	.	16g#\JJ	.	.	.	.	.	.	.	.	.	.	.	.	.	.	.
!	!	!	!	!	!	!	!	!	!	!LO:LB:g=original	!	!	!	!	!	!	!	!	!	!	!
=83	=83	=83	=83	=83	=83	=83	=83	=83	=83	=83	=83	=83	=83	=83	=83	=83	=83	=83	=83	=83	=83
*	*	*	*	*	*	*tremolo	*	*	*	*	*	*	*	*	*	*	*	*	*	*	*
8A\	.	8A/	.	8c#/	.	8a/L	.	2ryy	2ryy	4r	.	4r	.	8A/	.	8e\	.	2r	2r	.	2ryy
8r	.	8r	.	8r	.	8a/	.	.	.	.	.	.	.	8r	.	8r	.	.	.	.	.
!	!	!	!	!LO:LB:g=original	!	!	!	!	!	!	!	!	!	!	!	!	!	!	!	!	!
4r	.	4r	.	4r	.	8a/	.	.	.	8c#\	Be-	8a\	Be-	4r	.	4r	.	.	.	.	.
.	.	.	.	.	.	8a/J	.	.	.	8c#\	-ne-	8a\	-ne-	.	.	.	.	.	.	.	.
*	*	*	*	*	*	*Xtremolo	*	*	*	*	*	*	*	*	*	*	*	*	*	*	*
=84	=84	=84	=84	=84	=84	=84	=84	=84	=84	=84	=84	=84	=84	=84	=84	=84	=84	=84	=84	=84	=84
*	*	*tremolo	*	*tremolo	*	*	*	*	*	*	*	*	*	*	*	*	*	*	*	*	*
!	!	!	!	!	!	!	!	!	!	!	!	!	!	!LO:TX:a:t=1.:mod=	!	!LO:TX:a:t=1:mod=	!	!	!	!	!
8E\	.	16B\LL	.	16d/LL	.	2g#X/	.	2ryy	2ryy	4d\	-di-	4g#X\	-di-	2r	.	2r	.	2r	2r	.	2ryy
.	.	16d\	.	16e/	.	.	.	.	.	.	.	.	.	.	.	.	.	.	.	.	.
8r	.	16B\	.	16d/	.	.	.	.	.	.	.	.	.	.	.	.	.	.	.	.	.
.	.	16d\	.	16e/	.	.	.	.	.	.	.	.	.	.	.	.	.	.	.	.	.
4r	.	16B\	.	16d/	.	.	.	.	.	8d\	-ctus	8g#\	-ctus	.	.	.	.	.	.	.	.
.	.	16d\	.	16e/	.	.	.	.	.	.	.	.	.	.	.	.	.	.	.	.	.
.	.	16B\	.	16d/	.	.	.	.	.	8d\	qui	8g#\	qui	.	.	.	.	.	.	.	.
.	.	16d\JJ	.	16e/JJ	.	.	.	.	.	.	.	.	.	.	.	.	.	.	.	.	.
!	!	!	!	!	!	!LO:LB:g=original	!	!	!	!	!	!	!	!	!	!	!	!	!	!	!
=85	=85	=85	=85	=85	=85	=85	=85	=85	=85	=85	=85	=85	=85	=85	=85	=85	=85	=85	=85	=85	=85
8AA/	.	16c#/LL	.	16A/LL	.	2gn/	.	2ryy	2ryy	2e\	ve-	2gn\	ve-	2A/	.	2e\	.	2r	2r	.	2ryy
.	.	16A/	.	16e/	.	.	.	.	.	.	.	.	.	.	.	.	.	.	.	.	.
8r	.	16c#/	.	16A/	.	.	.	.	.	.	.	.	.	.	.	.	.	.	.	.	.
.	.	16A/	.	16e/	.	.	.	.	.	.	.	.	.	.	.	.	.	.	.	.	.
4r	.	16c#/	.	16A/	.	.	.	.	.	.	.	.	.	.	.	.	.	.	.	.	.
.	.	16A/	.	16e/	.	.	.	.	.	.	.	.	.	.	.	.	.	.	.	.	.
.	.	16c#/	.	16A/	.	.	.	.	.	.	.	.	.	.	.	.	.	.	.	.	.
.	.	16A/JJ	.	16e/JJ	.	.	.	.	.	.	.	.	.	.	.	.	.	.	.	.	.
*	*	*	*	*Xtremolo	*	*	*	*	*	*	*	*	*	*	*	*	*	*	*	*	*
!LO:LB:g=original	!	!	!	!	!	!	!	!	!	!	!	!	!	!	!	!	!	!	!	!	!
=86	=86	=86	=86	=86	=86	=86	=86	=86	=86	=86	=86	=86	=86	=86	=86	=86	=86	=86	=86	=86	=86
!LO:TX:t=P:problem=mixed beam	!	!	!	!	!	!	!	!	!	!	!	!	!	!	!	!	!	!	!	!	!
8D\L	.	8A/L	.	8d/	.	16f#/LL	.	2ryy	2ryy	8d\	-nit	8f#/	-nit	8d\	.	8f#\	.	2r	2r	.	2ryy
.	.	.	.	.	.	16d/	.	.	.	.	.	.	.	.	.	.	.	.	.	.	.
8DD/J	.	8A/	.	8r	.	16f#/	.	.	.	8r	.	8r	.	8r	.	8r	.	.	.	.	.
.	.	.	.	.	.	16a/JJ	.	.	.	.	.	.	.	.	.	.	.	.	.	.	.
8r	.	8A/	.	8r	.	16dd\LL	.	.	.	8f#\	Be-	8a\	Be-	4r	.	4r	.	.	.	.	.
.	.	.	.	.	.	16ff#\	.	.	.	.	.	.	.	.	.	.	.	.	.	.	.
8D\	.	8A/J	.	8f#/	.	16aa\	.	.	.	8f#\	-ne-	8a\	-ne-	.	.	.	.	.	.	.	.
.	.	.	.	.	.	16aa\JJ	.	.	.	.	.	.	.	.	.	.	.	.	.	.	.
!	!	!	!	!	!	!	!	!	!	!	!	!	!	!LO:LB:g=original	!	!	!	!	!	!	!
=87	=87	=87	=87	=87	=87	=87	=87	=87	=87	=87	=87	=87	=87	=87	=87	=87	=87	=87	=87	=87	=87
!LO:TX:t=P:problem=mixed beam	!	!	!	!	!	!	!	!	!	!	!LO:MO:mod=-di-	!	!	!	!	!	!	!	!	!	!
8AA/L	.	8A/L	.	32e/LLL	.	32gg\LLL	.	2ryy	2ryy	32e\LLL	-dic-	4a\	-di-	8r	.	8r	.	2r	2r	.	2ryy
.	.	.	.	32f#/	.	32aa\	.	.	.	32f#\	.	.	.	.	.	.	.	.	.	.	.
.	.	.	.	32e/	.	32gg\	.	.	.	32e\	.	.	.	.	.	.	.	.	.	.	.
.	.	.	.	32d/JJ	.	32ff#\JJ	.	.	.	32d\JJJ	.	.	.	.	.	.	.	.	.	.	.
!	!	!	!	!	!	!	!	!	!	!	!LO:MO:mod=-ctus	!	!	!	!	!	!	!	!	!	!
8A\	.	8A/	.	8c#/J	.	8ee\J	.	.	.	8c#\	-tus	.	.	8A/L	.	8e\L	.	.	.	.	.
8AA/	.	8A/	.	16r	.	16r	.	.	.	8r	.	8a\	-ctus	8A/	.	8e\	.	.	.	.	.
.	.	.	.	16c#/LL	.	16ee\LL	.	.	.	.	.	.	.	.	.	.	.	.	.	.	.
8C#/J	.	8A/J	.	16c#/	.	16ee\	.	.	.	8e\	qui	8a\	qui	8A/J	.	8e\J	.	.	.	.	.
.	.	.	.	16e/JJ	.	16gg\JJ	.	.	.	.	.	.	.	.	.	.	.	.	.	.	.
!	!	!	!	!	!	!	!	!	!	!	!	!	!	!	!	!LO:LB:g=original	!	!	!	!	!
=88	=88	=88	=88	=88	=88	=88	=88	=88	=88	=88	=88	=88	=88	=88	=88	=88	=88	=88	=88	=88	=88
!	!	!	!	!	!	!LO:TX:t=P:problem=mixed beam	!	!	!	!	!	!	!	!	!	!	!	!	!	!	!
8D/L	.	8A/L	.	8d/	.	16ff#\LL	.	2ryy	2ryy	4f#\	ve-	4a\	ve-	8d\	.	8f#\	.	2r	2r	.	2ryy
.	.	.	.	.	.	16d/	.	.	.	.	.	.	.	.	.	.	.	.	.	.	.
8DD/J	.	8A/	.	8r	.	16f#/	.	.	.	.	.	.	.	8r	.	8r	.	.	.	.	.
.	.	.	.	.	.	16a/JJ	.	.	.	.	.	.	.	.	.	.	.	.	.	.	.
8r	.	8A/	.	8r	.	16dd\LL	.	.	.	8d\	-nit	8a\	-nit	4r	.	4r	.	.	.	.	.
.	.	.	.	.	.	16ff#\	.	.	.	.	.	.	.	.	.	.	.	.	.	.	.
8D\	.	8A/J	.	8f#/	.	16ff#\	.	.	.	8f#\	qui	8a\	qui	.	.	.	.	.	.	.	.
.	.	.	.	.	.	16aa\JJ	.	.	.	.	.	.	.	.	.	.	.	.	.	.	.
!	!	!	!	!	!	!	!	!	!	!	!	!LO:LB:g=original	!	!	!	!	!	!	!	!	!
=89	=89	=89	=89	=89	=89	=89	=89	=89	=89	=89	=89	=89	=89	=89	=89	=89	=89	=89	=89	=89	=89
!LO:TX:t=P:problem=mixed beam	!	!	!	!	!	!	!	!	!	!	!	!	!	!	!	!	!	!	!	!	!
8AA/L	.	8A/L	.	32e/LLL	.	32gg\LLL	.	2ryy	2ryy	32e\LLL	ve-	2a\	ve-	8r	.	8r	.	2r	2r	.	2ryy
.	.	.	.	32f#/	.	32aa\	.	.	.	32f#\	.	.	.	.	.	.	.	.	.	.	.
.	.	.	.	32e/	.	32gg\	.	.	.	32e\	.	.	.	.	.	.	.	.	.	.	.
.	.	.	.	32d/JJ	.	32ff#\JJ	.	.	.	32d\JJJ	.	.	.	.	.	.	.	.	.	.	.
8A\	.	8A/	.	8c#/J	.	8ee\J	.	.	.	8c#\	-nit	.	.	8A/L	.	8e\L	.	.	.	.	.
!	!	!	!	!	!	!LO:LB:g=original	!	!	!	!LO:LB:g=original	!	!	!	!	!	!	!	!	!	!	!
8AA/	.	8A/	.	16r	.	16r	.	.	.	8r	.	.	.	8A/	.	8e\	.	.	.	.	.
.	.	.	.	16c#/LL	.	16ee\LL	.	.	.	.	.	.	.	.	.	.	.	.	.	.	.
8C#/J	.	8A/J	.	16c#/	.	16ee\	.	.	.	8e\	qui	.	.	8A/J	.	8e\J	.	.	.	.	.
.	.	.	.	16e/JJ	.	16gg\JJ	.	.	.	.	.	.	.	.	.	.	.	.	.	.	.
*	*	*Xtremolo	*	*	*	*	*	*	*	*	*	*	*	*	*	*	*	*	*	*	*
!	!	!	!	!LO:LB:g=original	!	!	!	!	!	!	!	!	!	!	!	!	!	!	!	!	!
=90	=90	=90	=90	=90	=90	=90	=90	=90	=90	=90	=90	=90	=90	=90	=90	=90	=90	=90	=90	=90	=90
!	!	!	!	!	!	!	!	!	!	!	!	!	!	!LO:TX:t=P:problem=w tt. 90 i 91 liczne korekty	!	!	!	!	!	!	!
8D\	.	8d\	.	8d/L	.	16ff#\LL	.	2ryy	2ryy	8f#\L	ve-	8a\	-nit	8d\	.	8f#\	.	2r	2r	.	2ryy
.	.	.	.	.	.	16dd\	.	.	.	.	.	.	.	.	.	.	.	.	.	.	.
!	!	!	!	!	!	!	!	!	!	!	!	!	!LO:MO:mod=qui	!	!	!	!	!	!	!	!
8r	.	8r	.	8g/	.	16bb\	.	.	.	8b\	.	8dd\	qvi	8A/	.	8r	.	.	.	.	.
.	.	.	.	.	.	16dd\JJ	.	.	.	.	.	.	.	.	.	.	.	.	.	.	.
!	!	!LO:LB:g=original	!	!	!	!	!	!	!	!	!	!	!	!	!	!	!	!	!	!	!
8r	.	8r	.	8f#/	.	16aa\LL	.	.	.	8a\	.	8dd\L	ve-	8d\	.	8e\	.	.	.	.	.
.	.	.	.	.	.	16dd\	.	.	.	.	.	.	.	.	.	.	.	.	.	.	.
8AA/	.	8A/	.	8e/J	.	16cc#\	.	.	.	8g\J	.	8cc#\J	.	8A/	.	8r	.	.	.	.	.
.	.	.	.	.	.	16gg\JJ	.	.	.	.	.	.	.	.	.	.	.	.	.	.	.
=91	=91	=91	=91	=91	=91	=91	=91	=91	=91	=91	=91	=91	=91	=91	=91	=91	=91	=91	=91	=91	=91
!	!	!	!	!	!	!LO:TX:t=P:problem=takt zapisany powtóką	!	!	!	!	!	!	!	!	!	!	!	!	!	!	!
8D\	.	8A/	.	8d/L	.	16ff#\LLyy	.	2ryy	2ryy	8f#\L	.	8dd\	-nit	8d\	.	8f#\	.	2r	2r	.	2ryy
.	.	.	.	.	.	16dd\yy	.	.	.	.	.	.	.	.	.	.	.	.	.	.	.
8r	.	8r	.	8g/	.	16bb\yy	.	.	.	8b\	.	8dd\	qui	8A\	.	8r	.	.	.	.	.
.	.	.	.	.	.	16dd\JJyy	.	.	.	.	.	.	.	.	.	.	.	.	.	.	.
8r	.	4r	.	8f#/	.	16aa\LLyy	.	.	.	8a\	.	8dd\L	ve-	8d/	.	8e\	.	.	.	.	.
.	.	.	.	.	.	16dd\yy	.	.	.	.	.	.	.	.	.	.	.	.	.	.	.
8AA/	.	.	.	8e/J	.	16cc#\yy	.	.	.	8g\J	.	8cc#\J	.	8A/	.	8r	.	.	.	.	.
.	.	.	.	.	.	16gg\JJyy	.	.	.	.	.	.	.	.	.	.	.	.	.	.	.
=92	=92	=92	=92	=92	=92	=92	=92	=92	=92	=92	=92	=92	=92	=92	=92	=92	=92	=92	=92	=92	=92
8D\L	.	8d\L	.	8d/L	.	16ff#\LL	.	2ryy	2ryy	8f#\L	.	8dd\L	.	8d\L	.	8f#\L	.	2r	2r	.	2ryy
.	.	.	.	.	.	16dd\	.	.	.	.	.	.	.	.	.	.	.	.	.	.	.
8C#\	.	16c#\L	.	8A/	.	16ee\	.	.	.	8e\	.	8cc#\	.	8A\	.	8e\	.	.	.	.	.
.	.	16e\JJ	.	.	.	16gg\JJ	.	.	.	.	.	.	.	.	.	.	.	.	.	.	.
8D\	.	8d\L	.	8A/	.	16ff#\LL	.	.	.	8f#\	.	8dd\	.	8d\	.	8f#\	.	.	.	.	.
.	.	.	.	.	.	16dd\	.	.	.	.	.	.	.	.	.	.	.	.	.	.	.
8C#\J	.	16c#\L	.	8A/J	.	16ee\	.	.	.	8e\J	.	8cc#\J	.	8A\J	.	8e\J	.	.	.	.	.
.	.	16e\JJ	.	.	.	16gg\JJ	.	.	.	.	.	.	.	.	.	.	.	.	.	.	.
=93	=93	=93	=93	=93	=93	=93	=93	=93	=93	=93	=93	=93	=93	=93	=93	=93	=93	=93	=93	=93	=93
.	.	.	.	.	.	8qgg/	.	.	.	.	.	.	.	.	.	.	.	.	.	.	.
!LO:TX:t=P:problem=mixed beam	!	!	!	!	!	!	!	!	!	!	!	!	!	!	!	!LO:TX:t=P:problem=mixed beam	!	!	!	!	!
8AA/L	.	8d\L	.	8A/L	.	16ff#\LL	.	2ryy	2ryy	8f#\	.	8dd\	.	8d\L	.	8f#\L	.	2r	2r	.	2ryy
.	.	.	.	.	.	32ee\L	.	.	.	.	.	.	.	.	.	.	.	.	.	.	.
.	.	.	.	.	.	32ff#\JJ	.	.	.	.	.	.	.	.	.	.	.	.	.	.	.
8A\	.	8c#\	.	8c#/J	.	8ee\J	.	.	.	8e\	-nit	8cc#\	-nit	8A\	.	8e\	.	.	.	.	.
!	!	!	!	!	!	!	!	!	!	!	!	!	!	!	!	!LO:SIC:v:s=8A/J	!	!	!	!	!
8AA/J	.	8A\J	.	4r	.	8r	.	.	.	8r	.	4r	.	8A\J	.	8B/J	.	.	.	.	.
8r	.	8r	.	.	.	16aa\LL	.	.	.	16a\LL	qui	.	.	8r	.	8r	.	.	.	.	.
.	.	.	.	.	.	16gg\JJ	.	.	.	16g\JJ	.	.	.	.	.	.	.	.	.	.	.
=94	=94	=94	=94	=94	=94	=94	=94	=94	=94	=94	=94	=94	=94	=94	=94	=94	=94	=94	=94	=94	=94
!	!	!LO:TX:t=P:problem=mixed beam	!	!	!	!	!	!	!	!	!	!	!	!LO:TX:a:t=4.:mod=	!	!LO:TX:a:t=4:mod=	!	!	!	!	!
8D\L	.	8d\L	.	8r	.	8.ff#\L	.	2ryy	2ryy	8.f#\L	ve-	4r	.	0r	.	0r	.	2r	2r	.	2ryy
8D\	.	8d\	.	16a/LL	.	.	.	.	.	.	.	.	.	.	.	.	.	.	.	.	.
.	.	.	.	16g/JJ	.	16ee\Jk	.	.	.	16e\Jk	.	.	.	.	.	.	.	.	.	.	.
!	!	!	!	!LO:TX:t=P:problem=mixed beam	!	!	!	!	!	!	!	!	!	!	!	!	!	!	!	!	!
8F#\	.	8F#/	.	16f#/LL	.	16dd\LL	.	.	.	8d\	-nit	8r	.	.	.	.	.	.	.	.	.
.	.	.	.	16e/	.	16ff#\	.	.	.	.	.	.	.	.	.	.	.	.	.	.	.
!	!	!	!	!	!	!	!	!	!	!	!	!	!LO:MO:mod=qui	!	!	!	!	!	!	!	!
8F#\J	.	8F#/J	.	16d/	.	16aa\	.	.	.	8a\	in	8dd\	qvi	.	.	.	.	.	.	.	.
.	.	.	.	16dd\JJ	.	16aa\JJ	.	.	.	.	.	.	.	.	.	.	.	.	.	.	.
!	!	!	!	!	!	!LO:LB:g=original	!	!	!	!	!	!LO:LB:g=original	!	!	!	!	!	!	!	!	!
=95	=95	=95	=95	=95	=95	=95	=95	=95	=95	=95	=95	=95	=95	=95	=95	=95	=95	=95	=95	=95	=95
!	!	!LO:TX:t=P:problem=mixed beam	!	!	!	!	!	!	!	!	!	!	!	!	!	!	!	!	!	!	!
8G\L	.	8G/L	.	4b\	.	16aa\LL	.	2ryy	2ryy	16a\LL	no-	4b\	ve-	.	.	.	.	2r	2r	.	2ryy
.	.	.	.	.	.	16bb\	.	.	.	16b\	.	.	.	.	.	.	.	.	.	.	.
8G\	.	8g\	.	.	.	16gg\	.	.	.	16g\	.	.	.	.	.	.	.	.	.	.	.
.	.	.	.	.	.	16ff#\JJ	.	.	.	16f#\JJ	.	.	.	.	.	.	.	.	.	.	.
8E\	.	8e\	.	16b\LL	.	[4gg\	.	.	.	4g\	.	16b\LL	.	.	.	.	.	.	.	.	.
.	.	.	.	16cc#\	.	.	.	.	.	.	.	16cc#\	.	.	.	.	.	.	.	.	.
8E\J	.	8e\J	.	16a\	.	.	.	.	.	.	.	16a\	.	.	.	.	.	.	.	.	.
.	.	.	.	16g\JJ	.	.	.	.	.	.	.	16g\JJ	.	.	.	.	.	.	.	.	.
=96	=96	=96	=96	=96	=96	=96	=96	=96	=96	=96	=96	=96	=96	=96	=96	=96	=96	=96	=96	=96	=96
8F#\L	.	8f#\L	.	4a\	.	16gg\LL]	.	2ryy	2ryy	16g\LL	.	4a\	.	.	.	.	.	2r	2r	.	2ryy
.	.	.	.	.	.	16aa\	.	.	.	16a\	.	.	.	.	.	.	.	.	.	.	.
8F#\	.	8f#\	.	.	.	16ff#\	.	.	.	16f#\	.	.	.	.	.	.	.	.	.	.	.
.	.	.	.	.	.	16ee\JJ	.	.	.	16e\JJ	.	.	.	.	.	.	.	.	.	.	.
8D\	.	8d\	.	16a\LL	.	[4ff#\	.	.	.	4f#\	.	16a\LL	.	.	.	.	.	.	.	.	.
.	.	.	.	16b\	.	.	.	.	.	.	.	16b\	.	.	.	.	.	.	.	.	.
8D\J	.	8d\J	.	16g\	.	.	.	.	.	.	.	16g\	.	.	.	.	.	.	.	.	.
.	.	.	.	16f#\JJ	.	.	.	.	.	.	.	16f#\JJ	.	.	.	.	.	.	.	.	.
!LO:LB:g=original	!	!	!	!LO:LB:g=original	!	!	!	!	!	!	!	!	!	!	!	!	!	!	!	!	!
=97	=97	=97	=97	=97	=97	=97	=97	=97	=97	=97	=97	=97	=97	=97	=97	=97	=97	=97	=97	=97	=97
8E\L	.	8d\L	.	4g/	.	16ff#\LL]	.	2ryy	2ryy	16f#\LL	.	4g\	.	.	.	.	.	2r	2r	.	2ryy
.	.	.	.	.	.	16gg\	.	.	.	16g\	.	.	.	.	.	.	.	.	.	.	.
8E\	.	16c#\L	.	.	.	16ee\	.	.	.	16e\	.	.	.	.	.	.	.	.	.	.	.
.	.	16B\JJ	.	.	.	16dd\JJ	.	.	.	16d\JJ	.	.	.	.	.	.	.	.	.	.	.
!	!	!LO:LB:g=original	!	!	!	!	!	!	!	!	!	!	!	!	!	!	!	!	!	!	!
8C#\	.	8c#\L	.	16g/LL	.	[4ee\	.	.	.	4e\	.	16g\LL	.	.	.	.	.	.	.	.	.
.	.	.	.	16a/	.	.	.	.	.	.	.	16a\	.	.	.	.	.	.	.	.	.
8C#\J	.	8c#\J	.	16f#/	.	.	.	.	.	.	.	16f#\	.	.	.	.	.	.	.	.	.
.	.	.	.	16e/JJ	.	.	.	.	.	.	.	16e\JJ	.	.	.	.	.	.	.	.	.
=97	=97	=97	=97	=97	=97	=97	=97	=97	=97	=97	=97	=97	=97	=97	=97	=97	=97	=97	=97	=97	=97
8D\L	.	4d\	.	4f#/	.	16ee\LL]	.	2ryy	2ryy	16e\LL	.	4f#/	-nit	8r	.	8r	.	2r	2r	.	2ryy
.	.	.	.	.	.	16ff#\	.	.	.	16f#\	.	.	.	.	.	.	.	.	.	.	.
!	!	!	!	!	!	!	!	!	!	!LO:TX:t=P:problem=zapis poprawiany	!	!	!	!	!	!	!	!	!	!	!
8D\J	.	.	.	.	.	16dd\	.	.	.	16d\	-mi-	.	.	8D/L	.	8d\L	.	.	.	.	.
!	!	!	!	!	!	!	!	!	!	!LO:TX:t=P:problem=zapis poprawiany	!	!	!	!	!	!	!	!	!	!	!
.	.	.	.	.	.	16cc#\JJ	.	.	.	16c#\JJ	.	.	.	.	.	.	.	.	.	.	.
8B\L	.	16d\LL	.	16f#/LL	.	[4dd\	.	.	.	8d\	-ne	4dd\	in	8D/	.	8d\	.	.	.	.	.
.	.	16c#\	.	16d/	.	.	.	.	.	.	.	.	.	.	.	.	.	.	.	.	.
16A\L	.	16B\	.	16c#/	.	.	.	.	.	8r	.	.	.	8D/J	.	8d\J	.	.	.	.	.
16G\JJ	.	16A\JJ	.	16B/JJ	.	.	.	.	.	.	.	.	.	.	.	.	.	.	.	.	.
=99	=99	=99	=99	=99	=99	=99	=99	=99	=99	=99	=99	=99	=99	=99	=99	=99	=99	=99	=99	=99	=99
!	!	!LO:TX:t=P:problem=mixed beam	!	!LO:TX:t=P:problem=mixed beam	!	!	!	!	!	!	!	!	!	!	!	!	!	!	!	!	!
8F#\L	.	8F#/L	.	16A/LL	.	16dd\LL]	.	2ryy	2ryy	4a\	in	4dd\	no-	4D/	.	8d\	.	2r	2r	.	2ryy
.	.	.	.	16dd\	.	16ff#\	.	.	.	.	.	.	.	.	.	.	.	.	.	.	.
8D\	.	8f#\	.	16dd\	.	16aa\	.	.	.	.	.	.	.	.	.	8r	.	.	.	.	.
.	.	.	.	16dd\JJ	.	16ddd\JJ	.	.	.	.	.	.	.	.	.	.	.	.	.	.	.
8G\	.	8g\	.	8dd\L	.	16ccc#\LL	.	.	.	8b\	no-	8dd\	-mi-	4r	.	4r	.	.	.	.	.
.	.	.	.	.	.	16bb\	.	.	.	.	.	.	.	.	.	.	.	.	.	.	.
8G\J	.	8F#/J	.	8dd\J	.	16aa\	.	.	.	16g\	-mi-	8dd\	-ne	.	.	.	.	.	.	.	.
.	.	.	.	.	.	16gg\JJ	.	.	.	16g\	-ne	.	.	.	.	.	.	.	.	.	.
!	!	!	!	!	!	!LO:LB:g=original	!	!	!	!	!	!	!	!	!	!	!	!	!	!	!
=100	=100	=100	=100	=100	=100	=100	=100	=100	=100	=100	=100	=100	=100	=100	=100	=100	=100	=100	=100	=100	=100
*	*	*tremolo	*	*	*	*tremolo	*	*	*	*	*	*	*	*	*	*	*	*	*	*	*
!LO:TX:t=P:problem=mixed beam	!	!	!	!	!	!	!	!	!	!	!	!	!	!	!	!	!	!	!	!	!
8A\L	.	8A/L	.	16dd\LL	.	16ff#\LL	.	2ryy	2ryy	8f#\	Do-	4dd\	Do-	4d\	.	4f#\	.	2r	2r	.	2ryy
.	.	.	.	16dd\	.	16ff#\	.	.	.	.	.	.	.	.	.	.	.	.	.	.	.
8A\	.	8A/	.	16dd\	.	16ff#\	.	.	.	4e\	.	.	.	.	.	.	.	.	.	.	.
.	.	.	.	16dd\JJ	.	16ff#\JJ	.	.	.	.	.	.	.	.	.	.	.	.	.	.	.
8AA/	.	8A/	.	16cc#\LL	.	16ee\LL	.	.	.	.	.	8.cc#\	.	4A/	.	4e\	.	.	.	.	.
.	.	.	.	16cc#\	.	16ee\	.	.	.	.	.	.	.	.	.	.	.	.	.	.	.
8AA/J	.	8A/J	.	16cc#\	.	16ee\	.	.	.	8e\	-mi-	.	.	.	.	.	.	.	.	.	.
.	.	.	.	16cc#\JJ	.	16ee\JJ	.	.	.	.	.	16cc#\	-mi-	.	.	.	.	.	.	.	.
*	*	*Xtremolo	*	*	*	*Xtremolo	*	*	*	*	*	*	*	*	*	*	*	*	*	*	*
!	!	!	!	!	!	!	!	!	!	!	!	!LO:LB:g=original	!	!	!	!	!	!	!	!	!
=101	=101	=101	=101	=101	=101	=101	=101	=101	=101	=101	=101	=101	=101	=101	=101	=101	=101	=101	=101	=101	=101
*	*	*	*	*tremolo	*	*	*	*	*	*	*	*	*	*	*	*	*	*	*	*	*
!	!	!LO:TX:t=P:problem=mixed beam	!	!	!	!	!	!	!	!	!	!	!	!	!	!	!	!	!	!	!
8D\L	.	8d\L	.	16dd\LL	.	16ff#\KL	.	2ryy	2ryy	8f#\	-ni	8dd\	-ni	8F#/	.	8d\	.	2r	2r	.	2ryy
.	.	.	.	16dd\	.	8gg\	.	.	.	.	.	.	.	.	.	.	.	.	.	.	.
8B\	.	8A/	.	16dd\	.	.	.	.	.	8g\	in	8dd\	in	8r	.	8r	.	.	.	.	.
.	.	.	.	16dd\	.	8aa\	.	.	.	.	.	.	.	.	.	.	.	.	.	.	.
8F#\	.	8F#/	.	16dd\	.	.	.	.	.	8a\	no-	8dd\	no-	4r	.	4r	.	.	.	.	.
.	.	.	.	16dd\	.	8bb\	.	.	.	.	.	.	.	.	.	.	.	.	.	.	.
8G\J	.	8G/J	.	16dd\	.	.	.	.	.	16b\	-mi-	16dd\	-mi-	.	.	.	.	.	.	.	.
.	.	.	.	16dd\JJ	.	16ddd\Jk	.	.	.	16b\	-ne	16dd\	-ne	.	.	.	.	.	.	.	.
!	!	!	!	!	!	!	!	!	!	!LO:LB:g=original	!	!	!	!	!	!	!	!	!	!	!
=102	=102	=102	=102	=102	=102	=102	=102	=102	=102	=102	=102	=102	=102	=102	=102	=102	=102	=102	=102	=102	=102
*tremolo	*	*tremolo	*	*	*	*	*	*	*	*	*	*	*	*	*	*	*	*	*	*	*
8A\L	.	8d\L	.	16d/LL	.	2a/	.	2ryy	2ryy	2f#\	Do-	2dd\	Do-	2d\	.	2f#\	.	2r	2r	.	2ryy
.	.	.	.	16f#/	.	.	.	.	.	.	.	.	.	.	.	.	.	.	.	.	.
8A\	.	8d\	.	16d/	.	.	.	.	.	.	.	.	.	.	.	.	.	.	.	.	.
.	.	.	.	16f#/	.	.	.	.	.	.	.	.	.	.	.	.	.	.	.	.	.
8A\	.	8d\	.	16d/	.	.	.	.	.	.	.	.	.	.	.	.	.	.	.	.	.
.	.	.	.	16f#/	.	.	.	.	.	.	.	.	.	.	.	.	.	.	.	.	.
8A\J	.	8d\J	.	16d/	.	.	.	.	.	.	.	.	.	.	.	.	.	.	.	.	.
.	.	.	.	16f#/JJ	.	.	.	.	.	.	.	.	.	.	.	.	.	.	.	.	.
*	*	*	*	*Xtremolo	*	*	*	*	*	*	*	*	*	*	*	*	*	*	*	*	*
!	!	!	!	!	!	!	!	!	!	!	!	!	!	!	!	!LO:LB:g=original	!	!	!	!	!
=103	=103	=103	=103	=103	=103	=103	=103	=103	=103	=103	=103	=103	=103	=103	=103	=103	=103	=103	=103	=103	=103
8AA/L	.	8A/L	.	16dd\LL	.	2eeT\	.	2ryy	2ryy	4.e\	.	4dd\	.	2A/	.	2e\	.	2r	2r	.	2ryy
.	.	.	.	16dd\	.	.	.	.	.	.	.	.	.	.	.	.	.	.	.	.	.
8AA/	.	8A/	.	16dd\	.	.	.	.	.	.	.	.	.	.	.	.	.	.	.	.	.
.	.	.	.	16dd\JJ	.	.	.	.	.	.	.	.	.	.	.	.	.	.	.	.	.
8AA/	.	8A/	.	16cc#\LL	.	.	.	.	.	.	.	4cc#\	-mi-	.	.	.	.	.	.	.	.
.	.	.	.	16cc#\	.	.	.	.	.	.	.	.	.	.	.	.	.	.	.	.	.
8AA/J	.	8A/J	.	16cc#\	.	.	.	.	.	8e\	-mi-	.	.	.	.	.	.	.	.	.	.
.	.	.	.	16cc#\JJ	.	.	.	.	.	.	.	.	.	.	.	.	.	.	.	.	.
*Xtremolo	*	*Xtremolo	*	*	*	*	*	*	*	*	*	*	*	*	*	*	*	*	*	*	*
!	!	!	!	!LO:LB:g=original	!	!	!	!	!	!	!	!	!	!	!	!	!	!	!	!	!
=104	=104	=104	=104	=104	=104	=104	=104	=104	=104	=104	=104	=104	=104	=104	=104	=104	=104	=104	=104	=104	=104
!	!	!	!	!LO:TX:t=P:problem=mixed beam	!	!LO:TX:t=P:problem=mixed beam	!	!	!	!	!	!	!	!	!	!	!	!	!	!	!
8D/L	.	8d\L	.	8dd\L	.	8dd\L	.	2ryy	2ryy	8f#\	-ni	8dd\	-ni	8F#/	.	8d\	.	2r	2r	.	2ryy
8D/	.	8d\	.	8d/	.	8d/	.	.	.	8r	.	8r	.	8r	.	8r	.	.	.	.	.
8BB/	.	8B\	.	8B/	.	8B/	.	.	.	4r	.	4r	.	4r	.	4r	.	.	.	.	.
8GG#X/J	.	8G#X\J	.	8G#X/J	.	8G#X/J	.	.	.	.	.	.	.	.	.	.	.	.	.	.	.
!	!	!	!	!	!	!	!	!	!	!	!	!	!	!	!	!	!	!	!LO:LB:g=original	!	!
=105	=105	=105	=105	=105	=105	=105	=105	=105	=105	=105	=105	=105	=105	=105	=105	=105	=105	=105	=105	=105	=105
!	!	!	!LO:DY:t= :mod=%s	!	!	!	!	!	!	!	!	!	!	!	!	!	!	!	!	!	!
!	!	!	!LO:MO:mod=!LO&colon;DY&colon;ed=brack	!	!	!	!	!	!	!	!	!	!	!	!	!	!	!	!	!	!
!	!LO:DY:a:t=p.:mod=%s	!	!null	!	!LO:DY:t= :mod=%s	!	!	!	!	!LO:TX:a:t=13.:mod=	!	!LO:TX:a:t=13:mod=	!	!LO:TX:a:t=13.:mod=	!	!LO:TX:a:t=12:mod=	!	!	!	!	!
8AA/	p	8A/	p	8A/	p	4A/	.	2ryy	2ryy	0r	.	0r	.	0r	.	0r	.	2r	2aa\	.	2ryy
8r	.	8r	.	8r	.	.	.	.	.	.	.	.	.	.	.	.	.	.	.	.	.
8C#/	.	4r	.	4r	.	16r	.	.	.	.	.	.	.	.	.	.	.	.	.	.	.
!	!	!	!	!	!	!	!LO:DY:t=pia:mod=%s	!	!	!	!	!	!	!	!	!	!	!	!	!	!
.	.	.	.	.	.	16A/LL	p	.	.	.	.	.	.	.	.	.	.	.	.	.	.
8r	.	.	.	.	.	16e/	.	.	.	.	.	.	.	.	.	.	.	.	.	.	.
.	.	.	.	.	.	16g/JJ	.	.	.	.	.	.	.	.	.	.	.	.	.	.	.
!	!	!LO:LB:g=original	!	!	!	!	!	!	!	!	!	!	!	!	!	!	!	!	!	!	!
=106	=106	=106	=106	=106	=106	=106	=106	=106	=106	=106	=106	=106	=106	=106	=106	=106	=106	=106	=106	=106	=106
8D/	.	8A/	.	8d/	.	16f#/LL	.	2ryy	2ryy	.	.	.	.	.	.	.	.	2r	2aa\	.	2ryy
.	.	.	.	.	.	16A/	.	.	.	.	.	.	.	.	.	.	.	.	.	.	.
8r	.	8r	.	8r	.	16d/	.	.	.	.	.	.	.	.	.	.	.	.	.	.	.
.	.	.	.	.	.	16f#/JJ	.	.	.	.	.	.	.	.	.	.	.	.	.	.	.
!	!	!	!	!	!LO:DY:mod= 	!	!	!	!	!	!	!	!	!	!	!	!	!	!	!	!
8C#/	.	8A/	.	16r	pp	16g/LL	.	.	.	.	.	.	.	.	.	.	.	.	.	.	.
.	.	.	.	16A/LL	.	16A/	.	.	.	.	.	.	.	.	.	.	.	.	.	.	.
8r	.	8r	.	16c#/	.	16e/	.	.	.	.	.	.	.	.	.	.	.	.	.	.	.
.	.	.	.	16e/JJ	.	16g/JJ	.	.	.	.	.	.	.	.	.	.	.	.	.	.	.
=107	=107	=107	=107	=107	=107	=107	=107	=107	=107	=107	=107	=107	=107	=107	=107	=107	=107	=107	=107	=107	=107
!	!	!LO:MO:mod=!null:null	!	!	!	!	!	!	!	!	!	!	!	!	!	!	!	!	!	!	!
!	!	!LO:N:vis=4	!	!	!	!LO:TX:t=P:problem=zapis niewyraźny	!	!	!	!	!	!	!	!	!	!	!	!	!	!	!
8D/	.	8d\	.	8d/	.	8f#/	.	2ryy	2ryy	.	.	.	.	.	.	.	.	2r	4aa\	.	2ryy
8r	.	8r	.	8r	.	8r	.	.	.	.	.	.	.	.	.	.	.	.	.	.	.
4r	.	4r	.	4r	.	4r	.	.	.	.	.	.	.	.	.	.	.	.	(16gg\LL	.	.
.	.	.	.	.	.	.	.	.	.	.	.	.	.	.	.	.	.	.	16ff#\)	.	.
.	.	.	.	.	.	.	.	.	.	.	.	.	.	.	.	.	.	.	(16ee\	.	.
.	.	.	.	.	.	.	.	.	.	.	.	.	.	.	.	.	.	.	16dd\JJ)	.	.
!	!	!	!	!	!	!LO:PB:g=original	!	!	!	!	!	!	!	!	!	!	!	!	!	!	!
=108	=108	=108	=108	=108	=108	=108	=108	=108	=108	=108	=108	=108	=108	=108	=108	=108	=108	=108	=108	=108	=108
!LO:TX:a:t=5.:mod=	!	!LO:TX:a:t=5:mod=	!	!	!	!	!	!	!	!	!	!	!	!	!	!	!	!	!	!	!
2r	.	0r	.	8r	.	8r	.	2ryy	2ryy	.	.	.	.	.	.	.	.	2r	24dd|\LL	.	2ryy
.	.	.	.	.	.	.	.	.	.	.	.	.	.	.	.	.	.	.	24ff#|\	.	.
.	.	.	.	.	.	.	.	.	.	.	.	.	.	.	.	.	.	.	24aa|\JJ	.	.
.	.	.	.	8d/L	.	8f#/L	.	.	.	.	.	.	.	.	.	.	.	.	24ddd|\LL	.	.
.	.	.	.	.	.	.	.	.	.	.	.	.	.	.	.	.	.	.	24fff#|\	.	.
.	.	.	.	.	.	.	.	.	.	.	.	.	.	.	.	.	.	.	24eee|\JJ	.	.
.	.	.	.	8d/	.	8f#/	.	.	.	.	.	.	.	.	.	.	.	.	24ddd|\LL	.	.
.	.	.	.	.	.	.	.	.	.	.	.	.	.	.	.	.	.	.	24ccc#|\	.	.
.	.	.	.	.	.	.	.	.	.	.	.	.	.	.	.	.	.	.	24bb|\JJ	.	.
.	.	.	.	8d/J	.	8f#/J	.	.	.	.	.	.	.	.	.	.	.	.	(24aa\LL	.	.
.	.	.	.	.	.	.	.	.	.	.	.	.	.	.	.	.	.	.	24gg\)	.	.
.	.	.	.	.	.	.	.	.	.	.	.	.	.	.	.	.	.	.	24ff#|\JJ	.	.
=109	=109	=109	=109	=109	=109	=109	=109	=109	=109	=109	=109	=109	=109	=109	=109	=109	=109	=109	=109	=109	=109
2r	.	.	.	8r	.	8r	.	2ryy	2ryy	0r	.	0r	.	0r	.	0r	.	2r	(32aa\LLL	.	2ryy
.	.	.	.	.	.	.	.	.	.	.	.	.	.	.	.	.	.	.	32gg\)	.	.
!	!	!	!	!	!	!	!	!	!	!	!	!	!	!	!	!	!	!	!LO:SIC:s=32ff#|	!	!
.	.	.	.	.	.	.	.	.	.	.	.	.	.	.	.	.	.	.	32ff#\	.	.
.	.	.	.	.	.	.	.	.	.	.	.	.	.	.	.	.	.	.	32gg|\JJJ	.	.
.	.	.	.	8d/L	.	8b\L	.	.	.	.	.	.	.	.	.	.	.	.	8gg\	.	.
.	.	.	.	8d/	.	8b\	.	.	.	.	.	.	.	.	.	.	.	.	4r	.	.
.	.	.	.	8d/J	.	8b\J	.	.	.	.	.	.	.	.	.	.	.	.	.	.	.
=110	=110	=110	=110	=110	=110	=110	=110	=110	=110	=110	=110	=110	=110	=110	=110	=110	=110	=110	=110	=110	=110
2r	.	.	.	8r	.	8r	.	2ryy	2ryy	.	.	.	.	.	.	.	.	2r	24a|\LL	.	2ryy
.	.	.	.	.	.	.	.	.	.	.	.	.	.	.	.	.	.	.	24cc#|\	.	.
.	.	.	.	.	.	.	.	.	.	.	.	.	.	.	.	.	.	.	24ee|\JJ	.	.
.	.	.	.	8c#/L	.	8a\L	.	.	.	.	.	.	.	.	.	.	.	.	24gg|\LL	.	.
.	.	.	.	.	.	.	.	.	.	.	.	.	.	.	.	.	.	.	24aa|\	.	.
.	.	.	.	.	.	.	.	.	.	.	.	.	.	.	.	.	.	.	24gg|\JJ	.	.
.	.	.	.	8c#/	.	8a\	.	.	.	.	.	.	.	.	.	.	.	.	(24eee\LL	.	.
.	.	.	.	.	.	.	.	.	.	.	.	.	.	.	.	.	.	.	24ddd\)	.	.
.	.	.	.	.	.	.	.	.	.	.	.	.	.	.	.	.	.	.	24ccc#|\JJ	.	.
.	.	.	.	8c#/J	.	8a\J	.	.	.	.	.	.	.	.	.	.	.	.	(24bb\LL	.	.
.	.	.	.	.	.	.	.	.	.	.	.	.	.	.	.	.	.	.	24aa\)	.	.
.	.	.	.	.	.	.	.	.	.	.	.	.	.	.	.	.	.	.	24gg|\JJ	.	.
!	!	!	!	!	!	!	!	!	!	!	!	!	!	!	!	!	!	!	!LO:LB:g=original	!	!
=111	=111	=111	=111	=111	=111	=111	=111	=111	=111	=111	=111	=111	=111	=111	=111	=111	=111	=111	=111	=111	=111
2r	.	.	.	8d/	.	16a/LL	.	2ryy	2ryy	.	.	.	.	.	.	.	.	2r	16ff#\LL	.	2ryy
.	.	.	.	.	.	16f#/	.	.	.	.	.	.	.	.	.	.	.	.	16aa\	.	.
.	.	.	.	8r	.	16f#/	.	.	.	.	.	.	.	.	.	.	.	.	16aa\	.	.
.	.	.	.	.	.	16f#/JJ	.	.	.	.	.	.	.	.	.	.	.	.	16aa\JJ	.	.
.	.	.	.	8r	.	16f#/LL	.	.	.	.	.	.	.	.	.	.	.	.	24aa|\LL	.	.
.	.	.	.	.	.	.	.	.	.	.	.	.	.	.	.	.	.	.	(24gg\	.	.
.	.	.	.	.	.	32e/L	.	.	.	.	.	.	.	.	.	.	.	.	.	.	.
.	.	.	.	.	.	.	.	.	.	.	.	.	.	.	.	.	.	.	24ff#\JJ)	.	.
.	.	.	.	.	.	32d/JJJ	.	.	.	.	.	.	.	.	.	.	.	.	.	.	.
.	.	.	.	8d/	.	16f#/LL	.	.	.	.	.	.	.	.	.	.	.	.	24aa|\LL	.	.
.	.	.	.	.	.	.	.	.	.	.	.	.	.	.	.	.	.	.	(24gg\	.	.
.	.	.	.	.	.	32e/L	.	.	.	.	.	.	.	.	.	.	.	.	.	.	.
.	.	.	.	.	.	.	.	.	.	.	.	.	.	.	.	.	.	.	24ff#\JJ)	.	.
.	.	.	.	.	.	32d/JJJ	.	.	.	.	.	.	.	.	.	.	.	.	.	.	.
!	!	!	!	!LO:LB:g=original	!	!	!	!	!	!	!	!	!	!	!	!	!	!	!	!	!
=112	=112	=112	=112	=112	=112	=112	=112	=112	=112	=112	=112	=112	=112	=112	=112	=112	=112	=112	=112	=112	=112
.	.	.	.	.	.	8qd/	.	.	.	.	.	.	.	.	.	.	.	.	8qqgg/	.	.
2r	.	2r	.	8r	.	8c#/L	.	2ryy	2ryy	.	.	.	.	.	.	.	.	2r	16ff#\LL	.	2ryy
.	.	.	.	.	.	.	.	.	.	.	.	.	.	.	.	.	.	.	32ee\L	.	.
.	.	.	.	.	.	.	.	.	.	.	.	.	.	.	.	.	.	.	32ff#\JJ	.	.
.	.	.	.	8A/L	.	8c#/	.	.	.	.	.	.	.	.	.	.	.	.	8ee\J	.	.
.	.	.	.	8a/J	.	8c#/J	.	.	.	.	.	.	.	.	.	.	.	.	8r	.	.
.	.	.	.	8r	.	8r	.	.	.	.	.	.	.	.	.	.	.	.	(32aa\LLL	.	.
.	.	.	.	.	.	.	.	.	.	.	.	.	.	.	.	.	.	.	32gg#X\)	.	.
.	.	.	.	.	.	.	.	.	.	.	.	.	.	.	.	.	.	.	(32bb\	.	.
.	.	.	.	.	.	.	.	.	.	.	.	.	.	.	.	.	.	.	32aa\JJJ)	.	.
!LO:LB:g=original	!	!	!	!	!	!	!	!	!	!	!	!	!	!	!	!	!	!	!	!	!
=113	=113	=113	=113	=113	=113	=113	=113	=113	=113	=113	=113	=113	=113	=113	=113	=113	=113	=113	=113	=113	=113
!	!LO:DY:t=pia.:mod= 	!	!LO:DY:a:t=p.:mod= 	!	!	!	!	!	!	!	!	!	!	!	!	!	!	!	!	!	!
8C#/	p	8A/	p	8c#/	.	8a/L	.	2ryy	2ryy	0r	.	0r	.	0r	.	0r	.	2r	(24ggn\LL	.	2ryy
.	.	.	.	.	.	.	.	.	.	.	.	.	.	.	.	.	.	.	24ff#\	.	.
.	.	.	.	.	.	.	.	.	.	.	.	.	.	.	.	.	.	.	24ee\)	.	.
*	*	*	*	*	*	*tuplet	*	*	*	*	*	*	*	*	*	*	*	*	*	*	*
!	!	!	!	!	!	!LO:TUP:b:problem=klamra łukowa	!	!	!	!	!	!	!	!	!	!	!	!	!	!	!
8r	.	8r	.	8r	.	24g/L	.	.	.	.	.	.	.	.	.	.	.	.	(24bb\	.	.
.	.	.	.	.	.	24f#/	.	.	.	.	.	.	.	.	.	.	.	.	24aa\	.	.
.	.	.	.	.	.	24e/JJ	.	.	.	.	.	.	.	.	.	.	.	.	24gg\JJ)	.	.
8D/	.	8A/	.	8d/	.	(16d/LL	.	.	.	.	.	.	.	.	.	.	.	.	(16ff#\LL	.	.
.	.	.	.	.	.	16f#/)	.	.	.	.	.	.	.	.	.	.	.	.	16ddd\)	.	.
8r	.	8r	.	8r	.	16f#|/	.	.	.	.	.	.	.	.	.	.	.	.	16aa|\	.	.
.	.	.	.	.	.	16f#|/JJ	.	.	.	.	.	.	.	.	.	.	.	.	16aa|\JJ	.	.
=114	=114	=114	=114	=114	=114	=114	=114	=114	=114	=114	=114	=114	=114	=114	=114	=114	=114	=114	=114	=114	=114
8C#/	.	8A/	.	8c#/	.	8e/L	.	2ryy	2ryy	.	.	.	.	.	.	.	.	2r	(24gg\LL	.	2ryy
.	.	.	.	.	.	.	.	.	.	.	.	.	.	.	.	.	.	.	24ff#\	.	.
.	.	.	.	.	.	.	.	.	.	.	.	.	.	.	.	.	.	.	24ee\)	.	.
*	*	*	*	*	*	*Xtuplet	*	*	*	*	*	*	*	*	*	*	*	*	*	*	*
8r	.	8r	.	8r	.	24g/L	.	.	.	.	.	.	.	.	.	.	.	.	(24bb\	.	.
.	.	.	.	.	.	24f#/	.	.	.	.	.	.	.	.	.	.	.	.	24aa\	.	.
.	.	.	.	.	.	24e/JJ	.	.	.	.	.	.	.	.	.	.	.	.	24gg\JJ)	.	.
8D/	.	8A/	.	8d/	.	(16d/LL	.	.	.	.	.	.	.	.	.	.	.	.	(16ff#\LL	.	.
.	.	.	.	.	.	16f#/)	.	.	.	.	.	.	.	.	.	.	.	.	16ddd\)	.	.
8r	.	8r	.	8r	.	16f#|/	.	.	.	.	.	.	.	.	.	.	.	.	16aa|\	.	.
.	.	.	.	.	.	16f#|/JJ	.	.	.	.	.	.	.	.	.	.	.	.	16aa|\JJ	.	.
!	!	!	!	!	!	!LO:LB:g=original	!	!	!	!	!	!	!	!	!	!	!	!	!	!	!
=115	=115	=115	=115	=115	=115	=115	=115	=115	=115	=115	=115	=115	=115	=115	=115	=115	=115	=115	=115	=115	=115
.	.	.	.	.	.	.	.	.	.	.	.	.	.	.	.	.	.	.	8qqaa#X/	.	.
8r	.	8r	.	8r	.	8r	.	2ryy	2ryy	.	.	.	.	.	.	.	.	2r	4bb\	.	2ryy
!	!	!LO:TX:t=P:problem=mixed beam	!	!	!	!	!	!	!	!	!	!	!	!	!	!	!	!	!	!	!
8G\L	.	8g\L	.	8g/L	.	8d/L	.	.	.	.	.	.	.	.	.	.	.	.	.	.	.
!	!	!	!	!	!	!	!	!	!	!	!	!	!	!	!	!	!	!	!LO:SIC:s=(32bbLLL	!	!
8G\J	.	8G/J	.	8g/J	.	8d/J	.	.	.	.	.	.	.	.	.	.	.	.	32bb\LLL	.	.
.	.	.	.	.	.	.	.	.	.	.	.	.	.	.	.	.	.	.	32ccc#\	.	.
.	.	.	.	.	.	.	.	.	.	.	.	.	.	.	.	.	.	.	32ddd\	.	.
!	!	!	!	!	!	!	!	!	!	!	!	!	!	!	!	!	!	!	!LO:SIC:s=32ccc#JJJ)	!	!
.	.	.	.	.	.	.	.	.	.	.	.	.	.	.	.	.	.	.	32ccc#\JJJ	.	.
!	!	!	!	!	!	!	!	!	!	!	!	!	!	!	!	!	!	!	!LO:LB:g=original	!	!
8r	.	8r	.	8r	.	8r	.	.	.	.	.	.	.	.	.	.	.	.	(32ddd\LLL	.	.
.	.	.	.	.	.	.	.	.	.	.	.	.	.	.	.	.	.	.	32bb\	.	.
.	.	.	.	.	.	.	.	.	.	.	.	.	.	.	.	.	.	.	32aany\	.	.
.	.	.	.	.	.	.	.	.	.	.	.	.	.	.	.	.	.	.	32gg\JJJ)	.	.
=116	=116	=116	=116	=116	=116	=116	=116	=116	=116	=116	=116	=116	=116	=116	=116	=116	=116	=116	=116	=116	=116
*	*	*tremolo	*	*	*	*tremolo	*	*	*	*	*	*	*	*	*	*	*	*	*	*	*
!LO:TX:t=P:problem=mixed beam	!	!	!	!	!	!	!	!	!	!	!	!	!	!	!	!	!	!	!	!	!
8A\L	.	8A/L	.	8f#/L	.	16dd\LL	.	2ryy	2ryy	.	.	.	.	.	.	.	.	2r	(16ff#\LL	.	2ryy
.	.	.	.	.	.	16dd\	.	.	.	.	.	.	.	.	.	.	.	.	32aa\L	.	.
.	.	.	.	.	.	.	.	.	.	.	.	.	.	.	.	.	.	.	32gg\)	.	.
8A\	.	8A/	.	8f#/	.	16dd\	.	.	.	.	.	.	.	.	.	.	.	.	(32ff#\	.	.
.	.	.	.	.	.	.	.	.	.	.	.	.	.	.	.	.	.	.	32ee\	.	.
!	!	!	!	!	!	!	!	!	!	!	!	!	!	!	!	!	!	!	!LO:MO:mod=!null:null	!	!
!	!	!	!	!	!	!	!	!	!	!	!	!	!	!	!	!	!	!	!LO:N:vis=32	!	!
.	.	.	.	.	.	16dd\JJ	.	.	.	.	.	.	.	.	.	.	.	.	16dd\JJJ)	.	.
*	*	*	*	*	*	*Xtremolo	*	*	*	*	*	*	*	*	*	*	*	*	*	*	*
8AA/	.	8A/	.	8e/	.	16dd\LL	.	.	.	.	.	.	.	.	.	.	.	.	4eeT\	.	.
.	.	.	.	.	.	16dd\	.	.	.	.	.	.	.	.	.	.	.	.	.	.	.
8AA/J	.	8A/J	.	8e/J	.	16cc#\	.	.	.	.	.	.	.	.	.	.	.	.	.	.	.
.	.	.	.	.	.	16cc#\JJ	.	.	.	.	.	.	.	.	.	.	.	.	.	.	.
*	*	*Xtremolo	*	*	*	*	*	*	*	*	*	*	*	*	*	*	*	*	*	*	*
=117	=117	=117	=117	=117	=117	=117	=117	=117	=117	=117	=117	=117	=117	=117	=117	=117	=117	=117	=117	=117	=117
*	*	*	*	*	*	*tremolo	*	*	*	*	*	*	*	*	*	*	*	*	*	*	*
!	!	!	!	!	!	!LO:TX:a:t=....:mod=	!	!	!	!	!	!	!	!	!	!LO:TX:t=P:problem=pominięty takt	!	!	!	!	!
8D/	.	8A/	.	8f#/	.	8dd'\L	.	2ryy	2ryy	2r	.	2r	.	2r	.	2ryy	.	2r	4dd\	.	2ryy
8r	.	8r	.	8r	.	8dd'\	.	.	.	.	.	.	.	.	.	.	.	.	.	.	.
4r	.	4r	.	4r	.	8dd'\	.	.	.	.	.	.	.	.	.	.	.	.	4r	.	.
.	.	.	.	.	.	8dd'\J	.	.	.	.	.	.	.	.	.	.	.	.	.	.	.
*	*	*	*	*	*	*Xtremolo	*	*	*	*	*	*	*	*	*	*	*	*	*	*	*
!	!	!LO:LB:g=original	!	!	!	!	!	!	!	!	!	!	!	!	!	!	!	!	!	!	!
=118	=118	=118	=118	=118	=118	=118	=118	=118	=118	=118	=118	=118	=118	=118	=118	=118	=118	=118	=118	=118	=118
*	*	*tremolo	*	*	*	*	*	*	*	*	*	*	*	*	*	*	*	*	*	*	*
.	.	.	.	.	.	8qa/	.	.	.	.	.	.	.	.	.	.	.	.	.	.	.
!	!LO:DY:a:t=for&colon;:mod=%s	!	!LO:DY:a:t=for:mod=%s	!	!LO:DY:t=for:mod=%s	!	!LO:DY:t=for:mod=%s	!	!	!LO:TX:t=P:problem=pominięte takty	!	!LO:TX:t=P:problem=pominięte takty	!	!LO:SIC:s=(2A	!	!	!	!	!LO:TX:a:t=2.:mod=	!	!
8C#\L	f	16c#\LL	f	16e/LL	f	2gg\	f	2ryy	2ryy	2ryy	.	2ryy	.	2A/	.	(2e\	.	2r	1r	.	2ryy
.	.	16e\	.	16a/	.	.	.	.	.	.	.	.	.	.	.	.	.	.	.	.	.
8E\	.	16c#\	.	16e/	.	.	.	.	.	.	.	.	.	.	.	.	.	.	.	.	.
.	.	16e\	.	16a/	.	.	.	.	.	.	.	.	.	.	.	.	.	.	.	.	.
8AA\	.	16c#\	.	16e/	.	.	.	.	.	.	.	.	.	.	.	.	.	.	.	.	.
.	.	16e\	.	16a/	.	.	.	.	.	.	.	.	.	.	.	.	.	.	.	.	.
8C#\J	.	16c#\	.	16e/	.	.	.	.	.	.	.	.	.	.	.	.	.	.	.	.	.
.	.	16e\JJ	.	16a/JJ	.	.	.	.	.	.	.	.	.	.	.	.	.	.	.	.	.
!	!	!	!	!LO:LB:g=original	!	!	!	!	!	!	!	!	!	!LO:LB:g=original	!	!	!	!	!	!	!
=119	=119	=119	=119	=119	=119	=119	=119	=119	=119	=119	=119	=119	=119	=119	=119	=119	=119	=119	=119	=119	=119
!	!LO:DY:a:t=p.:mod=%s	!	!LO:DY:a:t=p.:mod=%s	!	!LO:DY:t=p&colon;:mod=%s	!	!LO:DY:t=pia:mod=%s	!	!	!	!	!	!	!LO:SIC:s=2d)	!	!	!	!	!	!	!
8D\L	p	16d\LL	p	16f#/LL	p	(16ff#\LL	p	2ryy	2ryy	2ryy	.	2ryy	.	2d\	.	2f#\)	.	2r	.	.	2ryy
.	.	16f#\	.	16a/	.	16gg\)	.	.	.	.	.	.	.	.	.	.	.	.	.	.	.
8F#\	.	16d\	.	16f#/	.	16dd\	.	.	.	.	.	.	.	.	.	.	.	.	.	.	.
.	.	16f#\	.	16a/JJ	.	16dd\JJ	.	.	.	.	.	.	.	.	.	.	.	.	.	.	.
8D\	.	16d\	.	16f#/LL	.	16dd\LL	.	.	.	.	.	.	.	.	.	.	.	.	.	.	.
.	.	16f#\	.	16a/	.	16ff#\	.	.	.	.	.	.	.	.	.	.	.	.	.	.	.
8F#\J	.	16d\	.	16f#/	.	16ff#\	.	.	.	.	.	.	.	.	.	.	.	.	.	.	.
.	.	16f#\JJ	.	16a/JJ	.	16aa\JJ	.	.	.	.	.	.	.	.	.	.	.	.	.	.	.
=120	=120	=120	=120	=120	=120	=120	=120	=120	=120	=120	=120	=120	=120	=120	=120	=120	=120	=120	=120	=120	=120
!	!LO:DY:t= :mod=%s	!	!LO:DY:t= :mod=%s	!	!LO:DY:t= :mod=%s	!	!	!	!	!	!	!	!	!	!	!	!	!	!	!	!
!	!LO:MO:mod=!LO&colon;DY&colon;ed=brack	!	!LO:MO:mod=!LO&colon;DY&colon;ed=brack	!	!LO:MO:mod=!LO&colon;DY&colon;ed=brack	!	!	!	!	!	!	!	!	!	!	!	!	!	!	!	!
!LO:TX:t=P:problem=mixed beam	!null	!	!null	!	!null	!	!LO:DY:t=for.:mod=%s	!	!	!	!	!	!	!	!	!	!	!	!	!	!
8C#\L	f	16c#\LL	f	16e/LL	f	4.gg\	f	2ryy	2ryy	2ryy	.	2ryy	.	2A/	.	2e\	.	2r	4r	.	2ryy
.	.	16e\	.	16a/	.	.	.	.	.	.	.	.	.	.	.	.	.	.	.	.	.
8E\	.	16c#\	.	16e/	.	.	.	.	.	.	.	.	.	.	.	.	.	.	.	.	.
.	.	16e\	.	16a/JJ	.	.	.	.	.	.	.	.	.	.	.	.	.	.	.	.	.
8AA/	.	16c#\	.	16e/LL	.	.	.	.	.	.	.	.	.	.	.	.	.	.	8r	.	.
.	.	16e\	.	16a/	.	.	.	.	.	.	.	.	.	.	.	.	.	.	.	.	.
8A\J	.	16c#\	.	16e/	.	(16ee\LL	.	.	.	.	.	.	.	.	.	.	.	.	8ccc#\	.	.
.	.	16e\JJ	.	16a/JJ	.	16cc#\JJ)	.	.	.	.	.	.	.	.	.	.	.	.	.	.	.
*	*	*Xtremolo	*	*	*	*	*	*	*	*	*	*	*	*	*	*	*	*	*	*	*
=121	=121	=121	=121	=121	=121	=121	=121	=121	=121	=121	=121	=121	=121	=121	=121	=121	=121	=121	=121	=121	=121
!	!LO:DY:t= :mod=%s	!	!	!	!LO:DY:t= :mod=%s	!	!	!	!	!	!	!	!	!	!	!	!	!	!	!	!
!	!LO:MO:mod=!LO&colon;DY&colon;ed=brack	!	!	!	!LO:MO:mod=!LO&colon;DY&colon;ed=brack	!	!	!	!	!	!	!	!	!	!	!	!	!	!	!	!
!	!null	!	!LO:DY:a:t=p.:mod=%s	!	!null	!	!LO:DY:t=pia:mod=%s	!	!	!	!	!	!	!	!	!	!	!	!LO:SIC:s=(4ccc#	!	!
8d\L	p	4A/	p	4e/	p	(4cc#\	p	2ryy	2ryy	2ryy	.	2ryy	.	4A/	.	4e\	.	2r	4ccc#\	.	2ryy
8A\	.	.	.	.	.	.	.	.	.	.	.	.	.	.	.	.	.	.	.	.	.
!	!	!	!	!	!	!	!	!	!	!	!	!	!	!	!	!	!	!	!LO:SIC:s=8ddd)	!	!
8D\J	.	8A/	.	8f#/	.	8dd\)	.	.	.	.	.	.	.	8d\	.	8f#\	.	.	8ddd\	.	.
8r	.	8r	.	8r	.	8r	.	.	.	.	.	.	.	8r	.	8r	.	.	8r	.	.
!	!	!	!	!	!	!	!	!	!	!	!	!	!	!	!	!LO:TX:i:b:t=Agnus wer:mod=	!	!	!	!	!
==	==	==	==	==	==	==	==	==	==	==	==	==	==	==	==	==	==	==	==	==	==
*-	*-	*-	*-	*-	*-	*-	*-	*-	*-	*-	*-	*-	*-	*-	*-	*-	*-	*-	*-	*-	*-
!!!system-decoration: [(g1)][(g2)][(g3)][(g4)]<s13>
!!!RDF**kern: | = vertical stroke
!!!RDF**kern: @ = marked note, color=grey
!!!filter-modern: shed -e "s/:TX:t=P:/:tx:t=p:/L" | shed -X dynam -e "s/:a/:A/LX" | shed -e "s/^(X?)tuplet$/$1TUPLET/I" | shed -k -e "s/:TUP:/:tup:/L" | sic -sq | modori -m | autostem -r | tie -s | humtr -p | shed -e "s/yy//"
!!!ENC: Andrzej Gręziak
!!!END: 2020-09-25
!!!ENC: Kamil Watkowski
!!!END: 2022-02-15
!!!ENC-modern: Andrzej Kubiczek
!!!END-modern: 2022-06-24
!!!YEC: Copyright 2022 Narodowy Instytut Fryderyka Chopina (https://polishscores.org)
!!!YEM: Licence CC BY 4.0 (https://creativecommons.org/licenses/by/4.0)
